;FLAVOR:Marlin
;TIME:9232
;Filament used: 19.7256m
;Layer height: 0.2
;MINX:48.75
;MINY:74.492
;MINZ:0.2
;MAXX:187.165
;MAXY:160.387
;MAXZ:73.8
;TARGET_MACHINE.NAME:Creality Ender-3
;Generated with Cura_SteamEngine 5.6.0
M140 S60
M105
M190 S60
M104 S205
M105
M109 S205
M82 ;absolute extrusion mode
; Ender 3 Custom Start G-code
G92 E0 ; Reset Extruder
G28 ; Home all axes
G1 Z2.0 F3000 ; Move Z Axis up little to prevent scratching of Heat Bed
G1 X0.1 Y20 Z0.3 F5000.0 ; Move to start position
G1 X0.1 Y200.0 Z0.3 F1500.0 E15 ; Draw the first line
G1 X0.4 Y200.0 Z0.3 F5000.0 ; Move to side a little
G1 X0.4 Y20 Z0.3 F1500.0 E30 ; Draw the second line
G92 E0 ; Reset Extruder
G1 Z2.0 F3000 ; Move Z Axis up little to prevent scratching of Heat Bed
G1 X5 Y20 Z0.3 F5000.0 ; Move over to prevent blob squish
G92 E0
G92 E0
G1 F2700 E-0.8
;LAYER_COUNT:369
;LAYER:0
M107
;MESH:box-2.stl
G0 F6000 X185.3 Y141.42 Z0.2
;TYPE:WALL-INNER
G1 F2700 E0
G1 F1200 X185.3 Y98.78 E2.83642
G1 X49.7 Y98.78 E11.85657
G1 X49.7 Y141.42 E14.693
G1 X185.3 Y141.42 E23.71315
G0 F6000 X186.1 Y142.22
;TYPE:WALL-OUTER
G1 F1200 X186.1 Y97.98 E26.656
G1 X48.9 Y97.98 E35.78258
G1 X48.9 Y142.22 E38.72544
G1 X186.1 Y142.22 E47.85202
G1 F2700 E47.05202
G0 F6000 X185.43 Y141.551
G0 X164.48 Y141.02
G0 X164.48 Y120.6
;TYPE:SKIN
G1 F2700 E47.85202
G1 F960 X164.48 Y119.6 E47.93517
G1 X70.52 Y119.6 E55.74798
G1 X70.52 Y120.6 E55.83113
G1 X164.48 Y120.6 E63.64393
G0 F6000 X165.38 Y121.5
G1 F1200 X165.38 Y118.7 E63.83019
G1 X69.62 Y118.7 E70.20017
G1 X69.62 Y121.5 E70.38643
G1 X165.38 Y121.5 E76.75641
G0 F6000 X166.18 Y122.3
G1 F1200 X166.18 Y117.9 E77.0491
G1 X68.82 Y117.9 E83.52551
G1 X68.82 Y122.3 E83.8182
G1 X166.18 Y122.3 E90.29461
G0 F6000 X166.98 Y123.1
G1 F1200 X166.98 Y117.1 E90.69374
G1 X68.02 Y117.1 E97.27658
G1 X68.02 Y123.1 E97.6757
G1 X166.98 Y123.1 E104.25855
G0 F6000 X167.78 Y123.9
G1 F1200 X167.78 Y116.3 E104.7641
G1 X67.22 Y116.3 E111.45338
G1 X67.22 Y123.9 E111.95894
G1 X167.78 Y123.9 E118.64821
G0 F6000 X168.58 Y124.7
G1 F1200 X168.58 Y115.5 E119.2602
G1 X66.42 Y115.5 E126.05591
G1 X66.42 Y124.7 E126.6679
G1 X168.58 Y124.7 E133.46361
G0 F6000 X169.38 Y125.5
G1 F1200 X169.38 Y114.7 E134.18203
G1 X65.62 Y114.7 E141.08417
G1 X65.62 Y125.5 E141.80259
G1 X169.38 Y125.5 E148.70473
G0 F6000 X170.18 Y126.3
G1 F1200 X170.18 Y113.9 E149.52958
G1 X64.82 Y113.9 E156.53816
G1 X64.82 Y126.3 E157.36301
G1 X170.18 Y126.3 E164.37159
G0 F6000 X170.98 Y127.1
G1 F1200 X170.98 Y113.1 E165.30287
G1 X64.02 Y113.1 E172.41788
G1 X64.02 Y127.1 E173.34916
G1 X170.98 Y127.1 E180.46417
G0 F6000 X171.78 Y127.9
G1 F1200 X171.78 Y112.3 E181.50189
G1 X63.22 Y112.3 E188.72333
G1 X63.22 Y127.9 E189.76104
G1 X171.78 Y127.9 E196.98248
G0 F6000 X172.58 Y128.7
G1 F1200 X172.58 Y111.5 E198.12663
G1 X62.42 Y111.5 E205.45451
G1 X62.42 Y128.7 E206.59865
G1 X172.58 Y128.7 E213.92653
G0 F6000 X173.38 Y129.5
G1 F1200 X173.38 Y110.7 E215.17711
G1 X61.62 Y110.7 E222.61141
G1 X61.62 Y129.5 E223.862
G1 X173.38 Y129.5 E231.2963
G0 F6000 X174.18 Y130.3
G1 F1200 X174.18 Y109.9 E232.65331
G1 X60.82 Y109.9 E240.19405
G1 X60.82 Y130.3 E241.55107
G1 X174.18 Y130.3 E249.0918
G0 F6000 X174.98 Y131.1
G1 F1200 X174.98 Y109.1 E250.55525
G1 X60.02 Y109.1 E258.20242
G1 X60.02 Y131.1 E259.66587
G1 X174.98 Y131.1 E267.31304
G0 F6000 X175.78 Y131.9
G1 F1200 X175.78 Y108.3 E268.88291
G1 X59.22 Y108.3 E276.63652
G1 X59.22 Y131.9 E278.2064
G1 X175.78 Y131.9 E285.96
G0 F6000 X176.58 Y132.7
G1 F1200 X176.58 Y107.5 E287.63631
G1 X58.42 Y107.5 E295.49634
G1 X58.42 Y132.7 E297.17265
G1 X176.58 Y132.7 E305.03269
G0 F6000 X177.38 Y133.5
G1 F1200 X177.38 Y106.7 E306.81543
G1 X57.62 Y106.7 E314.7819
G1 X57.62 Y133.5 E316.56464
G1 X177.38 Y133.5 E324.53111
G0 F6000 X178.18 Y134.3
G1 F1200 X178.18 Y105.9 E326.42029
G1 X56.82 Y105.9 E334.49319
G1 X56.82 Y134.3 E336.38236
G1 X178.18 Y134.3 E344.45526
G0 F6000 X178.98 Y135.1
G1 F1200 X178.98 Y105.1 E346.45087
G1 X56.02 Y105.1 E354.6302
G1 X56.02 Y135.1 E356.62581
G1 X178.98 Y135.1 E364.80514
G0 F6000 X179.78 Y135.9
G1 F1200 X179.78 Y104.3 E366.90718
G1 X55.22 Y104.3 E375.19295
G1 X55.22 Y135.9 E377.29499
G1 X179.78 Y135.9 E385.58075
G0 F6000 X180.58 Y136.7
G1 F1200 X180.58 Y103.5 E387.78923
G1 X54.42 Y103.5 E396.18142
G1 X54.42 Y136.7 E398.3899
G1 X180.58 Y136.7 E406.78209
G0 F6000 X181.38 Y137.5
G1 F1200 X181.38 Y102.7 E409.097
G1 X53.62 Y102.7 E417.59563
G1 X53.62 Y137.5 E419.91054
G1 X181.38 Y137.5 E428.40917
G0 F6000 X182.18 Y138.3
G1 F1200 X182.18 Y101.9 E430.8305
G1 X52.82 Y101.9 E439.43557
G1 X52.82 Y138.3 E441.8569
G1 X182.18 Y138.3 E450.46197
G0 F6000 X182.98 Y139.1
G1 F1200 X182.98 Y101.1 E452.98974
G1 X52.02 Y101.1 E461.70123
G1 X52.02 Y139.1 E464.229
G1 X182.98 Y139.1 E472.94049
G0 F6000 X184.9 Y139.1
G0 X185 Y139.9
G0 X183.78 Y139.9
G1 F1200 X183.78 Y100.3 E475.5747
G1 X51.22 Y100.3 E484.39262
G1 X51.22 Y139.9 E487.02683
G1 X183.78 Y139.9 E495.84475
G0 F6000 X185 Y139.9
G0 X185 Y140.7
G0 X184.58 Y140.7
G1 F1200 X184.58 Y99.5 E498.58539
G1 X50.42 Y99.5 E507.50975
G1 X50.42 Y140.7 E510.25038
G1 X184.58 Y140.7 E519.17474
;MESH:NONMESH
G0 F300 X184.58 Y140.7 Z0.4
G0 F6000 X185 Y140.7
G0 X185.3 Y141.474
;TIME_ELAPSED:400.164865
;LAYER:1
M106 S85
;TYPE:WALL-INNER
;MESH:box-2.stl
G1 F2100 X185.3 Y98.58 E522.02806
G1 X49.701 Y98.581 E531.04815
G1 X49.701 Y141.473 E533.90133
G1 X185.3 Y141.474 E542.92142
G0 F10500 X186.1 Y142.274
;TYPE:WALL-OUTER
G1 F2100 X186.1 Y97.78 E545.88117
G1 X48.901 Y97.781 E555.00768
G1 X48.901 Y142.273 E557.9673
G1 X186.1 Y142.274 E567.09382
G0 F10500 X185.43 Y141.604
G0 X184.579 Y141.173
G0 X184.58 Y140.754
;TYPE:SKIN
G1 F2100 X50.421 Y140.753 E576.01811
G1 X50.421 Y99.301 E578.77551
G1 X184.58 Y99.3 E587.6998
G1 X184.58 Y140.754 E590.45733
G0 F10500 X184.579 Y141.173
G0 X184.928 Y141.102
G0 X185 Y139.392
G0 X184.179 Y139.392
G1 F2100 X183.217 Y140.354 E590.54783
G0 F10500 X183.216 Y141.173
G0 X182.085 Y141.173
G0 X182.086 Y140.354
G1 F2100 X184.179 Y138.261 E590.74473
G0 F10500 X185 Y138.261
G0 X185 Y137.129
G0 X184.179 Y137.129
G1 F2100 X180.954 Y140.354 E591.04812
G0 F10500 X180.953 Y141.173
G0 X179.822 Y141.173
G0 X179.823 Y140.354
G1 F2100 X184.179 Y135.998 E591.4579
G0 F10500 X185 Y135.998
G0 X185 Y134.867
G0 X184.179 Y134.867
G1 F2100 X178.692 Y140.354 E591.97409
G0 F10500 X178.691 Y141.173
G0 X177.559 Y141.173
G0 X177.56 Y140.354
G1 F2100 X184.179 Y133.735 E592.59676
G0 F10500 X185 Y133.735
G0 X185 Y132.604
G0 X184.179 Y132.604
G1 F2100 X176.429 Y140.354 E593.32583
G0 F10500 X176.428 Y141.173
G0 X175.297 Y141.173
G0 X175.298 Y140.354
G1 F2100 X184.179 Y131.473 E594.1613
G0 F10500 X185 Y131.473
G0 X185 Y130.341
G0 X184.179 Y130.341
G1 F2100 X174.166 Y140.354 E595.10326
G0 F10500 X174.165 Y141.173
G0 X173.034 Y141.173
G0 X173.035 Y140.354
G1 F2100 X184.179 Y129.21 E596.15162
G0 F10500 X185 Y129.21
G0 X185 Y128.078
G0 X184.179 Y128.078
G1 F2100 X171.904 Y140.354 E597.30643
G0 F10500 X171.903 Y141.173
G0 X170.771 Y141.173
G0 X170.772 Y140.354
G1 F2100 X184.179 Y126.947 E598.56768
G0 F10500 X185 Y126.947
G0 X185 Y125.816
G0 X184.179 Y125.816
G1 F2100 X169.641 Y140.354 E599.93532
G0 F10500 X169.64 Y141.173
G0 X168.508 Y141.173
G0 X168.509 Y140.354
G1 F2100 X184.179 Y124.684 E601.40946
G0 F10500 X185 Y124.684
G0 X185 Y123.553
G0 X184.179 Y123.553
G1 F2100 X167.378 Y140.354 E602.98999
G0 F10500 X167.377 Y141.173
G0 X166.246 Y141.173
G0 X166.247 Y140.354
G1 F2100 X184.179 Y122.422 E604.67693
G0 F10500 X185 Y122.422
G0 X185 Y121.29
G0 X184.179 Y121.29
G1 F2100 X165.115 Y140.354 E606.47035
G0 F10500 X165.114 Y141.173
G0 X163.983 Y141.173
G0 X163.984 Y140.354
G1 F2100 X184.179 Y120.159 E608.37017
G0 F10500 X185 Y120.159
G0 X185 Y119.027
G0 X184.179 Y119.027
G1 F2100 X162.853 Y140.354 E610.37644
G0 F10500 X162.852 Y141.173
G0 X161.72 Y141.173
G0 X161.721 Y140.354
G1 F2100 X184.179 Y117.896 E612.48915
G0 F10500 X185 Y117.896
G0 X185 Y116.765
G0 X184.179 Y116.765
G1 F2100 X160.59 Y140.354 E614.70826
G0 F10500 X160.589 Y141.173
G0 X159.457 Y141.173
G0 X159.458 Y140.354
G1 F2100 X184.179 Y115.633 E617.03386
G0 F10500 X185 Y115.633
G0 X185 Y114.502
G0 X184.179 Y114.502
G1 F2100 X158.327 Y140.354 E619.46586
G0 F10500 X158.326 Y141.173
G0 X157.195 Y141.173
G0 X157.196 Y140.354
G1 F2100 X184.179 Y113.371 E622.00425
G0 F10500 X185 Y113.371
G0 X185 Y112.239
G0 X184.179 Y112.239
G1 F2100 X156.064 Y140.354 E624.64914
G0 F10500 X156.063 Y141.173
G0 X154.932 Y141.173
G0 X154.933 Y140.354
G1 F2100 X184.179 Y111.108 E627.40042
G0 F10500 X185 Y111.108
G0 X185 Y109.977
G0 X184.179 Y109.977
G1 F2100 X153.802 Y140.354 E630.2581
G0 F10500 X153.801 Y141.173
G0 X152.669 Y141.173
G0 X152.67 Y140.354
G1 F2100 X184.179 Y108.845 E633.22228
G0 F10500 X185 Y108.845
G0 X185 Y107.714
G0 X184.179 Y107.714
G1 F2100 X151.539 Y140.354 E636.29285
G0 F10500 X151.538 Y141.173
G0 X150.406 Y141.173
G0 X150.407 Y140.354
G1 F2100 X184.179 Y106.582 E639.46991
G0 F10500 X185 Y106.582
G0 X185 Y105.451
G0 X184.179 Y105.451
G1 F2100 X149.276 Y140.354 E642.75337
G0 F10500 X149.275 Y141.173
G0 X148.144 Y141.173
G0 X148.145 Y140.354
G1 F2100 X184.179 Y104.32 E646.14323
G0 F10500 X185 Y104.32
G0 X185 Y103.188
G0 X184.179 Y103.188
G1 F2100 X147.013 Y140.354 E649.63958
G0 F10500 X147.012 Y141.173
G0 X145.881 Y141.173
G0 X145.882 Y140.354
G1 F2100 X184.179 Y102.057 E653.24233
G0 F10500 X185 Y102.057
G0 X185 Y100.926
G0 X184.179 Y100.926
G1 F2100 X144.751 Y140.354 E656.95147
G0 F10500 X144.75 Y141.173
G0 X143.618 Y141.173
G0 X143.619 Y140.354
G1 F2100 X184.179 Y99.794 E660.76711
G0 F10500 X185 Y99.794
G0 X184.928 Y98.952
G0 X183.142 Y98.88
G0 X183.142 Y99.699
G1 F2100 X142.488 Y140.354 E664.59163
G0 F10500 X142.487 Y141.173
G0 X141.356 Y141.173
G0 X141.357 Y140.354
G1 F2100 X182.011 Y99.699 E668.41616
G0 F10500 X182.011 Y98.88
G0 X180.88 Y98.88
G0 X180.88 Y99.699
G1 F2100 X140.225 Y140.354 E672.24073
G0 F10500 X140.224 Y141.173
G0 X139.093 Y141.173
G0 X139.094 Y140.353
G1 F2100 X179.748 Y99.699 E676.06521
G0 F10500 X179.748 Y98.88
G0 X178.617 Y98.88
G0 X178.617 Y99.699
G1 F2100 X137.963 Y140.353 E679.88969
G0 F10500 X137.962 Y141.173
G0 X136.831 Y141.173
G0 X136.832 Y140.353
G1 F2100 X177.485 Y99.699 E683.71412
G0 F10500 X177.485 Y98.88
G0 X176.354 Y98.88
G0 X176.354 Y99.699
G1 F2100 X135.7 Y140.353 E687.5386
G0 F10500 X135.699 Y141.173
G0 X134.568 Y141.173
G0 X134.569 Y140.353
G1 F2100 X175.223 Y99.699 E691.36308
G0 F10500 X175.223 Y98.88
G0 X174.091 Y98.88
G0 X174.091 Y99.699
G1 F2100 X133.438 Y140.353 E695.18751
G0 F10500 X133.437 Y141.173
G0 X132.305 Y141.173
G0 X132.306 Y140.353
G1 F2100 X172.96 Y99.699 E699.01199
G0 F10500 X172.96 Y98.88
G0 X171.829 Y98.88
G0 X171.829 Y99.699
G1 F2100 X131.175 Y140.353 E702.83647
G0 F10500 X131.174 Y141.173
G0 X130.043 Y141.173
G0 X130.044 Y140.353
G1 F2100 X170.697 Y99.699 E706.6609
G0 F10500 X170.697 Y98.88
G0 X169.566 Y98.88
G0 X169.566 Y99.699
G1 F2100 X128.912 Y140.353 E710.48538
G0 F10500 X128.911 Y141.173
G0 X127.78 Y141.173
G0 X127.781 Y140.353
G1 F2100 X168.434 Y99.699 E714.30981
G0 F10500 X168.434 Y98.88
G0 X167.303 Y98.88
G0 X167.303 Y99.699
G1 F2100 X126.649 Y140.353 E718.13429
G0 F10500 X126.648 Y141.173
G0 X125.517 Y141.173
G0 X125.518 Y140.353
G1 F2100 X166.172 Y99.699 E721.95877
G0 F10500 X166.172 Y98.88
G0 X165.04 Y98.88
G0 X165.04 Y99.699
G1 F2100 X124.387 Y140.353 E725.7832
G0 F10500 X124.386 Y141.173
G0 X123.254 Y141.173
G0 X123.255 Y140.353
G1 F2100 X163.909 Y99.699 E729.60768
G0 F10500 X163.909 Y98.88
G0 X162.778 Y98.88
G0 X162.778 Y99.699
G1 F2100 X122.124 Y140.353 E733.43216
G0 F10500 X122.123 Y141.173
G0 X120.992 Y141.173
G0 X120.993 Y140.353
G1 F2100 X161.646 Y99.699 E737.25659
G0 F10500 X161.646 Y98.88
G0 X160.515 Y98.88
G0 X160.515 Y99.699
G1 F2100 X119.861 Y140.353 E741.08107
G0 F10500 X119.86 Y141.173
G0 X118.729 Y141.173
G0 X118.73 Y140.353
G1 F2100 X159.383 Y99.699 E744.9055
G0 F10500 X159.383 Y98.88
G0 X158.252 Y98.88
G0 X158.252 Y99.699
G1 F2100 X117.598 Y140.353 E748.72998
G0 F10500 X117.597 Y141.173
G0 X116.466 Y141.173
G0 X116.467 Y140.353
G1 F2100 X157.121 Y99.699 E752.55446
G0 F10500 X157.121 Y98.88
G0 X155.989 Y98.88
G0 X155.989 Y99.699
G1 F2100 X115.336 Y140.353 E756.37889
G0 F10500 X115.335 Y141.173
G0 X114.203 Y141.173
G0 X114.204 Y140.353
G1 F2100 X154.858 Y99.699 E760.20337
G0 F10500 X154.858 Y98.88
G0 X153.727 Y98.88
G0 X153.727 Y99.699
G1 F2100 X113.073 Y140.353 E764.02785
G0 F10500 X113.072 Y141.173
G0 X111.941 Y141.173
G0 X111.942 Y140.353
G1 F2100 X152.595 Y99.699 E767.85228
G0 F10500 X152.595 Y98.88
G0 X151.464 Y98.88
G0 X151.464 Y99.699
G1 F2100 X110.81 Y140.353 E771.67676
G0 F10500 X110.809 Y141.173
G0 X109.678 Y141.173
G0 X109.679 Y140.353
G1 F2100 X150.333 Y99.699 E775.50124
G0 F10500 X150.333 Y98.88
G0 X149.201 Y98.88
G0 X149.201 Y99.699
G1 F2100 X108.547 Y140.353 E779.32572
G0 F10500 X108.546 Y141.173
G0 X107.415 Y141.173
G0 X107.416 Y140.353
G1 F2100 X148.07 Y99.699 E783.1502
G0 F10500 X148.07 Y98.88
G0 X146.938 Y98.88
G0 X146.938 Y99.699
G1 F2100 X106.285 Y140.353 E786.97463
G0 F10500 X106.284 Y141.173
G0 X105.152 Y141.173
G0 X105.153 Y140.353
G1 F2100 X145.807 Y99.699 E790.79911
G0 F10500 X145.807 Y98.88
G0 X144.676 Y98.88
G0 X144.676 Y99.699
G1 F2100 X104.022 Y140.353 E794.62359
G0 F10500 X104.021 Y141.173
G0 X102.89 Y141.173
G0 X102.891 Y140.353
G1 F2100 X143.544 Y99.699 E798.44802
G0 F10500 X143.544 Y98.88
G0 X142.413 Y98.88
G0 X142.413 Y99.699
G1 F2100 X101.759 Y140.353 E802.2725
G0 F10500 X101.758 Y141.173
G0 X100.627 Y141.173
G0 X100.628 Y140.353
G1 F2100 X141.282 Y99.699 E806.09698
G0 F10500 X141.282 Y98.88
G0 X140.15 Y98.88
G0 X140.15 Y99.699
G1 F2100 X99.496 Y140.353 E809.92146
G0 F10500 X99.495 Y141.173
G0 X98.364 Y141.173
G0 X98.365 Y140.353
G1 F2100 X139.019 Y99.699 E813.74594
G0 F10500 X139.019 Y98.88
G0 X137.887 Y98.88
G0 X137.887 Y99.699
G1 F2100 X97.234 Y140.353 E817.57037
G0 F10500 X97.233 Y141.173
G0 X96.101 Y141.173
G0 X96.102 Y140.353
G1 F2100 X136.756 Y99.699 E821.39485
G0 F10500 X136.756 Y98.88
G0 X135.625 Y98.88
G0 X135.625 Y99.699
G1 F2100 X94.972 Y140.352 E825.21923
G0 F10500 X94.971 Y141.173
G0 X93.839 Y141.173
G0 X93.84 Y140.352
G1 F2100 X134.493 Y99.699 E829.04362
G0 F10500 X134.493 Y98.88
G0 X133.362 Y98.88
G0 X133.362 Y99.699
G1 F2100 X92.709 Y140.352 E832.868
G0 F10500 X92.708 Y141.173
G0 X91.577 Y141.173
G0 X91.578 Y140.352
G1 F2100 X132.231 Y99.699 E836.69239
G0 F10500 X132.231 Y98.88
G0 X131.099 Y98.88
G0 X131.099 Y99.699
G1 F2100 X90.446 Y140.352 E840.51677
G0 F10500 X90.445 Y141.173
G0 X89.314 Y141.173
G0 X89.315 Y140.352
G1 F2100 X129.968 Y99.699 E844.34116
G0 F10500 X129.968 Y98.88
G0 X128.836 Y98.88
G0 X128.836 Y99.699
G1 F2100 X88.183 Y140.352 E848.16554
G0 F10500 X88.182 Y141.173
G0 X87.051 Y141.173
G0 X87.052 Y140.352
G1 F2100 X127.705 Y99.699 E851.98993
G0 F10500 X127.705 Y98.88
G0 X126.574 Y98.88
G0 X126.574 Y99.699
G1 F2100 X85.921 Y140.352 E855.81431
G0 F10500 X85.92 Y141.173
G0 X84.788 Y141.173
G0 X84.789 Y140.352
G1 F2100 X125.442 Y99.699 E859.6387
G0 F10500 X125.442 Y98.88
G0 X124.311 Y98.88
G0 X124.311 Y99.699
G1 F2100 X83.658 Y140.352 E863.46308
G0 F10500 X83.657 Y141.173
G0 X82.526 Y141.173
G0 X82.527 Y140.352
G1 F2100 X123.18 Y99.699 E867.28747
G0 F10500 X123.18 Y98.88
G0 X122.048 Y98.88
G0 X122.048 Y99.699
G1 F2100 X81.395 Y140.352 E871.11185
G0 F10500 X81.394 Y141.173
G0 X80.263 Y141.173
G0 X80.264 Y140.352
G1 F2100 X120.917 Y99.699 E874.93624
G0 F10500 X120.917 Y98.88
G0 X119.786 Y98.88
G0 X119.786 Y99.699
G1 F2100 X79.133 Y140.352 E878.76062
