;FLAVOR:Marlin
;TIME:712
;Filament used: 1.90473m
;Layer height: 0.2
;MINX:48.75
;MINY:69.75
;MINZ:0.2
;MAXX:186.25
;MAXY:165.25
;MAXZ:5
;TARGET_MACHINE.NAME:Creality Ender-3
;Generated with Cura_SteamEngine 5.6.0
M140 S60
M105
M190 S60
M104 S205
M105
M109 S205
M82 ;absolute extrusion mode
; Ender 3 Custom Start G-code
G92 E0 ; Reset Extruder
G28 ; Home all axes
G1 Z2.0 F3000 ; Move Z Axis up little to prevent scratching of Heat Bed
G1 X0.1 Y20 Z0.3 F5000.0 ; Move to start position
G1 X0.1 Y200.0 Z0.3 F1500.0 E15 ; Draw the first line
G1 X0.4 Y200.0 Z0.3 F5000.0 ; Move to side a little
G1 X0.4 Y20 Z0.3 F1500.0 E30 ; Draw the second line
G92 E0 ; Reset Extruder
G1 Z2.0 F3000 ; Move Z Axis up little to prevent scratching of Heat Bed
G1 X5 Y20 Z0.3 F5000.0 ; Move over to prevent blob squish
G92 E0
G92 E0
G1 F2700 E-0.8
;LAYER_COUNT:25
;LAYER:0
M107
;MESH:box-fit.stl
G0 F6000 X51.5 Y164.35 Z0.2
;TYPE:WALL-INNER
G1 F2700 E0
G1 F1371.4 X68.033 Y164.35 E0.96231
G1 F1367.5 X84.566 Y164.349 E1.92736
G1 F1365.6 X101.099 Y164.349 E2.8938
G1 F1363.6 X117.632 Y164.348 E3.8616
G1 F1359.8 X134.165 Y164.347 E4.83216
G1 F1357.9 X150.698 Y164.347 E5.80409
G1 F1355.9 X167.231 Y164.346 E6.77739
G1 F1352.1 X183.764 Y164.345 E7.75345
G1 F1302.6 X184.121 Y164.318 E7.77539
G1 F1116.3 X184.743 Y164.222 E7.82039
G1 F1003.1 X185.222 Y164.222 E7.85851
G1 X185.222 Y163.743 E7.89662
G1 F1116.3 X185.318 Y163.121 E7.94163
G1 F1302.6 X185.345 Y162.761 E7.96375
G1 F1354 X185.345 Y144.709 E9.02798
G1 F1357.9 X185.346 Y126.657 E10.08921
G1 F1361.7 X185.347 Y108.605 E11.14744
G1 F1365.6 X185.348 Y90.553 E12.20266
G1 F1369.5 X185.349 Y72.501 E13.25488
G1 F1311.5 X185.318 Y71.878 E13.29285
G1 F1116.3 X185.222 Y71.257 E13.33779
G1 F1003.1 X185.222 Y70.778 E13.3759
G1 X184.743 Y70.778 E13.41402
G1 F1116.3 X184.122 Y70.682 E13.45895
G1 F1311.5 X183.5 Y70.65 E13.49686
G1 F1371.4 X166.967 Y70.65 E14.45917
G1 F1367.5 X150.434 Y70.651 E15.42423
G1 F1365.6 X133.901 Y70.651 E16.39066
G1 F1363.6 X117.368 Y70.652 E17.35846
G1 F1359.8 X100.835 Y70.653 E18.32902
G1 F1357.9 X84.302 Y70.653 E19.30095
G1 F1355.9 X67.769 Y70.654 E20.27425
G1 F1352.1 X51.236 Y70.655 E21.25031
G1 F1302.6 X50.879 Y70.682 E21.27225
G1 F1116.3 X50.257 Y70.778 E21.31725
G1 F1003.1 X49.778 Y70.778 E21.35537
G1 X49.778 Y71.257 E21.39349
G1 F1116.3 X49.682 Y71.878 E21.43842
G1 F1311.5 X49.65 Y72.5 E21.47633
G1 F1369.5 X49.65 Y90.552 E22.52855
G1 F1365.6 X49.651 Y108.604 E23.58378
G1 F1361.7 X49.652 Y126.656 E24.642
G1 F1357.9 X49.653 Y144.708 E25.70323
G1 F1354 X49.654 Y162.76 E26.76746
G1 F1302.6 X49.682 Y163.121 E26.78965
G1 F1116.3 X49.778 Y163.743 E26.83465
G1 F1003.1 X49.778 Y164.222 E26.87277
G1 X50.257 Y164.222 E26.91089
G1 F1116.3 X50.878 Y164.318 E26.95582
G1 F1311.5 X51.5 Y164.35 E26.99373
G1 F2700 E26.19373
G0 F6000 X183.644 Y163.65
G1 F2700 E26.99373
G1 F1363.6 X150.608 Y163.65 E28.92759
G1 F1365.6 X117.572 Y163.65 E30.8587
G1 F1369.5 X84.536 Y163.65 E32.78431
G1 F1371.4 X51.5 Y163.65 E34.70718
G1 F1311.5 X51.029 Y163.586 E34.73611
G1 F1116.3 X50.595 Y163.405 E34.76974
G1 X50.414 Y162.97 E34.80343
G1 F1307.9 X50.35 Y162.644 E34.8237
G1 F1363.6 X50.35 Y132.596 E36.58265
G1 F1367.5 X50.35 Y102.548 E38.3366
G1 F1371.4 X50.35 Y72.5 E40.08555
G1 F1311.5 X50.414 Y72.029 E40.11448
G1 F1116.3 X50.595 Y71.595 E40.14811
G1 X51.03 Y71.414 E40.1818
G1 F1307.9 X51.356 Y71.35 E40.20207
G1 F1363.6 X84.392 Y71.35 E42.13593
G1 F1365.6 X117.428 Y71.35 E44.06704
G1 F1369.5 X150.464 Y71.35 E45.99265
G1 F1371.4 X183.5 Y71.35 E47.91552
G1 F1311.5 X183.971 Y71.414 E47.94445
G1 F1116.3 X184.405 Y71.595 E47.97808
G1 X184.586 Y72.029 E48.01171
G1 F1311.5 X184.65 Y72.5 E48.04064
G1 F1371.4 X184.65 Y102.548 E49.78959
G1 F1367.5 X184.65 Y132.596 E51.54354
G1 F1363.6 X184.65 Y162.644 E53.30248
G1 F1307.9 X184.586 Y162.97 E53.32276
G1 F1116.3 X184.405 Y163.405 E53.35645
G1 X183.97 Y163.586 E53.39014
G1 F1307.9 X183.644 Y163.65 E53.41042
G0 F6000 X183.57 Y162.895
;TYPE:WALL-OUTER
G1 F1200 X51.5 Y162.9 E62.19575
G1 X51.34 Y162.868 E62.2066
G1 X51.217 Y162.783 E62.21655
G1 X51.105 Y162.57 E62.23256
G1 X51.1 Y72.5 E68.22404
G1 X51.132 Y72.34 E68.23489
G1 X51.217 Y72.217 E68.24484
G1 X51.43 Y72.105 E68.26085
G1 X183.5 Y72.1 E77.04618
G1 X183.66 Y72.132 E77.05703
G1 X183.783 Y72.217 E77.06698
G1 X183.868 Y72.34 E77.07692
G1 X183.9 Y72.5 E77.08778
G1 X183.895 Y162.57 E83.07926
G1 X183.783 Y162.783 E83.09527
G1 X183.57 Y162.895 E83.11127
G1 F2700 E82.31127
G0 F6000 X183.57 Y163.6
G0 X185.43 Y164.43
G0 X186.1 Y165.1
G1 F2700 E83.11127
G1 F1200 X186.1 Y69.9 E89.444
G1 X48.9 Y69.9 E98.57058
G1 X48.9 Y165.1 E104.90331
G1 X186.1 Y165.1 E114.0299
G0 F6000 X184.7 Y163.935
G1 F2700 E113.2299
;MESH:NONMESH
G0 F300 X184.7 Y163.935 Z0.4
G0 F6000 X51.5 Y164.35
;TIME_ELAPSED:93.965363
;LAYER:1
M106 S85
;TYPE:WALL-INNER
;MESH:box-fit.stl
G1 F2700 E114.0299
G1 F2400 X68.033 Y164.35 E114.9922
G1 F2393.2 X84.566 Y164.349 E115.95726
G1 F2389.8 X101.099 Y164.349 E116.92369
G1 F2386.4 X117.632 Y164.348 E117.8915
G1 F2379.6 X134.165 Y164.347 E118.86205
G1 F2376.2 X150.698 Y164.347 E119.83398
G1 F2372.9 X167.231 Y164.346 E120.80729
G1 F2366.2 X183.764 Y164.345 E121.78334
G1 F2279.5 X184.121 Y164.318 E121.80528
G1 F1953.5 X184.743 Y164.222 E121.85029
G1 F1755.5 X185.222 Y164.222 E121.8884
G1 X185.222 Y163.743 E121.92652
G1 F1953.5 X185.318 Y163.121 E121.97153
G1 F2279.5 X185.345 Y162.761 E121.99365
G1 F2369.5 X185.345 Y144.709 E123.05788
G1 F2376.2 X185.346 Y126.657 E124.11911
G1 F2383 X185.347 Y108.605 E125.17733
G1 F2389.8 X185.348 Y90.553 E126.23256
G1 F2396.6 X185.349 Y72.501 E127.28478
G1 F2295.1 X185.318 Y71.878 E127.32275
G1 F1953.5 X185.222 Y71.257 E127.36768
G1 F1755.5 X185.222 Y70.778 E127.4058
G1 X184.743 Y70.778 E127.44391
G1 F1953.5 X184.122 Y70.682 E127.48885
G1 F2295.1 X183.5 Y70.65 E127.52676
G1 F2400 X166.967 Y70.65 E128.48906
G1 F2393.2 X150.434 Y70.651 E129.45412
G1 F2389.8 X133.901 Y70.651 E130.42055
G1 F2386.4 X117.368 Y70.652 E131.38836
G1 F2379.6 X100.835 Y70.653 E132.35891
G1 F2376.2 X84.302 Y70.653 E133.33084
G1 F2372.9 X67.769 Y70.654 E134.30415
G1 F2366.2 X51.236 Y70.655 E135.2802
G1 F2279.5 X50.879 Y70.682 E135.30214
G1 F1953.5 X50.257 Y70.778 E135.34715
G1 F1755.5 X49.778 Y70.778 E135.38526
G1 X49.778 Y71.257 E135.42338
G1 F1953.5 X49.682 Y71.878 E135.46832
G1 F2295.1 X49.65 Y72.5 E135.50622
G1 F2396.6 X49.65 Y90.552 E136.55845
G1 F2389.8 X49.651 Y108.604 E137.61367
G1 F2383 X49.652 Y126.656 E138.6719
G1 F2376.2 X49.653 Y144.708 E139.73312
G1 F2369.5 X49.654 Y162.76 E140.79736
G1 F2279.5 X49.682 Y163.121 E140.81954
G1 F1953.5 X49.778 Y163.743 E140.86455
G1 F1755.5 X49.778 Y164.222 E140.90267
G1 X50.257 Y164.222 E140.94078
G1 F1953.5 X50.878 Y164.318 E140.98572
G1 F2295.1 X51.5 Y164.35 E141.02363
G1 F2700 E140.22363
G0 F10500 X183.644 Y163.65
G1 F2700 E141.02363
G1 F2386.4 X150.608 Y163.65 E142.95748
G1 F2389.8 X117.572 Y163.65 E144.88859
G1 F2396.6 X84.536 Y163.65 E146.81421
G1 F2400 X51.5 Y163.65 E148.73707
G1 F2295.1 X51.029 Y163.586 E148.76601
G1 F1953.5 X50.595 Y163.405 E148.79963
G1 X50.414 Y162.97 E148.83332
G1 F2288.8 X50.35 Y162.644 E148.8536
G1 F2386.4 X50.35 Y132.596 E150.61254
G1 F2393.2 X50.35 Y102.548 E152.36649
G1 F2400 X50.35 Y72.5 E154.11544
G1 F2295.1 X50.414 Y72.029 E154.14437
G1 F1953.5 X50.595 Y71.595 E154.178
G1 X51.03 Y71.414 E154.21169
G1 F2288.8 X51.356 Y71.35 E154.23197
G1 F2386.4 X84.392 Y71.35 E156.16582
G1 F2389.8 X117.428 Y71.35 E158.09693
G1 F2396.6 X150.464 Y71.35 E160.02255
G1 F2400 X183.5 Y71.35 E161.94542
G1 F2295.1 X183.971 Y71.414 E161.97435
G1 F1953.5 X184.405 Y71.595 E162.00797
G1 X184.586 Y72.029 E162.0416
G1 F2295.1 X184.65 Y72.5 E162.07053
G1 F2400 X184.65 Y102.548 E163.81948
G1 F2393.2 X184.65 Y132.596 E165.57343
G1 F2386.4 X184.65 Y162.644 E167.33238
G1 F2288.8 X184.586 Y162.97 E167.35265
G1 F1953.5 X184.405 Y163.405 E167.38634
G1 X183.97 Y163.586 E167.42004
G1 F2288.8 X183.644 Y163.65 E167.44031
G0 F10500 X183.57 Y162.895
;TYPE:WALL-OUTER
G1 F2100 X51.5 Y162.9 E176.22564
G1 X51.34 Y162.868 E176.2365
G1 X51.217 Y162.783 E176.24644
G1 X51.105 Y162.57 E176.26245
G1 X51.1 Y72.5 E182.25393
G1 X51.132 Y72.34 E182.26479
G1 X51.217 Y72.217 E182.27473
G1 X51.43 Y72.105 E182.29074
G1 X183.5 Y72.1 E191.07607
G1 X183.66 Y72.132 E191.08693
G1 X183.783 Y72.217 E191.09687
G1 X183.868 Y72.34 E191.10682
G1 X183.9 Y72.5 E191.11767
G1 X183.895 Y162.57 E197.10915
G1 X183.783 Y162.783 E197.12516
G1 X183.57 Y162.895 E197.14117
G1 F2700 E196.34117
G0 F10500 X183.57 Y163.6
G0 X185.43 Y164.43
G0 X186.1 Y165.1
G1 F2700 E197.14117
G1 F2100 X186.1 Y69.9 E203.4739
G1 X48.9 Y69.9 E212.60048
G1 X48.9 Y165.1 E218.93321
G1 X186.1 Y165.1 E228.05979
G0 F10500 X184.7 Y163.935
G1 F2700 E227.25979
;MESH:NONMESH
G0 F300 X184.7 Y163.935 Z0.6
G0 F10500 X51.5 Y164.35
;TIME_ELAPSED:146.563952
;LAYER:2
M106 S170
;TYPE:WALL-INNER
;MESH:box-fit.stl
G1 F2700 E228.05979
G1 F3428.6 X68.033 Y164.35 E229.0221
G1 F3418.8 X84.566 Y164.349 E229.98715
G1 F3413.9 X101.099 Y164.349 E230.95359
G1 F3409.1 X117.632 Y164.348 E231.92139
G1 F3399.4 X134.165 Y164.347 E232.89195
G1 F3394.6 X150.698 Y164.347 E233.86388
G1 F3389.8 X167.231 Y164.346 E234.83718
G1 F3380.3 X183.764 Y164.345 E235.81324
G1 F3256.4 X184.121 Y164.318 E235.83518
G1 F2790.7 X184.743 Y164.222 E235.88018
G1 F2507.8 X185.222 Y164.222 E235.9183
G1 X185.222 Y163.743 E235.95642
G1 F2790.7 X185.318 Y163.121 E236.00142
G1 F3256.4 X185.345 Y162.761 E236.02354
G1 F3385 X185.345 Y144.709 E237.08777
G1 F3394.6 X185.346 Y126.657 E238.149
G1 F3404.3 X185.347 Y108.605 E239.20723
G1 F3413.9 X185.348 Y90.553 E240.26245
G1 F3423.7 X185.349 Y72.501 E241.31467
G1 F3278.7 X185.318 Y71.878 E241.35264
G1 F2790.7 X185.222 Y71.257 E241.39758
G1 F2507.8 X185.222 Y70.778 E241.43569
G1 X184.743 Y70.778 E241.47381
G1 F2790.7 X184.122 Y70.682 E241.51874
G1 F3278.7 X183.5 Y70.65 E241.55665
G1 F3428.6 X166.967 Y70.65 E242.51896
G1 F3418.8 X150.434 Y70.651 E243.48402
G1 F3413.9 X133.901 Y70.651 E244.45045
G1 F3409.1 X117.368 Y70.652 E245.41825
G1 F3399.4 X100.835 Y70.653 E246.38881
G1 F3394.6 X84.302 Y70.653 E247.36074
G1 F3389.8 X67.769 Y70.654 E248.33404
G1 F3380.3 X51.236 Y70.655 E249.3101
G1 F3256.4 X50.879 Y70.682 E249.33204
G1 F2790.7 X50.257 Y70.778 E249.37704
G1 F2507.8 X49.778 Y70.778 E249.41516
G1 X49.778 Y71.257 E249.45328
G1 F2790.7 X49.682 Y71.878 E249.49821
G1 F3278.7 X49.65 Y72.5 E249.53612
G1 F3423.7 X49.65 Y90.552 E250.58834
G1 F3413.9 X49.651 Y108.604 E251.64357
G1 F3404.3 X49.652 Y126.656 E252.70179
G1 F3394.6 X49.653 Y144.708 E253.76302
G1 F3385 X49.654 Y162.76 E254.82725
G1 F3256.4 X49.682 Y163.121 E254.84944
G1 F2790.7 X49.778 Y163.743 E254.89444
G1 F2507.8 X49.778 Y164.222 E254.93256
G1 X50.257 Y164.222 E254.97068
G1 F2790.7 X50.878 Y164.318 E255.01561
G1 F3278.7 X51.5 Y164.35 E255.05352
G1 F2700 E254.25352
G0 F15000 X183.644 Y163.65
G1 F2700 E255.05352
G1 F3409.1 X150.608 Y163.65 E256.98738
G1 F3413.9 X117.572 Y163.65 E258.91849
G1 F3423.7 X84.536 Y163.65 E260.8441
G1 F3428.6 X51.5 Y163.65 E262.76697
G1 F3278.7 X51.029 Y163.586 E262.7959
G1 F2790.7 X50.595 Y163.405 E262.82953
G1 X50.414 Y162.97 E262.86322
G1 F3269.8 X50.35 Y162.644 E262.88349
G1 F3409.1 X50.35 Y132.596 E264.64244
G1 F3418.8 X50.35 Y102.548 E266.39639
G1 F3428.6 X50.35 Y72.5 E268.14534
G1 F3278.7 X50.414 Y72.029 E268.17427
G1 F2790.7 X50.595 Y71.595 E268.2079
G1 X51.03 Y71.414 E268.24159
G1 F3269.8 X51.356 Y71.35 E268.26186
G1 F3409.1 X84.392 Y71.35 E270.19572
G1 F3413.9 X117.428 Y71.35 E272.12683
G1 F3423.7 X150.464 Y71.35 E274.05244
G1 F3428.6 X183.5 Y71.35 E275.97531
G1 F3278.7 X183.971 Y71.414 E276.00424
G1 F2790.7 X184.405 Y71.595 E276.03787
G1 X184.586 Y72.029 E276.0715
G1 F3278.7 X184.65 Y72.5 E276.10043
G1 F3428.6 X184.65 Y102.548 E277.84938
G1 F3418.8 X184.65 Y132.596 E279.60333
G1 F3409.1 X184.65 Y162.644 E281.36227
G1 F3269.8 X184.586 Y162.97 E281.38255
G1 F2790.7 X184.405 Y163.405 E281.41624
G1 X183.97 Y163.586 E281.44993
G1 F3269.8 X183.644 Y163.65 E281.47021
G0 F15000 X183.57 Y162.895
;TYPE:WALL-OUTER
G1 F3000 X51.5 Y162.9 E290.25554
G1 X51.34 Y162.868 E290.26639
G1 X51.217 Y162.783 E290.27634
G1 X51.105 Y162.57 E290.29235
G1 X51.1 Y72.5 E296.28383
G1 X51.132 Y72.34 E296.29468
G1 X51.217 Y72.217 E296.30463
G1 X51.43 Y72.105 E296.32064
G1 X183.5 Y72.1 E305.10597
G1 X183.66 Y72.132 E305.11682
G1 X183.783 Y72.217 E305.12677
G1 X183.868 Y72.34 E305.13671
G1 X183.9 Y72.5 E305.14757
G1 X183.895 Y162.57 E311.13905
G1 X183.783 Y162.783 E311.15506
G1 X183.57 Y162.895 E311.17106
G1 F2700 E310.37106
G0 F15000 X183.57 Y163.6
G0 X185.43 Y164.43
G0 X186.1 Y165.1
G1 F2700 E311.17106
G1 F3000 X186.1 Y69.9 E317.50379
G1 X48.9 Y69.9 E326.63038
G1 X48.9 Y165.1 E332.9631
G1 X186.1 Y165.1 E342.08969
G0 F15000 X184.7 Y163.935
G1 F2700 E341.28969
;MESH:NONMESH
G0 F300 X184.7 Y163.935 Z0.8
G0 F15000 X51.5 Y164.35
;TIME_ELAPSED:184.824123
;LAYER:3
M106 S255
;TYPE:WALL-INNER
;MESH:box-fit.stl
G1 F2700 E342.08969
G1 F3428.6 X68.033 Y164.35 E343.05199
G1 F3418.8 X84.566 Y164.349 E344.01705
G1 F3413.9 X101.099 Y164.349 E344.98348
G1 F3409.1 X117.632 Y164.348 E345.95129
G1 F3399.4 X134.165 Y164.347 E346.92184
G1 F3394.6 X150.698 Y164.347 E347.89377
G1 F3389.8 X167.231 Y164.346 E348.86708
G1 F3380.3 X183.764 Y164.345 E349.84313
G1 F3256.4 X184.121 Y164.318 E349.86507
G1 F2790.7 X184.743 Y164.222 E349.91008
G1 F2507.8 X185.222 Y164.222 E349.94819
G1 X185.222 Y163.743 E349.98631
G1 F2790.7 X185.318 Y163.121 E350.03132
G1 F3256.4 X185.345 Y162.761 E350.05344
G1 F3385 X185.345 Y144.709 E351.11767
G1 F3394.6 X185.346 Y126.657 E352.1789
G1 F3404.3 X185.347 Y108.605 E353.23712
G1 F3413.9 X185.348 Y90.553 E354.29235
G1 F3423.7 X185.349 Y72.501 E355.34457
G1 F3278.7 X185.318 Y71.878 E355.38254
G1 F2790.7 X185.222 Y71.257 E355.42747
G1 F2507.8 X185.222 Y70.778 E355.46559
G1 X184.743 Y70.778 E355.5037
G1 F2790.7 X184.122 Y70.682 E355.54864
G1 F3278.7 X183.5 Y70.65 E355.58655
G1 F3428.6 X166.967 Y70.65 E356.54885
G1 F3418.8 X150.434 Y70.651 E357.51391
G1 F3413.9 X133.901 Y70.651 E358.48034
G1 F3409.1 X117.368 Y70.652 E359.44815
G1 F3399.4 X100.835 Y70.653 E360.4187
G1 F3394.6 X84.302 Y70.653 E361.39063
G1 F3389.8 X67.769 Y70.654 E362.36394
G1 F3380.3 X51.236 Y70.655 E363.33999
G1 F3256.4 X50.879 Y70.682 E363.36193
G1 F2790.7 X50.257 Y70.778 E363.40694
G1 F2507.8 X49.778 Y70.778 E363.44506
G1 X49.778 Y71.257 E363.48317
G1 F2790.7 X49.682 Y71.878 E363.52811
G1 F3278.7 X49.65 Y72.5 E363.56602
G1 F3423.7 X49.65 Y90.552 E364.61824
G1 F3413.9 X49.651 Y108.604 E365.67346
G1 F3404.3 X49.652 Y126.656 E366.73169
G1 F3394.6 X49.653 Y144.708 E367.79292
G1 F3385 X49.654 Y162.76 E368.85715
G1 F3256.4 X49.682 Y163.121 E368.87933
G1 F2790.7 X49.778 Y163.743 E368.92434
G1 F2507.8 X49.778 Y164.222 E368.96246
G1 X50.257 Y164.222 E369.00057
G1 F2790.7 X50.878 Y164.318 E369.04551
G1 F3278.7 X51.5 Y164.35 E369.08342
G1 F2700 E368.28342
G0 F15000 X183.644 Y163.65
G1 F2700 E369.08342
G1 F3409.1 X150.608 Y163.65 E371.01727
G1 F3413.9 X117.572 Y163.65 E372.94838
G1 F3423.7 X84.536 Y163.65 E374.874
G1 F3428.6 X51.5 Y163.65 E376.79686
G1 F3278.7 X51.029 Y163.586 E376.8258
G1 F2790.7 X50.595 Y163.405 E376.85942
G1 X50.414 Y162.97 E376.89311
G1 F3269.8 X50.35 Y162.644 E376.91339
G1 F3409.1 X50.35 Y132.596 E378.67234
G1 F3418.8 X50.35 Y102.548 E380.42628
G1 F3428.6 X50.35 Y72.5 E382.17523
G1 F3278.7 X50.414 Y72.029 E382.20417
G1 F2790.7 X50.595 Y71.595 E382.23779
G1 X51.03 Y71.414 E382.27148
G1 F3269.8 X51.356 Y71.35 E382.29176
G1 F3409.1 X84.392 Y71.35 E384.22562
G1 F3413.9 X117.428 Y71.35 E386.15672
G1 F3423.7 X150.464 Y71.35 E388.08234
G1 F3428.6 X183.5 Y71.35 E390.00521
