;FLAVOR:Marlin
;TIME:2722
;Filament used: 3.46713m
;Layer height: 0.2
;MINX:87.9
;MINY:70.9
;MINZ:0.2
;MAXX:147.1
;MAXY:164.1
;MAXZ:11
;TARGET_MACHINE.NAME:Creality Ender-3
;Generated with Cura_SteamEngine 5.6.0
M140 S60
M105
M190 S60
M104 S205
M105
M109 S205
M82 ;absolute extrusion mode
; Ender 3 Custom Start G-code
G92 E0 ; Reset Extruder
G28 ; Home all axes
G1 Z2.0 F3000 ; Move Z Axis up little to prevent scratching of Heat Bed
G1 X0.1 Y20 Z0.3 F5000.0 ; Move to start position
G1 X0.1 Y200.0 Z0.3 F1500.0 E15 ; Draw the first line
G1 X0.4 Y200.0 Z0.3 F5000.0 ; Move to side a little
G1 X0.4 Y20 Z0.3 F1500.0 E30 ; Draw the second line
G92 E0 ; Reset Extruder
G1 Z2.0 F3000 ; Move Z Axis up little to prevent scratching of Heat Bed
G1 X5 Y20 Z0.3 F5000.0 ; Move over to prevent blob squish
G92 E0
G92 E0
G1 F2700 E-0.8
;LAYER_COUNT:55
;LAYER:0
M107
;MESH:closed_plate_2.stl
G0 F6000 X103.435 Y152.619 Z0.2
;TYPE:WALL-INNER
G1 F2700 E0
G1 F1200 X103.101 Y152.7 E0.02286
G1 X100.797 Y152.7 E0.17612
G1 X100.43 Y152.557 E0.20233
G1 X100.205 Y152.4 E0.22058
G1 X99.97 Y152.118 E0.24499
G1 X99.864 Y151.889 E0.26178
G1 X99.8 Y151.59 E0.28212
G1 X99.8 Y83.318 E4.82359
G1 X99.912 Y82.993 E4.84646
G1 X100.038 Y82.781 E4.86286
G1 X100.206 Y82.6 E4.87929
G1 X100.431 Y82.443 E4.89754
G1 X100.797 Y82.3 E4.92368
G1 X103.101 Y82.3 E5.07694
G1 X103.435 Y82.381 E5.0998
G1 X103.684 Y82.513 E5.11855
G1 X103.882 Y82.685 E5.136
G1 X104.026 Y82.876 E5.15191
G1 X104.153 Y83.163 E5.17279
G1 X104.198 Y83.422 E5.19027
G1 X104.198 Y151.578 E9.72403
G1 X104.153 Y151.837 E9.74152
G1 X104.026 Y152.124 E9.76239
G1 X103.882 Y152.315 E9.77831
G1 X103.684 Y152.487 E9.79575
G1 X103.435 Y152.619 E9.8145
G1 F2700 E9.0145
G0 F6000 X104.028 Y152.528
G0 X104.578 Y151.725
G0 X134.482 Y151.944
G0 X134.972 Y152.528
G0 X135.565 Y152.619
G1 F2700 E9.8145
G1 F1200 X135.316 Y152.487 E9.83325
G1 X135.118 Y152.315 E9.85069
G1 X134.974 Y152.124 E9.8666
G1 X134.847 Y151.837 E9.88748
G1 X134.802 Y151.578 E9.90497
G1 X134.802 Y83.422 E14.43872
G1 X134.847 Y83.163 E14.45621
G1 X134.974 Y82.876 E14.47709
G1 X135.118 Y82.685 E14.493
G1 X135.316 Y82.513 E14.51045
G1 X135.565 Y82.381 E14.52919
G1 X135.899 Y82.3 E14.55205
G1 X138.152 Y82.3 E14.70192
G1 X138.481 Y82.4 E14.7248
G1 X138.735 Y82.55 E14.74442
G1 X138.969 Y82.79 E14.76672
G1 X139.138 Y83.117 E14.7912
G1 X139.2 Y83.364 E14.80814
G1 X139.2 Y151.636 E19.34962
G1 X139.138 Y151.883 E19.36656
G1 X138.969 Y152.21 E19.39104
G1 X138.735 Y152.45 E19.41334
G1 X138.481 Y152.6 E19.43296
G1 X138.115 Y152.7 E19.4582
G1 X135.899 Y152.7 E19.60561
G1 X135.565 Y152.619 E19.62847
G1 F2700 E18.82847
G0 F6000 X138.148 Y153.081
G0 X145.9 Y153.081
G0 X146.3 Y163.3
G1 F2700 E19.62847
G1 F1200 X146.3 Y71.7 E25.72173
G1 X88.7 Y71.7 E29.55329
G1 X88.7 Y163.3 E35.64655
G1 X146.3 Y163.3 E39.47812
G0 F6000 X147.1 Y164.1
;TYPE:WALL-OUTER
G1 F1200 X147.1 Y70.9 E45.67781
G1 X87.9 Y70.9 E49.61581
G1 X87.9 Y164.1 E55.8155
G1 X147.1 Y164.1 E59.7535
G1 F2700 E58.9535
G0 F6000 X146.43 Y163.43
G0 X145.9 Y152.6
G0 X139.549 Y151.887
G0 X139.028 Y152.528
G0 X135.772 Y152.6
G0 X135.772 Y151.829
G1 F2700 E59.7535
G1 F1200 X135.658 Y151.708 E59.76456
G1 X135.6 Y151.526 E59.77726
G1 X135.6 Y83.416 E64.30796
G1 X135.68 Y83.26 E64.31962
G1 X135.811 Y83.147 E64.33113
G1 X135.93 Y83.105 E64.33952
G1 X138.07 Y83.105 E64.48188
G1 X138.245 Y83.183 E64.49462
G1 X138.395 Y83.434 E64.51407
G1 X138.395 Y151.57 E69.0465
G1 X138.355 Y151.686 E69.05466
G1 X138.203 Y151.846 E69.06934
G1 X138.056 Y151.897 E69.07969
G1 X135.93 Y151.895 E69.22111
G1 X135.772 Y151.829 E69.2325
G1 F2700 E68.4325
G0 F6000 X135.772 Y152.6
G0 X134.972 Y152.528
G0 X134.482 Y151.944
G0 X104.578 Y151.725
G0 X104.028 Y152.528
G0 X103.189 Y152.6
G0 X103.189 Y151.853
G1 F2700 E69.2325
G1 F1200 X103.07 Y151.895 E69.2409
G1 X100.93 Y151.895 E69.38325
G1 X100.77 Y151.828 E69.39479
G1 X100.656 Y151.706 E69.4059
G1 X100.605 Y151.57 E69.41556
G1 X100.605 Y83.43 E73.94825
G1 X100.735 Y83.2 E73.96582
G1 X100.93 Y83.105 E73.98025
G1 X103.07 Y83.105 E74.12261
G1 X103.228 Y83.171 E74.134
G1 X103.342 Y83.292 E74.14506
G1 X103.4 Y83.474 E74.15776
G1 X103.4 Y151.584 E78.68846
G1 X103.32 Y151.74 E78.70012
G1 X103.189 Y151.853 E78.71163
G1 F2700 E77.91163
G0 F6000 X103.189 Y152.6
G0 X104.028 Y152.528
G0 X104.578 Y151.725
G0 X104.578 Y162.9
G0 X145.928 Y162.928
G0 X146 Y162.58
G0 X145.58 Y162.58
;TYPE:SKIN
G1 F2700 E78.71163
G1 F1200 X89.421 Y162.579 E82.44734
G1 X89.42 Y72.42 E88.44474
G1 X145.58 Y72.42 E92.18052
G1 X145.58 Y162.58 E98.17799
G1 F2700 E97.37799
G0 F6000 X146 Y162.58
G0 X145.928 Y162.928
G0 X135.522 Y162.9
G0 X135.864 Y153.081
G0 X135.522 Y152.934
G0 X135.384 Y153.33
G1 F2700 E98.17799
G1 F1200 X135.831 Y153.42 E98.20832
G1 X138.213 Y153.415 E98.36677
G1 X138.67 Y153.319 E98.39783
G1 X139.177 Y153.023 E98.43689
G1 X139.634 Y152.554 E98.48045
G1 X139.88 Y151.972 E98.52248
G1 X139.919 Y151.526 E98.55226
G1 X139.92 Y83.281 E103.09193
G1 X139.829 Y82.916 E103.11696
G1 X139.644 Y82.465 E103.14938
G1 X139.186 Y81.982 E103.19366
G1 X138.771 Y81.741 E103.22558
G1 X138.338 Y81.607 E103.25573
G1 X138.025 Y81.581 E103.27663
G1 X135.802 Y81.585 E103.4245
G1 X135.384 Y81.671 E103.45289
G1 X134.904 Y81.923 E103.48895
G1 X134.592 Y82.194 E103.51644
G1 X134.359 Y82.501 E103.54208
G1 X134.222 Y82.777 E103.56258
G1 X134.083 Y83.226 E103.59384
G1 X134.084 Y151.63 E108.1441
G1 X134.155 Y152.032 E108.17125
G1 X134.317 Y152.444 E108.2007
G1 X134.588 Y152.802 E108.23057
G1 X134.905 Y153.079 E108.25857
G1 X135.384 Y153.33 E108.29454
G1 F2700 E107.49454
G0 F6000 X135.522 Y152.934
G0 X135.076 Y152.606
G0 X134.482 Y151.944
G0 X104.578 Y151.725
G0 X104.083 Y152.448
G0 X103.479 Y152.933
G0 X103.617 Y153.33
G1 F2700 E108.29454
G1 F1200 X104.097 Y153.077 E108.33064
G1 X104.41 Y152.805 E108.35822
G1 X104.641 Y152.499 E108.38373
G1 X104.778 Y152.223 E108.40422
G1 X104.917 Y151.773 E108.43555
G1 X104.916 Y83.37 E112.98574
G1 X104.845 Y82.968 E113.01289
G1 X104.683 Y82.556 E113.04234
G1 X104.412 Y82.198 E113.07221
G1 X104.095 Y81.921 E113.10021
G1 X103.616 Y81.67 E113.13619
G1 X103.169 Y81.58 E113.16652
G1 X100.802 Y81.585 E113.32397
G1 X100.384 Y81.67 E113.35235
G1 X99.898 Y81.926 E113.38889
G1 X99.581 Y82.203 E113.41689
G1 X99.352 Y82.512 E113.44247
G1 X99.183 Y82.878 E113.46929
G1 X99.08 Y83.337 E113.50058
G1 X99.085 Y151.688 E118.04731
G1 X99.18 Y152.117 E118.07654
G1 X99.353 Y152.49 E118.10389
G1 X99.581 Y152.8 E118.12949
G1 X99.99 Y153.149 E118.16525
G1 X100.473 Y153.345 E118.19993
G1 X100.829 Y153.42 E118.22413
G1 X103.198 Y153.415 E118.38171
G1 X103.617 Y153.33 E118.41015
G1 F2700 E117.61015
G0 F6000 X103.479 Y152.933
G0 X100.863 Y153.081
G0 X100.863 Y162.9
G0 X90.901 Y163
G0 X90.901 Y162.177
G1 F2700 E118.41015
G1 F1200 X89.82 Y161.096 E118.51185
G0 F6000 X89 Y161.096
G0 X89 Y159.965
G0 X89.82 Y159.965
G1 F1200 X92.032 Y162.177 E118.71994
G0 F6000 X92.032 Y163
G0 X93.164 Y163
G0 X93.164 Y162.177
G1 F1200 X89.82 Y158.833 E119.03452
G0 F6000 X89 Y158.833
G0 X89 Y157.702
G0 X89.82 Y157.702
G1 F1200 X94.295 Y162.177 E119.4555
G0 F6000 X94.295 Y163
G0 X95.426 Y163
G0 X95.426 Y162.177
G1 F1200 X89.82 Y156.571 E119.98288
G0 F6000 X89 Y156.571
G0 X89 Y155.439
G0 X89.82 Y155.439
G1 F1200 X96.558 Y162.177 E120.61675
G0 F6000 X96.558 Y163
G0 X97.689 Y163
G0 X97.689 Y162.177
G1 F1200 X89.82 Y154.308 E121.35702
G0 F6000 X89 Y154.308
G0 X89 Y153.177
G0 X89.82 Y153.177
G1 F1200 X98.821 Y162.177 E122.20373
G0 F6000 X98.821 Y163
G0 X99.952 Y163
G0 X99.952 Y162.177
G1 F1200 X89.82 Y152.045 E123.15689
G0 F6000 X89 Y152.045
G0 X89 Y150.914
G0 X89.82 Y150.914
G1 F1200 X101.083 Y162.177 E124.21644
G0 F6000 X101.083 Y163
G0 X102.215 Y163
G0 X102.215 Y162.177
G1 F1200 X89.82 Y149.782 E125.38248
G0 F6000 X89 Y149.782
G0 X89 Y148.651
G0 X89.82 Y148.651
G1 F1200 X103.346 Y162.177 E126.65493
G0 F6000 X103.346 Y163
G0 X104.477 Y163
G0 X104.477 Y162.177
G1 F1200 X89.82 Y147.52 E128.03377
G0 F6000 X89 Y147.52
G0 X89 Y146.388
G0 X89.82 Y146.388
G1 F1200 X105.609 Y162.177 E129.5191
G0 F6000 X105.609 Y163
G0 X106.74 Y163
G0 X106.74 Y162.177
G1 F1200 X89.82 Y145.257 E131.11083
G0 F6000 X89 Y145.257
G0 X89 Y144.126
G0 X89.82 Y144.126
G1 F1200 X107.871 Y162.177 E132.80896
G0 F6000 X107.871 Y163
G0 X109.003 Y163
G0 X109.003 Y162.177
G1 F1200 X100.609 Y153.784 E133.59857
G0 F6000 X100.761 Y152.98
G0 X101.776 Y153
G0 X101.776 Y153.819
G1 F1200 X110.134 Y162.177 E134.38484
G0 F6000 X110.134 Y163
G0 X111.266 Y163
G0 X111.266 Y162.177
G1 F1200 X102.907 Y153.819 E135.17115
G0 F6000 X103.871 Y153.651
G1 F1200 X112.397 Y162.177 E135.97323
G0 F6000 X112.397 Y163
G0 X113.528 Y163
G0 X113.528 Y162.177
G1 F1200 X104.555 Y153.204 E136.81735
G0 F6000 X105.049 Y152.567
G1 F1200 X114.66 Y162.177 E137.72145
G0 F6000 X114.66 Y163
G0 X115.791 Y163
G0 X115.791 Y162.177
G1 F1200 X105.315 Y151.701 E138.70697
G0 F6000 X104.497 Y151.701
G0 X104.497 Y150.569
G0 X105.315 Y150.569
G1 F1200 X116.922 Y162.177 E139.79893
G0 F6000 X116.922 Y163
G0 X118.055 Y163
G0 X118.055 Y162.178
G1 F1200 X105.315 Y149.438 E140.99743
G0 F6000 X104.497 Y149.438
G0 X104.497 Y148.307
G0 X105.315 Y148.307
G1 F1200 X119.186 Y162.178 E142.30233
G0 F6000 X119.186 Y163
G0 X120.317 Y163
G0 X120.317 Y162.178
G1 F1200 X105.315 Y147.175 E143.71367
G0 F6000 X104.497 Y147.175
G0 X104.497 Y146.044
G0 X105.315 Y146.044
G1 F1200 X121.449 Y162.178 E145.23146
G0 F6000 X121.449 Y163
G0 X122.58 Y163
G0 X122.58 Y162.178
G1 F1200 X105.315 Y144.913 E146.85564
G0 F6000 X104.497 Y144.913
G0 X104.497 Y143.781
G0 X105.315 Y143.781
G1 F1200 X123.711 Y162.178 E148.58627
G0 F6000 X123.711 Y163
G0 X124.843 Y163
G0 X124.843 Y162.178
G1 F1200 X105.315 Y142.65 E150.42335
G0 F6000 X104.497 Y142.65
G0 X104.497 Y141.518
G0 X105.315 Y141.518
G1 F1200 X125.974 Y162.178 E152.36687
G0 F6000 X125.974 Y163
G0 X127.105 Y163
G0 X127.105 Y162.178
G1 F1200 X105.315 Y140.387 E154.41678
G0 F6000 X104.497 Y140.387
G0 X104.497 Y139.256
G0 X105.315 Y139.256
G1 F1200 X128.237 Y162.178 E156.57315
G0 F6000 X128.237 Y163
G0 X129.368 Y163
G0 X129.368 Y162.178
G1 F1200 X105.315 Y138.124 E158.83595
G0 F6000 X104.497 Y138.124
G0 X104.497 Y136.993
G0 X105.315 Y136.993
G1 F1200 X130.5 Y162.178 E161.2052
G0 F6000 X130.5 Y163
G0 X131.631 Y163
G0 X131.631 Y162.178
G1 F1200 X105.315 Y135.862 E163.68085
G0 F6000 X104.497 Y135.862
G0 X104.497 Y134.73
G0 X105.315 Y134.73
G1 F1200 X132.762 Y162.178 E166.26294
G0 F6000 X132.762 Y163
G0 X133.894 Y163
G0 X133.894 Y162.178
G1 F1200 X105.315 Y133.599 E168.95148
G0 F6000 X104.497 Y133.599
G0 X104.497 Y132.467
G0 X105.315 Y132.467
G1 F1200 X135.025 Y162.178 E171.74646
G0 F6000 X135.025 Y163
G0 X136.156 Y163
G0 X136.156 Y162.178
G1 F1200 X105.315 Y131.336 E174.64784
G0 F6000 X104.497 Y131.336
G0 X104.497 Y130.205
G0 X105.315 Y130.205
G1 F1200 X137.288 Y162.178 E177.65566
G0 F6000 X137.288 Y163
G0 X138.419 Y163
G0 X138.419 Y162.178
G1 F1200 X105.315 Y129.073 E180.76993
G0 F6000 X104.497 Y129.073
G0 X104.497 Y127.942
G0 X105.315 Y127.942
G1 F1200 X139.551 Y162.178 E183.99065
G0 F6000 X139.551 Y163
G0 X140.682 Y163
G0 X140.682 Y162.178
G1 F1200 X105.315 Y126.811 E187.31776
G0 F6000 X104.497 Y126.811
G0 X104.497 Y125.679
G0 X105.315 Y125.679
G1 F1200 X141.813 Y162.178 E190.75131
G0 F6000 X141.813 Y163
G0 X142.945 Y163
G0 X142.945 Y162.178
G1 F1200 X105.315 Y124.548 E194.29131
G0 F6000 X104.497 Y124.548
G0 X104.497 Y123.417
G0 X105.315 Y123.417
G1 F1200 X133.711 Y151.813 E196.96263
G0 F6000 X134.516 Y151.674
G0 X134.503 Y150.655
G0 X133.684 Y150.655
G1 F1200 X105.315 Y122.285 E199.63146
G0 F6000 X104.497 Y122.285
G0 X104.497 Y121.154
G0 X105.315 Y121.154
G1 F1200 X133.684 Y149.524 E202.30029
G0 F6000 X134.503 Y149.524
G0 X134.503 Y148.392
G0 X133.684 Y148.392
G1 F1200 X105.315 Y120.022 E204.96912
G0 F6000 X104.497 Y120.022
G0 X104.497 Y118.891
G0 X105.315 Y118.891
G1 F1200 X133.684 Y147.261 E207.63795
G0 F6000 X134.503 Y147.261
G0 X134.503 Y146.129
G0 X133.684 Y146.129
G1 F1200 X105.315 Y117.76 E210.30673
G0 F6000 X104.497 Y117.76
G0 X104.497 Y116.628
G0 X105.314 Y116.628
G1 F1200 X133.684 Y144.998 E212.9756
G0 F6000 X134.503 Y144.998
G0 X134.503 Y143.867
G0 X133.684 Y143.867
G1 F1200 X105.314 Y115.496 E215.64453
G0 F6000 X104.497 Y115.496
G0 X104.497 Y114.365
G0 X105.314 Y114.365
G1 F1200 X133.684 Y142.735 E218.3134
G0 F6000 X134.503 Y142.735
G0 X134.503 Y141.604
G0 X133.684 Y141.604
G1 F1200 X105.314 Y113.233 E220.98232
G0 F6000 X104.497 Y113.233
G0 X104.497 Y112.102
G0 X105.314 Y112.102
G1 F1200 X133.684 Y140.473 E223.65125
G0 F6000 X134.503 Y140.473
G0 X134.503 Y139.341
G0 X133.684 Y139.341
G1 F1200 X105.314 Y110.971 E226.32012
G0 F6000 X104.497 Y110.971
G0 X104.497 Y109.839
G0 X105.314 Y109.839
G1 F1200 X133.684 Y138.21 E228.98905
G0 F6000 X134.503 Y138.21
G0 X134.503 Y137.079
G0 X133.684 Y137.079
G1 F1200 X105.314 Y108.708 E231.65797
G0 F6000 X104.497 Y108.708
G0 X104.497 Y107.577
G0 X105.314 Y107.577
G1 F1200 X133.684 Y135.947 E234.32684
G0 F6000 X134.503 Y135.947
G0 X134.503 Y134.816
G0 X133.684 Y134.816
G1 F1200 X105.314 Y106.445 E236.99577
G0 F6000 X104.497 Y106.445
G0 X104.497 Y105.314
G0 X105.314 Y105.314
G1 F1200 X133.684 Y133.684 E239.66464
G0 F6000 X134.503 Y133.684
G0 X134.503 Y132.553
G0 X133.684 Y132.553
G1 F1200 X105.314 Y104.182 E242.33357
G0 F6000 X104.497 Y104.182
G0 X104.497 Y103.051
G0 X105.314 Y103.051
G1 F1200 X133.684 Y131.422 E245.00249
G0 F6000 X134.503 Y131.422
G0 X134.503 Y130.29
G0 X133.684 Y130.29
G1 F1200 X105.314 Y101.92 E247.67136
G0 F6000 X104.497 Y101.92
G0 X104.497 Y100.788
G0 X105.314 Y100.788
G1 F1200 X133.684 Y129.159 E250.34029
G0 F6000 X134.503 Y129.159
G0 X134.503 Y128.028
G0 X133.684 Y128.028
G1 F1200 X105.314 Y99.657 E253.00921
G0 F6000 X104.497 Y99.657
G0 X104.497 Y98.526
G0 X105.314 Y98.526
G1 F1200 X133.684 Y126.896 E255.67808
G0 F6000 X134.503 Y126.896
G0 X134.503 Y125.765
G0 X133.684 Y125.765
G1 F1200 X105.314 Y97.394 E258.34701
G0 F6000 X104.497 Y97.394
G0 X104.497 Y96.263
G0 X105.314 Y96.263
G1 F1200 X133.684 Y124.633 E261.01588
G0 F6000 X134.503 Y124.633
G0 X134.503 Y123.502
G0 X133.684 Y123.502
G1 F1200 X105.314 Y95.132 E263.68476
G0 F6000 X104.497 Y95.132
G0 X104.497 Y94
G0 X105.314 Y94
G1 F1200 X133.684 Y122.371 E266.35368
G0 F6000 X134.503 Y122.371
G0 X134.503 Y121.239
G0 X133.684 Y121.239
G1 F1200 X105.314 Y92.869 E269.02256
G0 F6000 X104.497 Y92.869
G0 X104.497 Y91.737
G0 X105.314 Y91.737
G1 F1200 X133.684 Y120.108 E271.69148
G0 F6000 X134.503 Y120.108
G0 X134.503 Y118.977
G0 X133.684 Y118.977
G1 F1200 X105.314 Y90.606 E274.3604
G0 F6000 X104.497 Y90.606
G0 X104.497 Y89.475
G0 X105.314 Y89.475
G1 F1200 X133.684 Y117.845 E277.02928
G0 F6000 X134.503 Y117.845
G0 X134.503 Y116.713
G0 X133.684 Y116.713
G1 F1200 X105.314 Y88.343 E279.69815
G0 F6000 X104.497 Y88.343
G0 X104.497 Y87.212
G0 X105.314 Y87.212
G1 F1200 X133.684 Y115.582 E282.36703
G0 F6000 X134.503 Y115.582
G0 X134.503 Y114.45
G0 X133.684 Y114.45
G1 F1200 X105.314 Y86.081 E285.03586
G0 F6000 X104.497 Y86.081
G0 X104.497 Y84.949
G0 X105.314 Y84.949
G1 F1200 X133.684 Y113.319 E287.70473
G0 F6000 X134.503 Y113.319
G0 X134.503 Y112.188
G0 X133.684 Y112.188
G1 F1200 X105.314 Y83.818 E290.37361
G0 F6000 X104.497 Y83.818
G0 X104.324 Y82.775
G0 X105.076 Y82.449
G1 F1200 X133.684 Y111.056 E293.06483
G0 F6000 X134.503 Y111.056
G0 X134.503 Y109.925
G0 X133.684 Y109.925
G1 F1200 X96.578 Y72.819 E296.55553
G0 F6000 X96.578 Y72
G0 X95.447 Y72
G0 X95.447 Y72.819
G1 F1200 X104.098 Y81.471 E297.36941
G0 F6000 X103.715 Y82.192
G0 X102.676 Y82
