;FLAVOR:Marlin
;TIME:3482
;Filament used: 5.76347m
;Layer height: 0.2
;MINX:49.9
;MINY:70.9
;MINZ:0.2
;MAXX:185.1
;MAXY:165.165
;MAXZ:10.4
;TARGET_MACHINE.NAME:Creality Ender-3
;Generated with Cura_SteamEngine 5.6.0
M140 S60
M105
M190 S60
M104 S205
M105
M109 S205
M82 ;absolute extrusion mode
; Ender 3 Custom Start G-code
G92 E0 ; Reset Extruder
G28 ; Home all axes
G1 Z2.0 F3000 ; Move Z Axis up little to prevent scratching of Heat Bed
G1 X0.1 Y20 Z0.3 F5000.0 ; Move to start position
G1 X0.1 Y200.0 Z0.3 F1500.0 E15 ; Draw the first line
G1 X0.4 Y200.0 Z0.3 F5000.0 ; Move to side a little
G1 X0.4 Y20 Z0.3 F1500.0 E30 ; Draw the second line
G92 E0 ; Reset Extruder
G1 Z2.0 F3000 ; Move Z Axis up little to prevent scratching of Heat Bed
G1 X5 Y20 Z0.3 F5000.0 ; Move over to prevent blob squish
G92 E0
G92 E0
G1 F2700 E-0.8
;LAYER_COUNT:52
;LAYER:0
M107
;MESH:full_plate_3.stl
G0 F6000 X82.184 Y152.487 Z0.2
;TYPE:WALL-INNER
G1 F2700 E0
G1 F1200 X81.935 Y152.619 E0.01875
G1 X81.601 Y152.7 E0.04161
G1 X79.399 Y152.7 E0.18809
G1 X79.065 Y152.619 E0.21095
G1 X78.816 Y152.487 E0.2297
G1 X78.618 Y152.315 E0.24714
G1 X78.474 Y152.124 E0.26305
G1 X78.347 Y151.837 E0.28393
G1 X78.302 Y151.578 E0.30142
G1 X78.302 Y83.422 E4.83517
G1 X78.347 Y83.163 E4.85266
G1 X78.474 Y82.876 E4.87354
G1 X78.618 Y82.685 E4.88945
G1 X78.816 Y82.513 E4.9069
G1 X79.065 Y82.381 E4.92564
G1 X79.399 Y82.3 E4.9485
G1 X81.601 Y82.3 E5.09498
G1 X81.935 Y82.381 E5.11784
G1 X82.184 Y82.513 E5.13659
G1 X82.382 Y82.685 E5.15404
G1 X82.526 Y82.876 E5.16995
G1 X82.653 Y83.163 E5.19083
G1 X82.698 Y83.422 E5.20831
G1 X82.698 Y151.578 E9.74207
G1 X82.653 Y151.837 E9.75955
G1 X82.526 Y152.124 E9.78043
G1 X82.382 Y152.315 E9.79634
G1 X82.184 Y152.487 E9.81379
G1 F2700 E9.01379
G0 F6000 X82.184 Y152.6
G0 X82.494 Y152.535
G0 X83.078 Y151.725
G0 X114.982 Y151.944
G0 X115.472 Y152.528
G0 X118.935 Y152.619
G1 F2700 E9.81379
G1 F1200 X118.601 Y152.7 E9.83665
G1 X116.399 Y152.7 E9.98313
G1 X116.065 Y152.619 E10.00599
G1 X115.816 Y152.487 E10.02474
G1 X115.618 Y152.315 E10.04218
G1 X115.474 Y152.124 E10.0581
G1 X115.347 Y151.837 E10.07897
G1 X115.302 Y151.578 E10.09646
G1 X115.302 Y83.422 E14.63022
G1 X115.347 Y83.163 E14.6477
G1 X115.474 Y82.876 E14.66858
G1 X115.618 Y82.685 E14.68449
G1 X115.816 Y82.513 E14.70194
G1 X116.065 Y82.381 E14.72069
G1 X116.399 Y82.3 E14.74355
G1 X118.601 Y82.3 E14.89002
G1 X118.935 Y82.381 E14.91289
G1 X119.184 Y82.513 E14.93163
G1 X119.382 Y82.685 E14.94908
G1 X119.526 Y82.876 E14.96499
G1 X119.653 Y83.163 E14.98587
G1 X119.698 Y83.422 E15.00336
G1 X119.698 Y151.578 E19.53711
G1 X119.653 Y151.837 E19.5546
G1 X119.526 Y152.124 E19.57547
G1 X119.382 Y152.315 E19.59139
G1 X119.184 Y152.487 E19.60883
G1 X118.935 Y152.619 E19.62758
G1 F2700 E18.82758
G0 F6000 X119.528 Y152.528
G0 X120.078 Y151.725
G0 X151.982 Y151.944
G0 X152.472 Y152.528
G0 X152.816 Y152.6
G0 X152.816 Y152.487
G1 F2700 E19.62758
G1 F1200 X152.618 Y152.315 E19.64503
G1 X152.474 Y152.124 E19.66094
G1 X152.347 Y151.837 E19.68182
G1 X152.302 Y151.578 E19.6993
G1 X152.302 Y83.422 E24.23306
G1 X152.347 Y83.163 E24.25054
G1 X152.474 Y82.876 E24.27142
G1 X152.618 Y82.685 E24.28733
G1 X152.816 Y82.513 E24.30478
G1 X153.065 Y82.381 E24.32353
G1 X153.399 Y82.3 E24.34639
G1 X155.601 Y82.3 E24.49287
G1 X155.935 Y82.381 E24.51573
G1 X156.184 Y82.513 E24.53448
G1 X156.382 Y82.685 E24.55192
G1 X156.526 Y82.876 E24.56783
G1 X156.653 Y83.163 E24.58871
G1 X156.698 Y83.422 E24.6062
G1 X156.698 Y151.578 E29.13995
G1 X156.653 Y151.837 E29.15744
G1 X156.526 Y152.124 E29.17832
G1 X156.382 Y152.315 E29.19423
G1 X156.184 Y152.487 E29.21168
G1 X155.935 Y152.619 E29.23042
G1 X155.601 Y152.7 E29.25328
G1 X153.399 Y152.7 E29.39976
G1 X153.065 Y152.619 E29.42262
G1 X152.816 Y152.487 E29.44137
G1 F2700 E28.64137
G0 F6000 X152.816 Y152.6
G0 X156.528 Y152.528
G0 X156.851 Y152.322
G0 X156.851 Y162.9
G0 X184.3 Y163.3
G1 F2700 E29.44137
G1 F1200 X184.3 Y71.7 E35.53463
G1 X50.7 Y71.7 E44.42174
G1 X50.7 Y163.3 E50.51499
G1 X184.3 Y163.3 E59.4021
G0 F6000 X185.1 Y164.1
;TYPE:WALL-OUTER
G1 F1200 X185.1 Y70.9 E65.60179
G1 X49.9 Y70.9 E74.59533
G1 X49.9 Y164.1 E80.79502
G1 X185.1 Y164.1 E89.78856
G1 F2700 E88.98856
G0 F6000 X184.43 Y163.43
G0 X153.272 Y162.9
G0 X153.364 Y153.081
G0 X153.272 Y152.6
G0 X153.272 Y151.829
G1 F2700 E89.78856
G1 F1200 X153.158 Y151.708 E89.79962
G1 X153.1 Y151.526 E89.81232
G1 X153.1 Y83.416 E94.34302
G1 X153.18 Y83.26 E94.35468
G1 X153.311 Y83.147 E94.36619
G1 X153.43 Y83.105 E94.37458
G1 X155.57 Y83.105 E94.51694
G1 X155.728 Y83.171 E94.52833
G1 X155.842 Y83.292 E94.53939
G1 X155.9 Y83.474 E94.55209
G1 X155.9 Y151.584 E99.08279
G1 X155.82 Y151.74 E99.09445
G1 X155.689 Y151.853 E99.10596
G1 X155.57 Y151.895 E99.11435
G1 X153.43 Y151.895 E99.25671
G1 X153.272 Y151.829 E99.2681
G1 F2700 E98.4681
G0 F6000 X153.272 Y152.6
G0 X152.472 Y152.528
G0 X151.982 Y151.944
G0 X120.078 Y151.725
G0 X119.528 Y152.528
G0 X118.689 Y152.6
G0 X118.689 Y151.853
G1 F2700 E99.2681
G1 F1200 X118.57 Y151.895 E99.27649
G1 X116.43 Y151.895 E99.41885
G1 X116.272 Y151.829 E99.43024
G1 X116.158 Y151.708 E99.44129
G1 X116.1 Y151.526 E99.454
G1 X116.1 Y83.416 E103.9847
G1 X116.18 Y83.26 E103.99636
G1 X116.311 Y83.147 E104.00787
G1 X116.43 Y83.105 E104.01626
G1 X118.57 Y83.105 E104.15862
G1 X118.728 Y83.171 E104.17001
G1 X118.842 Y83.292 E104.18106
G1 X118.9 Y83.474 E104.19377
G1 X118.9 Y151.584 E108.72447
G1 X118.82 Y151.74 E108.73613
G1 X118.689 Y151.853 E108.74764
G1 F2700 E107.94764
G0 F6000 X118.689 Y152.6
G0 X115.472 Y152.528
G0 X114.982 Y151.944
G0 X83.078 Y151.725
G0 X82.528 Y152.528
G0 X81.689 Y152.6
G0 X81.689 Y151.853
G1 F2700 E108.74764
G1 F1200 X81.57 Y151.895 E108.75603
G1 X79.43 Y151.895 E108.89838
G1 X79.272 Y151.829 E108.90977
G1 X79.158 Y151.708 E108.92083
G1 X79.1 Y151.526 E108.93354
G1 X79.1 Y83.416 E113.46424
G1 X79.18 Y83.26 E113.4759
G1 X79.311 Y83.147 E113.48741
G1 X79.43 Y83.105 E113.4958
G1 X81.57 Y83.105 E113.63815
G1 X81.728 Y83.171 E113.64954
G1 X81.842 Y83.292 E113.6606
G1 X81.9 Y83.474 E113.67331
G1 X81.9 Y151.584 E118.204
G1 X81.82 Y151.74 E118.21567
G1 X81.689 Y151.853 E118.22718
G1 F2700 E117.42718
G0 F6000 X81.689 Y152.6
G0 X82.005 Y153.011
G0 X83.733 Y157.003
;TYPE:SKIN
G1 F2700 E118.22718
G1 F1200 X83.274 Y157.18 E118.2599
G1 F1134.8 X82.697 Y157.343 E118.30208
G1 F1021.3 X82.119 Y157.507 E118.34904
G1 F971.7 X78.874 Y157.506 E118.61562
G1 F1020.2 X78.302 Y157.344 E118.66214
G1 F1133.4 X77.729 Y157.181 E118.7041
G1 F1200 X77.225 Y156.983 E118.74012
G1 X76.111 Y156.39 E118.82406
G1 X75.14 Y155.535 E118.91013
G1 X74.237 Y154.357 E119.00886
G1 X73.773 Y153.024 E119.10275
G1 X73.598 Y152.003 E119.17166
G1 X73.596 Y82.621 E123.78697
G1 X73.979 Y81.329 E123.87661
G1 X74.469 Y80.359 E123.9489
G1 X75.131 Y79.467 E124.02279
G1 X76.125 Y78.601 E124.11049
G1 X77.191 Y78.035 E124.19077
G1 X77.712 Y77.824 E124.22816
G1 F1134.8 X78.291 Y77.66 E124.2705
G1 F1021.3 X78.87 Y77.495 E124.31755
G1 F972.6 X82.127 Y77.495 E124.58485
G1 F1020.2 X82.678 Y77.655 E124.62975
G1 F1133.4 X83.23 Y77.815 E124.67022
G1 F1200 X83.748 Y77.994 E124.70668
G1 X84.892 Y78.615 E124.79327
G1 X85.853 Y79.455 E124.87817
G1 X86.561 Y80.391 E124.95624
G1 X87.042 Y81.36 E125.02821
G1 X87.401 Y82.66 E125.11792
G1 X87.409 Y152.336 E129.75278
G1 X87.013 Y153.681 E129.84605
G1 X86.539 Y154.63 E129.91662
G1 X85.858 Y155.549 E129.9927
G1 X84.902 Y156.379 E130.07692
G1 X83.733 Y157.003 E130.16507
G0 F6000 X83.443 Y156.257
G1 F1200 X82.982 Y156.428 E130.19777
G1 X82.022 Y156.615 E130.26283
G1 X79.009 Y156.62 E130.46326
G1 X78.017 Y156.427 E130.53049
G1 X77.563 Y156.258 E130.56271
G1 X76.57 Y155.724 E130.63771
G1 X75.726 Y154.984 E130.71238
G1 X74.95 Y153.97 E130.79731
G1 X74.551 Y152.823 E130.8781
G1 X74.392 Y151.901 E130.94033
G1 X74.396 Y82.741 E135.54088
G1 X74.728 Y81.623 E135.61846
G1 X75.153 Y80.781 E135.6812
G1 X75.723 Y80.013 E135.74482
G1 X76.582 Y79.265 E135.82059
G1 X77.575 Y78.739 E135.89534
G1 X78.017 Y78.573 E135.92674
G1 X78.978 Y78.385 E135.99188
G1 X81.991 Y78.38 E136.19231
G1 X82.973 Y78.574 E136.25889
G1 X83.428 Y78.732 E136.29093
G1 X84.431 Y79.276 E136.36683
G1 X85.264 Y80.004 E136.44042
G1 X85.857 Y80.788 E136.50581
G1 X86.292 Y81.649 E136.56998
G1 X86.607 Y82.794 E136.64898
G1 X86.609 Y152.221 E141.26728
G1 X86.268 Y153.384 E141.3479
G1 X85.876 Y154.181 E141.40698
G1 X85.267 Y155 E141.47487
G1 X84.442 Y155.717 E141.54758
G1 X83.443 Y156.257 E141.62312
G0 F6000 X83.104 Y155.533
G1 F1200 X82.764 Y155.655 E141.64715
G1 X81.946 Y155.814 E141.70258
G1 X79.091 Y155.82 E141.8925
G1 X78.235 Y155.654 E141.9505
G1 X77.903 Y155.535 E141.97396
G1 X77.026 Y155.062 E142.04024
G1 X76.319 Y154.44 E142.10288
G1 X75.666 Y153.577 E142.17487
G1 X75.329 Y152.623 E142.24218
G1 X75.19 Y151.833 E142.29554
G1 X75.196 Y82.852 E146.88417
G1 X75.479 Y81.91 E146.9496
G1 X75.835 Y81.206 E147.00208
G1 X76.315 Y80.559 E147.05567
G1 X77.037 Y79.93 E147.11936
G1 X77.909 Y79.465 E147.1851
G1 X78.184 Y79.36 E147.20468
G1 X79.054 Y79.186 E147.2637
G1 X81.91 Y79.18 E147.45368
G1 X82.828 Y79.363 E147.51595
G1 X83.052 Y79.444 E147.53179
G1 X83.972 Y79.938 E147.60126
G1 X84.673 Y80.55 E147.66316
G1 X85.176 Y81.216 E147.71868
G1 X85.54 Y81.933 E147.77217
G1 X85.811 Y82.904 E147.83923
G1 X85.813 Y152.106 E152.44256
G1 X85.545 Y153.028 E152.50643
G1 X85.188 Y153.765 E152.56091
G1 X84.677 Y154.451 E152.61781
G1 X83.978 Y155.058 E152.67939
G1 X83.104 Y155.533 E152.74556
G0 F6000 X82.667 Y154.857
G1 F1200 X81.863 Y155.015 E152.80007
G1 X79.172 Y155.02 E152.97907
G1 X78.331 Y154.856 E153.03607
G1 X77.488 Y154.402 E153.09976
G1 X76.912 Y153.896 E153.15076
G1 X76.376 Y153.192 E153.20962
G1 X76.11 Y152.449 E153.26212
G1 X75.988 Y151.765 E153.30833
G1 X75.993 Y82.982 E157.8838
G1 X76.23 Y82.195 E157.93847
G1 X76.515 Y81.633 E157.98039
G1 X76.908 Y81.105 E158.02417
G1 X77.494 Y80.594 E158.07589
G1 X78.337 Y80.142 E158.13952
G1 X79.137 Y79.985 E158.19375
G1 X81.828 Y79.98 E158.37276
G1 X82.671 Y80.145 E158.4299
G1 X83.51 Y80.598 E158.49333
G1 X84.083 Y81.098 E158.54391
G1 X84.53 Y81.702 E158.5939
G1 X84.79 Y82.224 E158.63269
G1 X85.013 Y83.037 E158.68877
G1 X85.007 Y152.018 E163.2774
G1 X84.795 Y152.741 E163.32752
G1 X84.505 Y153.343 E163.37197
G1 X84.088 Y153.901 E163.41831
G1 X83.518 Y154.396 E163.46853
G1 X82.667 Y154.857 E163.53291
G0 F6000 X82.394 Y154.09
G1 F1200 X81.78 Y154.215 E163.57459
G1 X79.252 Y154.22 E163.74275
G1 X78.606 Y154.09 E163.78659
G1 X77.95 Y153.742 E163.83598
G1 X77.501 Y153.348 E163.87572
G1 X77.092 Y152.802 E163.9211
G1 X76.882 Y152.239 E163.96107
G1 X76.786 Y151.697 E163.99769
G1 X76.785 Y83.104 E168.56051
G1 X76.953 Y82.546 E168.59928
G1 X77.176 Y82.083 E168.63346
G1 X77.502 Y81.65 E168.66952
G1 X77.953 Y81.258 E168.70927
G1 X78.61 Y80.909 E168.75875
G1 X79.22 Y80.785 E168.80016
G1 X81.748 Y80.78 E168.96832
G1 X82.394 Y80.91 E169.01216
G1 X83.049 Y81.259 E169.06153
G1 X83.496 Y81.644 E169.10077
G1 X83.808 Y82.061 E169.13541
G1 X84.042 Y82.513 E169.16927
G1 X84.215 Y83.144 E169.21279
G1 X84.215 Y151.896 E173.7862
G1 X84.047 Y152.454 E173.82496
G1 X83.824 Y152.917 E173.85915
G1 X83.496 Y153.352 E173.89539
G1 X83.054 Y153.737 E173.93438
G1 X82.394 Y154.09 E173.98417
G1 F2700 E173.18417
G0 F6000 X81.979 Y152.933
G0 X78.472 Y152.528
G0 X77.923 Y149.831
G0 X64.85 Y149.831
G1 F2700 E173.98417
G1 F1401.5 X64.856 Y85.172 E177.66701
G1 X64.17 Y85.172 E177.70609
G1 X64.164 Y149.831 E181.38893
G1 F1399.4 X64.85 Y149.831 E181.42806
G0 F6000 X65.593 Y150.574
G1 F1200 X65.599 Y84.429 E185.82804
G1 X63.427 Y84.429 E185.97253
G1 X63.421 Y150.574 E190.37251
G1 X65.593 Y150.574 E190.51699
G0 F6000 X66.393 Y151.374
G1 F1200 X66.4 Y83.628 E195.02347
G1 X62.626 Y83.628 E195.27452
G1 X62.621 Y151.374 E199.781
G1 X66.393 Y151.374 E200.03192
G0 F6000 X67.193 Y152.174
G1 F1200 X67.201 Y82.827 E204.6449
G1 X61.825 Y82.827 E205.00251
G1 X61.821 Y152.174 E209.61549
G1 X67.193 Y152.174 E209.97284
G0 F6000 X68.077 Y152.974
G1 F1200 X67.998 Y152.52 E210.0035
G1 X68.005 Y82.027 E214.69271
G1 X61.024 Y82.026 E215.15709
G1 X61.021 Y152.975 E219.87663
G1 X68.077 Y152.974 E220.346
G0 F6000 X69.031 Y153.775
G1 F1200 X68.798 Y152.445 E220.43582
G1 X68.8 Y82.181 E225.1098
G1 X68.855 Y81.706 E225.14161
G1 X68.991 Y81.227 E225.17473
G1 X60.223 Y81.225 E225.75798
G1 X60.221 Y153.776 E230.58409
G1 X69.031 Y153.775 E231.17014
G0 F6000 X70.068 Y154.575
G1 F1200 X69.886 Y154.042 E231.2076
G1 X69.598 Y152.37 E231.32046
G1 X69.595 Y82.274 E235.98327
G1 X69.655 Y81.805 E236.01472
G1 X70.063 Y80.427 E236.11032
G1 X59.422 Y80.424 E236.81816
G1 X59.421 Y154.577 E241.75084
G1 X70.068 Y154.575 E242.45908
G0 F6000 X71.202 Y155.377
G1 F1200 X70.664 Y153.839 E242.56746
G1 X70.398 Y152.297 E242.67155
G1 X70.396 Y82.262 E247.3303
G1 X70.441 Y81.971 E247.34989
G1 X70.986 Y80.15 E247.47633
G1 X71.246 Y79.626 E247.51524
G1 X58.622 Y79.623 E248.35499
G1 X58.621 Y155.378 E253.39424
G1 X71.202 Y155.377 E254.23113
G1 F2700 E253.43113
G0 F6000 X72.607 Y156.178
G1 F2700 E254.23113
G1 F1200 X72.252 Y155.715 E254.26994
G1 X71.952 Y155.098 E254.31558
G1 X71.442 Y153.636 E254.41858
G1 X71.198 Y152.223 E254.51396
G1 X71.193 Y82.255 E259.16825
G1 X71.735 Y80.441 E259.29419
G1 X72.372 Y79.16 E259.38936
G1 X72.614 Y78.824 E259.4169
G1 X57.822 Y78.823 E260.40087
G1 X57.821 Y156.179 E265.54661
G1 X72.607 Y156.178 E266.53018
G1 F2700 E265.73018
G0 F6000 X74.355 Y156.977
G1 F2700 E266.53018
G1 F1200 X73.942 Y156.602 E266.56729
G1 X72.939 Y155.295 E266.67688
G1 X72.706 Y154.829 E266.71154
G1 X72.219 Y153.431 E266.81001
G1 X71.998 Y152.149 E266.89655
G1 X71.996 Y82.381 E271.53754
G1 X72.483 Y80.737 E271.65159
G1 X73.059 Y79.578 E271.73769
G1 X73.953 Y78.367 E271.83782
G1 X74.348 Y78.024 E271.87261
G1 X57.022 Y78.023 E273.02515
G1 X57.021 Y156.979 E278.27732
G1 X74.355 Y156.977 E279.43038
G1 F2700 E278.63038
G0 F6000 X77.014 Y157.779
G1 F2700 E279.43038
G1 F1200 X75.647 Y157.052 E279.53337
G1 X74.552 Y156.082 E279.63068
G1 X73.64 Y154.895 E279.73026
G1 X73.463 Y154.566 E279.75511
G1 X72.996 Y153.227 E279.84944
G1 X72.798 Y152.076 E279.92713
G1 X72.796 Y82.501 E284.55528
G1 X73.231 Y81.033 E284.65713
G1 X73.746 Y79.998 E284.73403
G1 X74.543 Y78.917 E284.82337
G1 X75.67 Y77.937 E284.92272
G1 X77.018 Y77.224 E285.02416
G1 X56.222 Y77.223 E286.40751
G1 X56.221 Y157.78 E291.76619
G1 X77.014 Y157.779 E293.14934
G1 F2700 E292.34934
G0 F6000 X77.014 Y165.165
G0 X114.665 Y165.165
G0 X114.665 Y158.579
G1 F2700 E293.14934
G1 F1133.4 X115.222 Y158.533 E293.1887
G1 F1020.2 X115.78 Y158.486 E293.23252
G1 F971.7 X119.204 Y158.487 E293.51381
G1 F1021.3 X119.771 Y158.533 E293.55827
G1 F1134.8 X120.338 Y158.579 E293.59829
G1 F1200 X151.665 Y158.579 E295.68217
G1 F1133.4 X152.222 Y158.533 E295.72153
G1 F1020.2 X152.78 Y158.486 E295.76535
G1 F971.7 X156.204 Y158.487 E296.04664
G1 F1021.3 X156.771 Y158.533 E296.0911
G1 F1134.8 X157.338 Y158.579 E296.13112
G1 F1200 X179.58 Y158.58 E297.61066
G1 X179.58 Y76.423 E303.07577
G1 X157.353 Y76.422 E304.55431
G1 F1133.4 X156.786 Y76.469 E304.59438
G1 F1020.2 X156.219 Y76.516 E304.6389
G1 F972.6 X152.795 Y76.515 E304.9199
G1 F1022.4 X152.224 Y76.469 E304.96463
G1 F1134.8 X151.653 Y76.423 E305.00493
G1 F1200 X120.353 Y76.422 E307.08701
G1 F1133.4 X119.786 Y76.469 E307.12708
G1 F1020.2 X119.219 Y76.516 E307.1716
G1 F972.6 X115.795 Y76.515 E307.45261
G1 F1022.4 X115.224 Y76.469 E307.49733
G1 F1134.8 X114.653 Y76.423 E307.53763
G1 F1200 X83.318 Y76.423 E309.62204
G1 F1133.4 X82.771 Y76.47 E309.66071
G1 F1020.2 X82.224 Y76.517 E309.70367
