;FLAVOR:Marlin
;TIME:1081
;Filament used: 1.08192m
;Layer height: 0.2
;MINX:105.401
;MINY:70.9
;MINZ:0.2
;MAXX:129.6
;MAXY:164.1
;MAXZ:11
;TARGET_MACHINE.NAME:Creality Ender-3
;Generated with Cura_SteamEngine 5.6.0
M140 S60
M105
M190 S60
M104 S205
M105
M109 S205
M82 ;absolute extrusion mode
; Ender 3 Custom Start G-code
G92 E0 ; Reset Extruder
G28 ; Home all axes
G1 Z2.0 F3000 ; Move Z Axis up little to prevent scratching of Heat Bed
G1 X0.1 Y20 Z0.3 F5000.0 ; Move to start position
G1 X0.1 Y200.0 Z0.3 F1500.0 E15 ; Draw the first line
G1 X0.4 Y200.0 Z0.3 F5000.0 ; Move to side a little
G1 X0.4 Y20 Z0.3 F1500.0 E30 ; Draw the second line
G92 E0 ; Reset Extruder
G1 Z2.0 F3000 ; Move Z Axis up little to prevent scratching of Heat Bed
G1 X5 Y20 Z0.3 F5000.0 ; Move over to prevent blob squish
G92 E0
G92 E0
G1 F2700 E-0.8
;LAYER_COUNT:55
;LAYER:0
M107
;MESH:4screws.stl
G0 F6000 X129 Y80.5 Z0.2
;TYPE:WALL-INNER
G1 F2700 E0
G1 F2400 X129 Y154.5 E2.46125
G1 F2358.7 X128.993 Y154.674 E2.46714
G0 F6000 X128.993 Y155.6
G0 X128.8 Y163.3
G1 F1200 X128.8 Y155.346 E2.99625
G1 X128.463 Y155.608 E3.02464
G1 X128 Y155.7 E3.05604
G1 X114.841 Y155.7 E3.93138
G1 X114.438 Y155.561 E3.95974
G1 X114.283 Y155.463 E3.97194
G1 X114.037 Y155.217 E3.99508
G1 X113.939 Y155.062 E4.00728
G1 X113.8 Y154.659 E4.03564
G1 X113.8 Y80.341 E8.97929
G1 X113.939 Y79.938 E9.00765
G1 X114.037 Y79.783 E9.01985
G1 X114.283 Y79.537 E9.04299
G1 X114.438 Y79.439 E9.05519
G1 X114.841 Y79.3 E9.08354
G1 X128 Y79.3 E9.95888
G1 X128.463 Y79.391 E9.99027
G1 X128.8 Y79.654 E10.01871
G1 X128.8 Y71.7 E10.54781
G1 X106.201 Y71.701 E12.0511
G1 X106.201 Y163.299 E18.14423
G1 X128.8 Y163.3 E19.64752
G0 F6000 X129.6 Y164.1
;TYPE:WALL-OUTER
G1 F1200 X129.6 Y70.9 E25.84721
G1 X105.401 Y70.901 E27.45693
G1 X105.401 Y164.099 E33.65649
G1 X129.6 Y164.1 E35.26621
G1 F2700 E34.46621
G0 F6000 X128.93 Y163.43
G0 X128.425 Y155.991
G0 X114.812 Y155.6
G0 X114.812 Y154.854
G1 F2700 E35.26621
G1 F1200 X114.646 Y154.688 E35.28183
G1 X114.605 Y154.566 E35.29039
G1 X114.605 Y80.43 E40.22194
G1 X114.646 Y80.312 E40.23025
G1 X114.812 Y80.146 E40.24586
G1 X114.934 Y80.105 E40.25442
G1 X128 Y80.1 E41.12358
G1 X128.155 Y80.13 E41.13408
G1 X128.321 Y80.259 E41.14806
G1 X128.4 Y80.5 E41.16493
G1 X128.395 Y154.57 E46.09209
G1 F1201.5 X128.32 Y154.74 E46.10444
G1 X128.155 Y154.87 E46.11839
G1 F1200 X128 Y154.9 E46.12889
G1 X114.93 Y154.895 E46.99831
G1 X114.812 Y154.854 E47.00662
G0 F6000 X114.812 Y155.6
G0 X128.425 Y155.991
G0 X128.428 Y162.928
G0 X128.079 Y162.999
G0 X128.08 Y162.58
;TYPE:SKIN
G1 F1200 X106.921 Y162.579 E48.41412
G1 X106.921 Y72.421 E54.41146
G1 X128.08 Y72.42 E55.81896
G1 X128.08 Y78.58 E56.22873
G1 X114.974 Y78.581 E57.10054
G1 X114.523 Y78.621 E57.13066
G1 X114.085 Y78.807 E57.16231
G1 X113.643 Y79.14 E57.19913
G1 X113.304 Y79.591 E57.23666
G1 X113.119 Y80.02 E57.26773
G1 X113.081 Y80.475 E57.29811
G1 X113.081 Y154.526 E62.224
G1 X113.121 Y154.977 E62.25412
G1 X113.307 Y155.415 E62.28577
G1 X113.64 Y155.857 E62.32258
G1 X114.091 Y156.196 E62.36011
G1 X114.52 Y156.381 E62.39119
G1 X114.975 Y156.419 E62.42156
G1 X128.08 Y156.42 E63.29331
G1 X128.08 Y162.58 E63.70308
G0 F6000 X128.079 Y162.999
G0 X107.871 Y162.999
G0 X107.872 Y162.178
G1 F1200 X107.32 Y161.626 E63.75501
G0 F6000 X106.501 Y161.626
G0 X106.501 Y160.494
G0 X107.32 Y160.494
G1 F1200 X109.004 Y162.178 E63.91343
G0 F6000 X109.003 Y162.999
G0 X110.134 Y162.999
G0 X110.135 Y162.178
G1 F1200 X107.32 Y159.363 E64.17824
G0 F6000 X106.501 Y159.363
G0 X106.501 Y158.232
G0 X107.32 Y158.232
G1 F1200 X111.266 Y162.178 E64.54946
G0 F6000 X111.265 Y162.999
G0 X112.397 Y162.999
G0 X112.398 Y162.178
G1 F1200 X107.32 Y157.1 E65.02717
G0 F6000 X106.501 Y157.1
G0 X106.501 Y155.969
G0 X107.32 Y155.969
G1 F1200 X113.529 Y162.178 E65.61127
G0 F6000 X113.528 Y162.999
G0 X114.659 Y162.999
G0 X114.66 Y162.178
G1 F1200 X107.32 Y154.838 E66.30177
G0 F6000 X106.501 Y154.838
G0 X106.501 Y153.706
G0 X107.32 Y153.706
G1 F1200 X115.792 Y162.178 E67.09877
G0 F6000 X115.791 Y162.999
G0 X116.922 Y162.999
G0 X116.923 Y162.178
G1 F1200 X107.32 Y152.575 E68.00216
G0 F6000 X106.501 Y152.575
G0 X106.501 Y151.443
G0 X107.32 Y151.443
G1 F1200 X118.055 Y162.178 E69.01204
G0 F6000 X118.054 Y162.999
G0 X119.185 Y162.999
G0 X119.186 Y162.178
G1 F1200 X107.32 Y150.312 E70.12832
G0 F6000 X106.501 Y150.312
G0 X106.501 Y149.181
G0 X107.32 Y149.181
G1 F1200 X112.681 Y154.542 E70.63265
G0 F6000 X113.499 Y154.496
G0 X113.5 Y153.411
G0 X112.681 Y153.411
G1 F1200 X107.32 Y148.049 E71.13703
G0 F6000 X106.501 Y148.049
G0 X106.501 Y146.918
G0 X107.32 Y146.918
G1 F1200 X112.681 Y152.279 E71.64136
G0 F6000 X113.5 Y152.279
G0 X113.5 Y151.148
G0 X112.681 Y151.148
G1 F1200 X107.32 Y145.787 E72.14569
G0 F6000 X106.501 Y145.787
G0 X106.501 Y144.655
G0 X107.32 Y144.655
G1 F1200 X112.681 Y150.016 E72.65002
G0 F6000 X113.5 Y150.016
G0 X113.5 Y148.885
G0 X112.681 Y148.885
G1 F1200 X107.32 Y143.524 E73.15435
G0 F6000 X106.501 Y143.524
G0 X106.501 Y142.392
G0 X107.32 Y142.392
G1 F1200 X112.681 Y147.754 E73.65873
G0 F6000 X113.5 Y147.754
G0 X113.5 Y146.622
G0 X112.681 Y146.622
G1 F1200 X107.32 Y141.261 E74.16306
G0 F6000 X106.501 Y141.261
G0 X106.501 Y140.13
G0 X107.32 Y140.13
G1 F1200 X112.681 Y145.491 E74.66739
G0 F6000 X113.5 Y145.491
G0 X113.5 Y144.36
G0 X112.681 Y144.36
G1 F1200 X107.32 Y138.998 E75.17176
G0 F6000 X106.501 Y138.998
G0 X106.501 Y137.867
G0 X107.32 Y137.867
G1 F1200 X112.681 Y143.228 E75.67609
G0 F6000 X113.5 Y143.228
G0 X113.5 Y142.097
G0 X112.681 Y142.097
G1 F1200 X107.32 Y136.736 E76.18042
G0 F6000 X106.501 Y136.736
G0 X106.501 Y135.604
G0 X107.32 Y135.604
G1 F1200 X112.681 Y140.965 E76.68475
G0 F6000 X113.5 Y140.965
G0 X113.5 Y139.834
G0 X112.681 Y139.834
G1 F1200 X107.32 Y134.473 E77.18908
G0 F6000 X106.501 Y134.473
G0 X106.501 Y133.341
G0 X107.32 Y133.341
G1 F1200 X112.681 Y138.703 E77.69346
G0 F6000 X113.5 Y138.703
G0 X113.5 Y137.571
G0 X112.681 Y137.571
G1 F1200 X107.32 Y132.21 E78.19779
G0 F6000 X106.501 Y132.21
G0 X106.501 Y131.079
G0 X107.32 Y131.079
G1 F1200 X112.681 Y136.44 E78.70212
G0 F6000 X113.5 Y136.44
G0 X113.5 Y135.309
G0 X112.681 Y135.309
G1 F1200 X107.32 Y129.947 E79.2065
G0 F6000 X106.501 Y129.947
G0 X106.501 Y128.816
G0 X107.32 Y128.816
G1 F1200 X112.681 Y134.177 E79.71083
G0 F6000 X113.5 Y134.177
G0 X113.5 Y133.046
G0 X112.681 Y133.046
G1 F1200 X107.32 Y127.685 E80.21516
G0 F6000 X106.501 Y127.685
G0 X106.501 Y126.553
G0 X107.32 Y126.553
G1 F1200 X112.681 Y131.915 E80.71954
G0 F6000 X113.5 Y131.915
G0 X113.5 Y130.783
G0 X112.681 Y130.783
G1 F1200 X107.32 Y125.422 E81.22387
G0 F6000 X106.501 Y125.422
G0 X106.501 Y124.29
G0 X107.32 Y124.29
G1 F1200 X112.681 Y129.652 E81.72824
G0 F6000 X113.5 Y129.652
G0 X113.5 Y128.52
G0 X112.681 Y128.52
G1 F1200 X107.32 Y123.159 E82.23257
G0 F6000 X106.501 Y123.159
G0 X106.501 Y122.028
G0 X107.32 Y122.028
G1 F1200 X112.681 Y127.389 E82.7369
G0 F6000 X113.5 Y127.389
G0 X113.5 Y126.258
G0 X112.681 Y126.258
G1 F1200 X107.32 Y120.896 E83.24128
G0 F6000 X106.501 Y120.896
G0 X106.501 Y119.765
G0 X107.32 Y119.765
G1 F1200 X112.681 Y125.126 E83.74561
G0 F6000 X113.5 Y125.126
G0 X113.5 Y123.995
G0 X112.681 Y123.995
G1 F1200 X107.32 Y118.634 E84.24994
G0 F6000 X106.501 Y118.634
G0 X106.501 Y117.502
G0 X107.32 Y117.502
G1 F1200 X112.681 Y122.864 E84.75432
G0 F6000 X113.5 Y122.864
G0 X113.5 Y121.732
G0 X112.681 Y121.732
G1 F1200 X107.32 Y116.371 E85.25865
G0 F6000 X106.501 Y116.371
G0 X106.501 Y115.24
G0 X107.32 Y115.24
G1 F1200 X112.681 Y120.601 E85.76298
G0 F6000 X113.5 Y120.601
G0 X113.5 Y119.469
G0 X112.681 Y119.469
G1 F1200 X107.32 Y114.108 E86.26731
G0 F6000 X106.501 Y114.108
G0 X106.501 Y112.977
G0 X107.32 Y112.977
G1 F1200 X112.681 Y118.338 E86.77164
G0 F6000 X113.5 Y118.338
G0 X113.5 Y117.207
G0 X112.681 Y117.207
G1 F1200 X107.32 Y111.845 E87.27601
G0 F6000 X106.501 Y111.845
G0 X106.501 Y110.714
G0 X107.32 Y110.714
G1 F1200 X112.681 Y116.075 E87.78034
G0 F6000 X113.5 Y116.075
G0 X113.5 Y114.944
G0 X112.681 Y114.944
G1 F1200 X107.32 Y109.583 E88.28467
G0 F6000 X106.501 Y109.583
G0 X106.501 Y108.451
G0 X107.32 Y108.451
G1 F1200 X112.681 Y113.813 E88.78905
G0 F6000 X113.5 Y113.813
G0 X113.5 Y112.681
G0 X112.681 Y112.681
G1 F1200 X107.32 Y107.32 E89.29338
G0 F6000 X106.501 Y107.32
G0 X106.501 Y106.189
G0 X107.32 Y106.189
G1 F1200 X112.681 Y111.55 E89.79771
G0 F6000 X113.5 Y111.55
G0 X113.5 Y110.418
G0 X112.681 Y110.418
G1 F1200 X107.32 Y105.057 E90.30204
G0 F6000 X106.501 Y105.057
G0 X106.501 Y103.926
G0 X107.32 Y103.926
G1 F1200 X112.681 Y109.287 E90.80637
G0 F6000 X113.5 Y109.287
G0 X113.5 Y108.156
G0 X112.681 Y108.156
G1 F1200 X107.32 Y102.794 E91.31075
G0 F6000 X106.501 Y102.794
G0 X106.501 Y101.663
G0 X107.32 Y101.663
G1 F1200 X112.681 Y107.024 E91.81508
G0 F6000 X113.5 Y107.024
G0 X113.5 Y105.893
G0 X112.681 Y105.893
G1 F1200 X107.32 Y100.532 E92.31941
G0 F6000 X106.501 Y100.532
G0 X106.501 Y99.4
G0 X107.32 Y99.4
G1 F1200 X112.681 Y104.762 E92.82378
G0 F6000 X113.5 Y104.762
G0 X113.5 Y103.63
G0 X112.681 Y103.63
G1 F1200 X107.32 Y98.269 E93.32811
G0 F6000 X106.501 Y98.269
G0 X106.501 Y97.138
G0 X107.32 Y97.138
G1 F1200 X112.681 Y102.499 E93.83244
G0 F6000 X113.5 Y102.499
G0 X113.5 Y101.367
G0 X112.681 Y101.367
G1 F1200 X107.32 Y96.006 E94.33677
G0 F6000 X106.501 Y96.006
G0 X106.501 Y94.875
G0 X107.32 Y94.875
G1 F1200 X112.681 Y100.236 E94.8411
G0 F6000 X113.5 Y100.236
G0 X113.5 Y99.105
G0 X112.681 Y99.105
G1 F1200 X107.32 Y93.743 E95.34548
G0 F6000 X106.501 Y93.743
G0 X106.501 Y92.612
G0 X107.32 Y92.612
G1 F1200 X112.681 Y97.973 E95.84981
G0 F6000 X113.5 Y97.973
G0 X113.5 Y96.842
G0 X112.681 Y96.842
G1 F1200 X107.32 Y91.481 E96.35414
G0 F6000 X106.501 Y91.481
G0 X106.501 Y90.349
G0 X107.32 Y90.349
G1 F1200 X112.681 Y95.711 E96.85852
G0 F6000 X113.5 Y95.711
G0 X113.5 Y94.579
G0 X112.681 Y94.579
G1 F1200 X107.32 Y89.218 E97.36285
G0 F6000 X106.501 Y89.218
G0 X106.501 Y88.087
G0 X107.32 Y88.087
G1 F1200 X112.681 Y93.448 E97.86718
G0 F6000 X113.5 Y93.448
G0 X113.5 Y92.317
G0 X112.681 Y92.317
G1 F1200 X107.32 Y86.955 E98.37156
G0 F6000 X106.501 Y86.955
G0 X106.501 Y85.824
G0 X107.32 Y85.824
G1 F1200 X112.681 Y91.185 E98.87589
G0 F6000 X113.5 Y91.185
G0 X113.5 Y90.054
G0 X112.681 Y90.054
G1 F1200 X107.32 Y84.693 E99.38022
G0 F6000 X106.501 Y84.693
G0 X106.501 Y83.561
G0 X107.32 Y83.561
G1 F1200 X112.681 Y88.922 E99.88455
G0 F6000 X113.5 Y88.922
G0 X113.5 Y87.791
G0 X112.681 Y87.791
G1 F1200 X107.32 Y82.43 E100.38888
G0 F6000 X106.501 Y82.43
G0 X106.501 Y81.298
G0 X107.32 Y81.298
G1 F1200 X112.681 Y86.66 E100.89325
G0 F6000 X113.5 Y86.66
G0 X113.5 Y85.528
G0 X112.681 Y85.528
G1 F1200 X107.32 Y80.167 E101.39758
G0 F6000 X106.501 Y80.167
G0 X106.501 Y79.036
G0 X107.32 Y79.036
G1 F1200 X112.681 Y84.397 E101.90191
G0 F6000 X113.5 Y84.397
G0 X113.5 Y83.266
G0 X112.681 Y83.266
G1 F1200 X107.32 Y77.904 E102.40629
G0 F6000 X106.501 Y77.904
G0 X106.501 Y76.773
G0 X107.32 Y76.773
G1 F1200 X112.681 Y82.134 E102.91062
G0 F6000 X113.5 Y82.134
G0 X113.5 Y81.003
G0 X112.681 Y81.003
G1 F1200 X107.32 Y75.642 E103.41495
G0 F6000 X106.501 Y75.642
G0 X106.501 Y74.51
G0 X107.32 Y74.51
G1 F1200 X112.743 Y79.934 E103.92516
G0 F6000 X113.114 Y79.173
G1 F1200 X107.32 Y73.379 E104.47022
G0 F6000 X107.893 Y72.82
G1 F1200 X113.68 Y78.608 E105.01468
G0 F6000 X114.432 Y78.228
G1 F1200 X109.024 Y72.82 E105.52343
G0 F6000 X109.024 Y72
G0 X110.155 Y72
G0 X110.155 Y72.82
G1 F1200 X115.516 Y78.181 E106.02776
G0 F6000 X115.516 Y79
G0 X116.647 Y79
G0 X116.647 Y78.181
G1 F1200 X111.287 Y72.82 E106.53204
G0 F6000 X111.287 Y72
G0 X112.418 Y72
G0 X112.418 Y72.82
G1 F1200 X117.779 Y78.181 E107.03637
G0 F6000 X117.779 Y79
G0 X118.91 Y79
G0 X118.91 Y78.181
G1 F1200 X113.55 Y72.82 E107.54065
G0 F6000 X113.55 Y72
G0 X114.681 Y72
G0 X114.681 Y72.82
G1 F1200 X120.041 Y78.181 E108.04494
G0 F6000 X120.041 Y79
G0 X121.173 Y79
G0 X121.173 Y78.181
G1 F1200 X115.812 Y72.82 E108.54927
G0 F6000 X115.812 Y72
G0 X116.944 Y72
G0 X116.944 Y72.82
G1 F1200 X122.304 Y78.18 E109.0535
G0 F6000 X122.304 Y79
G0 X123.435 Y79
G0 X123.435 Y78.18
G1 F1200 X118.075 Y72.82 E109.55774
G0 F6000 X118.075 Y72
G0 X119.206 Y72
G0 X119.206 Y72.82
G1 F1200 X124.566 Y78.18 E110.06197
G0 F6000 X124.566 Y79
G0 X125.698 Y79
G0 X125.698 Y78.18
G1 F1200 X120.338 Y72.82 E110.56621
G0 F6000 X120.338 Y72
G0 X121.469 Y72
G0 X121.469 Y72.82
G1 F1200 X126.829 Y78.18 E111.07045
G0 F6000 X127.679 Y77.899
G1 F1200 X122.601 Y72.82 E111.5482
G0 F6000 X122.601 Y72
G0 X123.732 Y72
G0 X123.732 Y72.82
G1 F1200 X127.679 Y76.767 E111.91951
G0 F6000 X128.5 Y76.767
G0 X128.5 Y75.636
G0 X127.679 Y75.636
G1 F1200 X124.863 Y72.82 E112.18442
G0 F6000 X124.863 Y72
G0 X125.995 Y72
G0 X125.995 Y72.82
G1 F1200 X127.679 Y74.505 E112.34289
G0 F6000 X128.5 Y74.505
G0 X128.5 Y73.373
G0 X127.679 Y73.373
G1 F1200 X127.126 Y72.82 E112.39491
G1 F2700 E111.59491
G0 F6000 X127.126 Y72
G0 X128.428 Y72.072
G0 X128.425 Y79.009
G0 X113.972 Y79.472
G0 X113.972 Y155.528
G0 X127.403 Y156
G0 X127.403 Y156.819
G1 F2700 E112.39491
G1 F1200 X127.679 Y157.095 E112.42088
G0 F6000 X128.5 Y157.095
G0 X128.5 Y158.226
G0 X127.679 Y158.226
G1 F1200 X126.272 Y156.819 E112.55324
G0 F6000 X126.272 Y156
G0 X125.14 Y156
G0 X125.14 Y156.819
G1 F1200 X127.679 Y159.357 E112.79205
G0 F6000 X128.5 Y159.357
G0 X128.5 Y160.489
G0 X127.679 Y160.489
G1 F1200 X124.009 Y156.819 E113.1373
G0 F6000 X124.009 Y156
G0 X122.877 Y156
G0 X122.877 Y156.818
G1 F1200 X127.679 Y161.62 E113.58904
G0 F6000 X127.105 Y162.178
G1 F1200 X121.746 Y156.818 E114.09323
G0 F6000 X121.746 Y156
G0 X120.614 Y156
G0 X120.614 Y156.818
G1 F1200 X125.974 Y162.178 E114.59746
G0 F6000 X125.973 Y162.999
G0 X124.842 Y162.999
G0 X124.843 Y162.178
G1 F1200 X119.483 Y156.818 E115.1017
G0 F6000 X119.483 Y156
G0 X118.351 Y156
G0 X118.351 Y156.817
G1 F1200 X123.711 Y162.178 E115.60598
G0 F6000 X123.71 Y162.999
G0 X122.579 Y162.999
G0 X122.58 Y162.178
G1 F1200 X117.219 Y156.817 E116.11031
G0 F6000 X117.219 Y156
G0 X116.088 Y156
G0 X116.088 Y156.817
G1 F1200 X121.449 Y162.178 E116.61464
G0 F6000 X121.448 Y162.999
G0 X120.316 Y162.999
G0 X120.317 Y162.178
G1 F1200 X114.957 Y156.817 E117.11893
G1 F2700 E116.31893
;MESH:NONMESH
G0 F300 X114.957 Y156.817 Z0.4
G0 F6000 X115.004 Y156.001
G0 X113.972 Y155.528
G0 X113.972 Y79.472
G0 X128.93 Y79.43
G0 X129 Y80.5
;TIME_ELAPSED:120.122367
;LAYER:1
M106 S85
;TYPE:WALL-INNER
;MESH:4screws.stl
G1 F2700 E117.11893
G1 F3000 X129 Y154.5 E119.58018
G1 F2948.4 X128.993 Y154.674 E119.58607
G0 F7500 X128.993 Y155.6
G0 X128.8 Y163.3
G1 F1500 X128.8 Y155.346 E120.11517
G1 X128.463 Y155.608 E120.14357
G1 X128 Y155.7 E120.17497
G1 X114.841 Y155.7 E121.05031
G1 X114.438 Y155.561 E121.07866
G1 X114.283 Y155.463 E121.09086
G1 X114.037 Y155.217 E121.11401
G1 X113.939 Y155.062 E121.1262
G1 X113.8 Y154.659 E121.15456
G1 X113.8 Y80.341 E126.09822
G1 X113.939 Y79.938 E126.12657
G1 X114.037 Y79.783 E126.13877
G1 X114.283 Y79.537 E126.16191
G1 X114.438 Y79.439 E126.17411
G1 X114.841 Y79.3 E126.20247
G1 X128 Y79.3 E127.07781
G1 X128.463 Y79.391 E127.1092
G1 X128.8 Y79.654 E127.13763
G1 X128.8 Y71.7 E127.66674
G1 X106.201 Y71.701 E129.17003
G1 X106.201 Y163.299 E135.26315
G1 X128.8 Y163.3 E136.76644
G0 F7500 X129.6 Y164.1
;TYPE:WALL-OUTER
G1 F1500 X129.6 Y70.9 E142.96613
G1 X105.401 Y70.901 E144.57586
G1 X105.401 Y164.099 E150.77541
G1 X129.6 Y164.1 E152.38514
G1 F2700 E151.58514
G0 F7500 X128.93 Y163.43
G0 X128.425 Y155.991
G0 X114.812 Y155.6
G0 X114.812 Y154.854
G1 F2700 E152.38514
