;FLAVOR:Marlin
;TIME:2720
;Filament used: 4.36597m
;Layer height: 0.2
;MINX:65.9
;MINY:70.9
;MINZ:0.2
;MAXX:169.1
;MAXY:164.1
;MAXZ:10.4
;TARGET_MACHINE.NAME:Creality Ender-3
;Generated with Cura_SteamEngine 5.6.0
M140 S60
M105
M190 S60
M104 S205
M105
M109 S205
M82 ;absolute extrusion mode
; Ender 3 Custom Start G-code
G92 E0 ; Reset Extruder
G28 ; Home all axes
G1 Z2.0 F3000 ; Move Z Axis up little to prevent scratching of Heat Bed
G1 X0.1 Y20 Z0.3 F5000.0 ; Move to start position
G1 X0.1 Y200.0 Z0.3 F1500.0 E15 ; Draw the first line
G1 X0.4 Y200.0 Z0.3 F5000.0 ; Move to side a little
G1 X0.4 Y20 Z0.3 F1500.0 E30 ; Draw the second line
G92 E0 ; Reset Extruder
G1 Z2.0 F3000 ; Move Z Axis up little to prevent scratching of Heat Bed
G1 X5 Y20 Z0.3 F5000.0 ; Move over to prevent blob squish
G92 E0
G92 E0
G1 F2700 E-0.8
;LAYER_COUNT:52
;LAYER:0
M107
;MESH:full_plate_2.stl
G0 F6000 X97.935 Y152.619 Z0.2
;TYPE:WALL-INNER
G1 F2700 E0
G1 F1200 X97.601 Y152.7 E0.02286
G1 X95.399 Y152.7 E0.16934
G1 X95.065 Y152.619 E0.1922
G1 X94.816 Y152.487 E0.21095
G1 X94.618 Y152.315 E0.22839
G1 X94.474 Y152.124 E0.24431
G1 X94.347 Y151.837 E0.26518
G1 X94.302 Y151.578 E0.28267
G1 X94.302 Y83.422 E4.81643
G1 X94.347 Y83.163 E4.83391
G1 X94.474 Y82.876 E4.85479
G1 X94.618 Y82.685 E4.8707
G1 X94.816 Y82.513 E4.88815
G1 X95.065 Y82.381 E4.9069
G1 X95.399 Y82.3 E4.92976
G1 X97.601 Y82.3 E5.07623
G1 X97.935 Y82.381 E5.0991
G1 X98.184 Y82.513 E5.11784
G1 X98.382 Y82.685 E5.13529
G1 X98.526 Y82.876 E5.1512
G1 X98.653 Y83.163 E5.17208
G1 X98.698 Y83.422 E5.18957
G1 X98.698 Y151.578 E9.72332
G1 X98.653 Y151.837 E9.74081
G1 X98.526 Y152.124 E9.76168
G1 X98.382 Y152.315 E9.7776
G1 X98.184 Y152.487 E9.79504
G1 X97.935 Y152.619 E9.81379
G1 F2700 E9.01379
G0 F6000 X98.528 Y152.528
G0 X99.078 Y151.725
G0 X135.982 Y151.944
G0 X136.472 Y152.528
G0 X137.065 Y152.619
G1 F2700 E9.81379
G1 F1200 X136.816 Y152.487 E9.83254
G1 X136.618 Y152.315 E9.84998
G1 X136.474 Y152.124 E9.8659
G1 X136.347 Y151.837 E9.88677
G1 X136.302 Y151.578 E9.90426
G1 X136.302 Y83.422 E14.43801
G1 X136.347 Y83.163 E14.4555
G1 X136.474 Y82.876 E14.47638
G1 X136.618 Y82.685 E14.49229
G1 X136.816 Y82.513 E14.50974
G1 X137.065 Y82.381 E14.52848
G1 X137.399 Y82.3 E14.55135
G1 X139.601 Y82.3 E14.69782
G1 X139.935 Y82.381 E14.72069
G1 X140.184 Y82.513 E14.73943
G1 X140.382 Y82.685 E14.75688
G1 X140.526 Y82.876 E14.77279
G1 X140.653 Y83.163 E14.79367
G1 X140.698 Y83.422 E14.81115
G1 X140.698 Y151.578 E19.34491
G1 X140.653 Y151.837 E19.3624
G1 X140.526 Y152.124 E19.38327
G1 X140.382 Y152.315 E19.39919
G1 X140.184 Y152.487 E19.41663
G1 X139.935 Y152.619 E19.43538
G1 X139.601 Y152.7 E19.45824
G1 X137.399 Y152.7 E19.60472
G1 X137.065 Y152.619 E19.62758
G1 F2700 E18.82758
G0 F6000 X140.528 Y152.528
G0 X140.851 Y152.322
G0 X140.851 Y162.9
G0 X168.3 Y163.3
G1 F2700 E19.62758
G1 F1200 X168.3 Y71.7 E25.72084
G1 X66.7 Y71.7 E32.4793
G1 X66.7 Y163.3 E38.57255
G1 X168.3 Y163.3 E45.33101
G0 F6000 X169.1 Y164.1
;TYPE:WALL-OUTER
G1 F1200 X169.1 Y70.9 E51.5307
G1 X65.9 Y70.9 E58.39559
G1 X65.9 Y164.1 E64.59528
G1 X169.1 Y164.1 E71.46017
G1 F2700 E70.66017
G0 F6000 X168.43 Y163.43
G0 X137.272 Y162.9
G0 X137.364 Y153.081
G0 X137.272 Y152.6
G0 X137.272 Y151.829
G1 F2700 E71.46017
G1 F1200 X137.158 Y151.708 E71.47123
G1 X137.1 Y151.526 E71.48394
G1 X137.1 Y83.416 E76.01464
G1 X137.18 Y83.26 E76.0263
G1 X137.311 Y83.147 E76.03781
G1 X137.43 Y83.105 E76.0462
G1 X139.57 Y83.105 E76.18855
G1 X139.728 Y83.171 E76.19994
G1 X139.842 Y83.292 E76.211
G1 X139.9 Y83.474 E76.22371
G1 X139.9 Y151.584 E80.7544
G1 X139.82 Y151.74 E80.76607
G1 X139.689 Y151.853 E80.77758
G1 X139.57 Y151.895 E80.78597
G1 X137.43 Y151.895 E80.92832
G1 X137.272 Y151.829 E80.93971
G1 F2700 E80.13971
G0 F6000 X137.272 Y152.6
G0 X136.472 Y152.528
G0 X135.982 Y151.944
G0 X99.078 Y151.725
G0 X98.528 Y152.528
G0 X97.689 Y152.6
G0 X97.689 Y151.853
G1 F2700 E80.93971
G1 F1200 X97.57 Y151.895 E80.94811
G1 X95.43 Y151.895 E81.09046
G1 X95.272 Y151.829 E81.10185
G1 X95.158 Y151.708 E81.11291
G1 X95.1 Y151.526 E81.12562
G1 X95.1 Y83.416 E85.65631
G1 X95.18 Y83.26 E85.66797
G1 X95.311 Y83.147 E85.67948
G1 X95.43 Y83.105 E85.68788
G1 X97.57 Y83.105 E85.83023
G1 X97.728 Y83.171 E85.84162
G1 X97.842 Y83.292 E85.85268
G1 X97.9 Y83.474 E85.86539
G1 X97.9 Y151.584 E90.39608
G1 X97.82 Y151.74 E90.40774
G1 X97.689 Y151.853 E90.41925
G1 F2700 E89.61925
G0 F6000 X97.689 Y152.6
G0 X98.528 Y152.528
G0 X99.078 Y151.725
G0 X99.078 Y162.9
G0 X167.928 Y162.928
G0 X168 Y162.58
G0 X167.58 Y162.58
;TYPE:SKIN
G1 F2700 E90.41925
G1 F1200 X67.42 Y162.58 E97.08192
G1 X67.42 Y72.42 E103.07939
G1 X167.58 Y72.42 E109.74206
G1 X167.58 Y162.58 E115.73953
G1 F2700 E114.93953
G0 F6000 X168 Y162.58
G0 X137.022 Y162.9
G0 X137.364 Y153.081
G0 X137.022 Y152.934
G0 X136.884 Y153.33
G1 F2700 E115.73953
G1 F1200 X137.331 Y153.42 E115.76986
G1 X139.698 Y153.415 E115.92731
G1 X140.117 Y153.33 E115.95575
G1 X140.597 Y153.077 E115.99185
G1 X140.91 Y152.805 E116.01943
G1 X141.141 Y152.499 E116.04493
G1 X141.278 Y152.223 E116.06543
G1 X141.417 Y151.773 E116.09676
G1 X141.416 Y83.37 E120.64695
G1 X141.345 Y82.968 E120.6741
G1 X141.183 Y82.556 E120.70355
G1 X140.912 Y82.198 E120.73342
G1 X140.595 Y81.921 E120.76142
G1 X140.116 Y81.67 E120.79739
G1 X139.669 Y81.58 E120.82773
G1 X137.302 Y81.585 E120.98518
G1 X136.884 Y81.671 E121.01357
G1 X136.404 Y81.923 E121.04963
G1 X136.09 Y82.195 E121.07726
G1 X135.859 Y82.501 E121.10277
G1 X135.722 Y82.777 E121.12327
G1 X135.583 Y83.227 E121.15459
G1 X135.584 Y151.63 E125.70478
G1 X135.655 Y152.032 E125.73194
G1 X135.817 Y152.444 E125.76138
G1 X136.088 Y152.802 E125.79125
G1 X136.405 Y153.079 E125.81926
G1 X136.884 Y153.33 E125.85523
G1 F2700 E125.05523
G0 F6000 X137.022 Y152.934
G0 X136.576 Y152.606
G0 X135.982 Y151.944
G0 X99.078 Y151.725
G0 X98.583 Y152.448
G0 X97.979 Y152.933
G0 X98.117 Y153.33
G1 F2700 E125.85523
G1 F1200 X98.597 Y153.077 E125.89132
G1 X98.91 Y152.805 E125.91891
G1 X99.141 Y152.499 E125.94441
G1 X99.278 Y152.223 E125.96491
G1 X99.417 Y151.773 E125.99624
G1 X99.416 Y83.37 E130.54642
G1 X99.345 Y82.968 E130.57358
G1 X99.183 Y82.556 E130.60303
G1 X98.912 Y82.198 E130.63289
G1 X98.595 Y81.921 E130.6609
G1 X98.116 Y81.67 E130.69687
G1 X97.669 Y81.58 E130.7272
G1 X95.302 Y81.585 E130.88466
G1 X94.884 Y81.671 E130.91304
G1 X94.404 Y81.923 E130.94911
G1 X94.09 Y82.195 E130.97674
G1 X93.859 Y82.501 E131.00224
G1 X93.722 Y82.777 E131.02274
G1 X93.583 Y83.227 E131.05407
G1 X93.584 Y151.63 E135.60426
G1 X93.655 Y152.032 E135.63141
G1 X93.817 Y152.444 E135.66086
G1 X94.088 Y152.802 E135.69073
G1 X94.405 Y153.079 E135.71873
G1 X94.884 Y153.33 E135.75471
G1 X95.331 Y153.42 E135.78504
G1 X97.698 Y153.415 E135.94249
G1 X98.117 Y153.33 E135.97093
G1 F2700 E135.17093
G0 F6000 X97.979 Y152.933
G0 X94.9 Y152.1
G0 X94.9 Y162.9
G0 X68.275 Y163
G0 X68.275 Y162.179
G1 F2700 E135.97093
G1 F1200 X67.82 Y161.723 E136.01378
G0 F6000 X67 Y161.723
G0 X67 Y160.592
G0 X67.82 Y160.592
G1 F1200 X69.406 Y162.179 E136.16303
G0 F6000 X69.406 Y163
G0 X70.538 Y163
G0 X70.538 Y162.179
G1 F1200 X67.82 Y159.461 E136.41872
G0 F6000 X67 Y159.461
G0 X67 Y158.329
G0 X67.82 Y158.329
G1 F1200 X71.669 Y162.179 E136.78086
G0 F6000 X71.669 Y163
G0 X72.8 Y163
G0 X72.8 Y162.179
G1 F1200 X67.82 Y157.198 E137.24939
G0 F6000 X67 Y157.198
G0 X67 Y156.066
G0 X67.82 Y156.066
G1 F1200 X73.932 Y162.179 E137.82442
G0 F6000 X73.932 Y163
G0 X75.063 Y163
G0 X75.063 Y162.179
G1 F1200 X67.82 Y154.935 E138.50584
G0 F6000 X67 Y154.935
G0 X67 Y153.804
G0 X67.82 Y153.804
G1 F1200 X76.194 Y162.179 E139.29367
G0 F6000 X76.194 Y163
G0 X77.326 Y163
G0 X77.326 Y162.179
G1 F1200 X67.82 Y152.672 E140.18798
G0 F6000 X67 Y152.672
G0 X67 Y151.541
G0 X67.82 Y151.541
G1 F1200 X78.457 Y162.179 E141.18869
G0 F6000 X78.457 Y163
G0 X79.589 Y163
G0 X79.589 Y162.179
G1 F1200 X67.82 Y150.41 E142.29585
G0 F6000 X67 Y150.41
G0 X67 Y149.278
G0 X67.82 Y149.278
G1 F1200 X80.72 Y162.179 E143.50945
G0 F6000 X80.72 Y163
G0 X81.851 Y163
G0 X81.851 Y162.179
G1 F1200 X67.82 Y148.147 E144.82944
G0 F6000 X67 Y148.147
G0 X67 Y147.015
G0 X67.82 Y147.015
G1 F1200 X82.983 Y162.179 E146.25593
G0 F6000 X82.983 Y163
G0 X84.114 Y163
G0 X84.114 Y162.179
G1 F1200 X67.82 Y145.884 E147.78882
G0 F6000 X67 Y145.884
G0 X67 Y144.753
G0 X67.82 Y144.753
G1 F1200 X85.245 Y162.179 E149.4281
G0 F6000 X85.245 Y163
G0 X86.377 Y163
G0 X86.377 Y162.179
G1 F1200 X67.82 Y143.621 E151.17388
G0 F6000 X67 Y143.621
G0 X67 Y142.49
G0 X67.82 Y142.49
G1 F1200 X87.508 Y162.179 E153.02605
G0 F6000 X87.508 Y163
G0 X88.64 Y163
G0 X88.64 Y162.179
G1 F1200 X67.82 Y141.359 E154.98467
G0 F6000 X67 Y141.359
G0 X67 Y140.227
G0 X67.82 Y140.227
G1 F1200 X89.771 Y162.179 E157.04973
G0 F6000 X89.771 Y163
G0 X90.902 Y163
G0 X90.902 Y162.179
G1 F1200 X67.82 Y139.096 E159.22119
G0 F6000 X67 Y139.096
G0 X67 Y137.965
G0 X67.82 Y137.965
G1 F1200 X92.034 Y162.179 E161.4991
G0 F6000 X92.034 Y163
G0 X93.165 Y163
G0 X93.165 Y162.179
G1 F1200 X67.82 Y136.833 E163.88345
G0 F6000 X67 Y136.833
G0 X67 Y135.702
G0 X67.82 Y135.702
G1 F1200 X94.296 Y162.179 E166.37419
G0 F6000 X94.296 Y163
G0 X95.428 Y163
G0 X95.428 Y162.179
G1 F1200 X67.82 Y134.57 E168.97143
G0 F6000 X67 Y134.57
G0 X67 Y133.439
G0 X67.82 Y133.439
G1 F1200 X96.559 Y162.179 E171.67507
G0 F6000 X96.559 Y163
G0 X97.691 Y163
G0 X97.691 Y162.179
G1 F1200 X67.82 Y132.308 E174.48515
G0 F6000 X67 Y132.308
G0 X67 Y131.176
G0 X67.82 Y131.176
G1 F1200 X98.822 Y162.179 E177.40167
G0 F6000 X98.822 Y163
G0 X99.953 Y163
G0 X99.953 Y162.179
G1 F1200 X67.82 Y130.045 E180.4246
G0 F6000 X67 Y130.045
G0 X67 Y128.914
G0 X67.82 Y128.914
G1 F1200 X101.085 Y162.179 E183.55396
G0 F6000 X101.085 Y163
G0 X102.216 Y163
G0 X102.216 Y162.179
G1 F1200 X67.82 Y127.782 E186.78977
G0 F6000 X67 Y127.782
G0 X67 Y126.651
G0 X67.82 Y126.651
G1 F1200 X93.262 Y152.093 E189.1832
G0 F6000 X94.059 Y151.923
G0 X94.003 Y150.884
G0 X93.184 Y150.884
G1 F1200 X67.82 Y125.519 E191.56934
G0 F6000 X67 Y125.519
G0 X67 Y124.388
G0 X67.82 Y124.388
G1 F1200 X93.184 Y149.753 E193.95548
G0 F6000 X94.003 Y149.753
G0 X94.003 Y148.621
G0 X93.184 Y148.621
G1 F1200 X67.82 Y123.257 E196.34156
G0 F6000 X67 Y123.257
G0 X67 Y122.125
G0 X67.82 Y122.125
G1 F1200 X93.184 Y147.49 E198.7277
G0 F6000 X94.003 Y147.49
G0 X94.003 Y146.359
G0 X93.184 Y146.359
G1 F1200 X67.82 Y120.994 E201.11384
G0 F6000 X67 Y120.994
G0 X67 Y119.863
G0 X67.82 Y119.863
G1 F1200 X93.184 Y145.227 E203.49993
G0 F6000 X94.003 Y145.227
G0 X94.003 Y144.096
G0 X93.184 Y144.096
G1 F1200 X67.82 Y118.731 E205.88606
G0 F6000 X67 Y118.731
G0 X67 Y117.6
G0 X67.82 Y117.6
G1 F1200 X93.184 Y142.964 E208.27215
G0 F6000 X94.003 Y142.964
G0 X94.003 Y141.833
G0 X93.184 Y141.833
G1 F1200 X67.82 Y116.468 E210.65829
G0 F6000 X67 Y116.468
G0 X67 Y115.337
G0 X67.82 Y115.337
G1 F1200 X93.184 Y140.702 E213.04443
G0 F6000 X94.003 Y140.702
G0 X94.003 Y139.57
G0 X93.184 Y139.57
G1 F1200 X67.82 Y114.206 E215.43052
G0 F6000 X67 Y114.206
G0 X67 Y113.074
G0 X67.82 Y113.074
G1 F1200 X93.184 Y138.439 E217.81665
G0 F6000 X94.003 Y138.439
G0 X94.003 Y137.308
G0 X93.184 Y137.308
G1 F1200 X67.82 Y111.943 E220.20279
G0 F6000 X67 Y111.943
G0 X67 Y110.812
G0 X67.82 Y110.812
G1 F1200 X93.184 Y136.176 E222.58888
G0 F6000 X94.003 Y136.176
G0 X94.003 Y135.045
G0 X93.184 Y135.045
G1 F1200 X67.82 Y109.68 E224.97502
G0 F6000 X67 Y109.68
G0 X67 Y108.549
G0 X67.82 Y108.549
G1 F1200 X93.184 Y133.914 E227.36115
G0 F6000 X94.003 Y133.914
G0 X94.003 Y132.782
G0 X93.184 Y132.782
G1 F1200 X67.82 Y107.418 E229.74724
G0 F6000 X67 Y107.418
G0 X67 Y106.286
G0 X67.82 Y106.286
G1 F1200 X93.184 Y131.651 E232.13338
G0 F6000 X94.003 Y131.651
G0 X94.003 Y130.519
G0 X93.184 Y130.519
G1 F1200 X67.82 Y105.155 E234.51947
G0 F6000 X67 Y105.155
G0 X67 Y104.023
G0 X67.82 Y104.023
G1 F1200 X93.184 Y129.388 E236.90561
G0 F6000 X94.003 Y129.388
G0 X94.003 Y128.257
G0 X93.184 Y128.257
G1 F1200 X67.82 Y102.892 E239.29174
G0 F6000 X67 Y102.892
G0 X67 Y101.761
G0 X67.82 Y101.761
G1 F1200 X93.184 Y127.125 E241.67783
G0 F6000 X94.003 Y127.125
G0 X94.003 Y125.994
G0 X93.184 Y125.994
G1 F1200 X67.82 Y100.629 E244.06397
G0 F6000 X67 Y100.629
G0 X67 Y99.498
G0 X67.82 Y99.498
G1 F1200 X93.184 Y124.863 E246.4501
G0 F6000 X94.003 Y124.863
G0 X94.003 Y123.731
G0 X93.184 Y123.731
G1 F1200 X67.82 Y98.367 E248.83619
G0 F6000 X67 Y98.367
G0 X67 Y97.235
G0 X67.82 Y97.235
G1 F1200 X93.184 Y122.6 E251.22233
G0 F6000 X94.003 Y122.6
G0 X94.003 Y121.468
G0 X93.184 Y121.468
G1 F1200 X67.82 Y96.104 E253.60842
G0 F6000 X67 Y96.104
G0 X67 Y94.972
G0 X67.82 Y94.972
G1 F1200 X93.184 Y120.337 E255.99456
G0 F6000 X94.003 Y120.337
G0 X94.003 Y119.206
G0 X93.184 Y119.206
G1 F1200 X67.82 Y93.841 E258.38069
G0 F6000 X67 Y93.841
G0 X67 Y92.71
G0 X67.82 Y92.71
G1 F1200 X93.184 Y118.074 E260.76678
G0 F6000 X94.003 Y118.074
G0 X94.003 Y116.942
G0 X93.183 Y116.942
G1 F1200 X67.82 Y91.578 E263.15283
G0 F6000 X67 Y91.578
G0 X67 Y90.447
G0 X67.82 Y90.447
G1 F1200 X93.183 Y115.811 E265.53887
G0 F6000 X94.003 Y115.811
G0 X94.003 Y114.679
G0 X93.183 Y114.679
G1 F1200 X67.82 Y89.316 E267.92486
G0 F6000 X67 Y89.316
G0 X67 Y88.184
G0 X67.82 Y88.184
G1 F1200 X93.183 Y113.548 E270.31091
G0 F6000 X94.003 Y113.548
G0 X94.003 Y112.417
G0 X93.183 Y112.417
G1 F1200 X67.82 Y87.053 E272.69695
G0 F6000 X67 Y87.053
G0 X67 Y85.921
G0 X67.82 Y85.921
G1 F1200 X93.183 Y111.285 E275.08299
G0 F6000 X94.003 Y111.285
G0 X94.003 Y110.154
G0 X93.183 Y110.154
G1 F1200 X67.82 Y84.79 E277.46903
G0 F6000 X67 Y84.79
G0 X67 Y83.659
G0 X67.82 Y83.659
G1 F1200 X93.183 Y109.023 E279.85508
G0 F6000 X94.003 Y109.023
G0 X94.003 Y107.891
G0 X93.183 Y107.891
G1 F1200 X67.82 Y82.527 E282.24112
G0 F6000 X67 Y82.527
G0 X67 Y81.396
G0 X67.82 Y81.396
G1 F1200 X93.183 Y106.76 E284.62716
G0 F6000 X94.003 Y106.76
G0 X94.003 Y105.629
G0 X93.183 Y105.629
G1 F1200 X67.82 Y80.265 E287.0132
G0 F6000 X67 Y80.265
G0 X67 Y79.133
G0 X67.82 Y79.133
G1 F1200 X93.183 Y104.497 E289.39925
G0 F6000 X94.003 Y104.497
G0 X94.003 Y103.366
G0 X93.183 Y103.366
G1 F1200 X67.82 Y78.002 E291.78529
G0 F6000 X67 Y78.002
G0 X67 Y76.87
G0 X67.82 Y76.87
G1 F1200 X93.183 Y102.234 E294.17133
G0 F6000 X94.003 Y102.234
G0 X94.003 Y101.103
G0 X93.183 Y101.103
G1 F1200 X67.82 Y75.739 E296.55737
G0 F6000 X67 Y75.739
G0 X67 Y74.608
G0 X67.82 Y74.608
G1 F1200 X93.183 Y99.972 E298.94342
G0 F6000 X94.003 Y99.972
G0 X94.003 Y98.84
G0 X93.183 Y98.84
G1 F1200 X67.82 Y73.476 E301.32946
G0 F6000 X68.294 Y72.819
G1 F1200 X93.183 Y97.709 E303.67091
G0 F6000 X94.003 Y97.709
G0 X94.003 Y96.578
G0 X93.183 Y96.578
G1 F1200 X69.425 Y72.819 E305.90597
G0 F6000 X69.425 Y72
G0 X70.557 Y72
G0 X70.557 Y72.819
G1 F1200 X93.183 Y95.446 E308.03453
G0 F6000 X94.003 Y95.446
G0 X94.003 Y94.315
G0 X93.183 Y94.315
G1 F1200 X71.688 Y72.819 E310.05669
G0 F6000 X71.688 Y72
G0 X72.819 Y72
G0 X72.819 Y72.819
G1 F1200 X93.183 Y93.183 E311.97241
G0 F6000 X94.003 Y93.183
G0 X94.003 Y92.052
G0 X93.183 Y92.052
G1 F1200 X73.951 Y72.819 E313.78169
G0 F6000 X73.951 Y72
G0 X75.082 Y72
G0 X75.082 Y72.819
G1 F1200 X93.183 Y90.921 E315.48457
G0 F6000 X94.003 Y90.921
G0 X94.003 Y89.789
G0 X93.183 Y89.789
G1 F1200 X76.214 Y72.819 E317.08095
G0 F6000 X76.214 Y72
G0 X77.345 Y72
G0 X77.345 Y72.819
G1 F1200 X93.183 Y88.658 E318.57094
G0 F6000 X94.003 Y88.658
G0 X94.003 Y87.527
G0 X93.183 Y87.527
G1 F1200 X78.476 Y72.819 E319.95453
G0 F6000 X78.476 Y72
G0 X79.608 Y72
G0 X79.608 Y72.819
G1 F1200 X93.183 Y86.395 E321.23163
G0 F6000 X94.003 Y86.395
