;FLAVOR:Marlin
;TIME:1245
;Filament used: 1.52524m
;Layer height: 0.2
;MINX:105.401
;MINY:70.9
;MINZ:0.2
;MAXX:129.6
;MAXY:164.1
;MAXZ:11
;TARGET_MACHINE.NAME:Creality Ender-3
;Generated with Cura_SteamEngine 5.6.0
M140 S60
M105
M190 S60
M104 S205
M105
M109 S205
M82 ;absolute extrusion mode
; Ender 3 Custom Start G-code
G92 E0 ; Reset Extruder
G28 ; Home all axes
G1 Z2.0 F3000 ; Move Z Axis up little to prevent scratching of Heat Bed
G1 X0.1 Y20 Z0.3 F5000.0 ; Move to start position
G1 X0.1 Y200.0 Z0.3 F1500.0 E15 ; Draw the first line
G1 X0.4 Y200.0 Z0.3 F5000.0 ; Move to side a little
G1 X0.4 Y20 Z0.3 F1500.0 E30 ; Draw the second line
G92 E0 ; Reset Extruder
G1 Z2.0 F3000 ; Move Z Axis up little to prevent scratching of Heat Bed
G1 X5 Y20 Z0.3 F5000.0 ; Move over to prevent blob squish
G92 E0
G92 E0
G1 F2700 E-0.8
;LAYER_COUNT:55
;LAYER:0
M107
;MESH:closed_plate_1.stl
G0 F6000 X119.549 Y152.613 Z0.2
;TYPE:WALL-INNER
G1 F2700 E0
G1 F1200 X119.235 Y152.439 E0.02388
G1 X119.018 Y152.191 E0.0458
G1 X118.902 Y151.985 E0.06153
G1 X118.8 Y151.653 E0.08463
G1 X118.8 Y83.347 E4.62836
G1 X118.937 Y82.902 E4.65934
G1 X119.188 Y82.615 E4.6847
G1 X119.416 Y82.451 E4.70338
G1 X119.79 Y82.3 E4.73021
G1 X122.131 Y82.306 E4.88594
G1 X122.407 Y82.371 E4.9048
G1 X122.718 Y82.537 E4.92825
G1 X123.001 Y82.837 E4.95568
G1 X123.2 Y83.316 E4.99019
G1 X123.2 Y151.664 E9.53671
G1 X123.108 Y151.963 E9.55752
G1 X123.001 Y152.163 E9.57261
G1 X122.718 Y152.462 E9.6
G1 X122.408 Y152.629 E9.62342
G1 X122.145 Y152.7 E9.64154
G1 X119.889 Y152.7 E9.79161
G1 X119.549 Y152.613 E9.81496
G1 F2700 E9.01496
G0 F6000 X122.118 Y153.081
G0 X128.4 Y153.081
G0 X128.8 Y163.3
G1 F2700 E9.81496
G1 F1200 X128.8 Y71.7 E15.90821
G1 X106.201 Y71.701 E17.41151
G1 X106.201 Y163.299 E23.50463
G1 X128.8 Y163.3 E25.00792
G0 F6000 X129.6 Y164.1
;TYPE:WALL-OUTER
G1 F1200 X129.6 Y70.9 E31.20761
G1 X105.401 Y70.901 E32.81733
G1 X105.401 Y164.099 E39.01689
G1 X129.6 Y164.1 E40.62661
G1 F2700 E39.82661
G0 F6000 X128.93 Y163.43
G0 X128.4 Y152.6
G0 X123.55 Y151.815
G0 X123.028 Y152.528
G0 X119.805 Y152.6
G0 X119.805 Y151.85
G1 F2700 E40.62661
G1 F1200 X119.672 Y151.731 E40.63849
G1 X119.605 Y151.57 E40.65009
G1 X119.602 Y83.406 E45.18437
G1 X119.698 Y83.236 E45.19736
G1 X119.93 Y83.105 E45.21508
G1 X122.07 Y83.105 E45.35744
G1 X122.29 Y83.223 E45.37404
G1 X122.4 Y83.443 E45.39041
G1 X122.395 Y151.57 E49.92223
G1 X122.29 Y151.777 E49.93767
G1 X122.104 Y151.898 E49.95243
G1 X119.93 Y151.895 E50.09705
G1 X119.805 Y151.85 E50.10588
G1 F2700 E49.30588
G0 F6000 X119.805 Y152.6
G0 X122.118 Y153.081
G0 X128.4 Y153.081
G0 X128.079 Y162.999
G0 X128.08 Y162.58
;TYPE:SKIN
G1 F2700 E50.10588
G1 F1200 X106.922 Y162.579 E51.51332
G1 X106.921 Y72.421 E57.51066
G1 X128.08 Y72.42 E58.91816
G1 X128.08 Y162.58 E64.91562
G1 F2700 E64.11562
G0 F6000 X128.079 Y162.999
G0 X128.428 Y162.928
G0 X128.4 Y152.978
G0 X123.55 Y151.815
G0 X123.028 Y152.528
G0 X119.869 Y153
G0 X119.826 Y153.42
G1 F2700 E64.91562
G1 F1200 X122.182 Y153.415 E65.07235
G1 X122.653 Y153.306 E65.10451
G1 X123.268 Y152.981 E65.15078
G1 X123.58 Y152.589 E65.1841
G1 X123.758 Y152.271 E65.20835
G1 X123.886 Y151.874 E65.23609
G1 X123.919 Y151.535 E65.25875
G1 X123.919 Y83.464 E69.78685
G1 X123.885 Y83.112 E69.81038
G1 X123.758 Y82.728 E69.83728
G1 X123.619 Y82.47 E69.85677
G1 X123.271 Y82.02 E69.89462
G1 X122.653 Y81.694 E69.94109
G1 X122.161 Y81.58 E69.97469
G1 X119.8 Y81.585 E70.13174
G1 X119.46 Y81.659 E70.15489
G1 X119.066 Y81.822 E70.18325
G1 X118.702 Y82.084 E70.21309
G1 X118.429 Y82.395 E70.24061
G1 X118.238 Y82.724 E70.26592
G1 X118.085 Y83.216 E70.30019
G1 X118.081 Y151.525 E74.84413
G1 X118.107 Y151.833 E74.86469
G1 X118.244 Y152.276 E74.89553
G1 X118.493 Y152.707 E74.92865
G1 X118.981 Y153.148 E74.9724
G1 X119.462 Y153.342 E75.0069
G1 X119.826 Y153.42 E75.03166
G1 F2700 E74.23166
G0 F6000 X119.869 Y153
G0 X118.749 Y152.485
G0 X118.747 Y162.919
G0 X107.87 Y162.999
G0 X107.871 Y162.177
G1 F2700 E75.03166
G1 F1200 X107.321 Y161.626 E75.08345
G0 F6000 X106.501 Y161.626
G0 X106.501 Y160.495
G0 X107.321 Y160.495
G1 F1200 X109.003 Y162.177 E75.24168
G0 F6000 X109.002 Y162.999
G0 X110.133 Y162.999
G0 X110.134 Y162.177
G1 F1200 X107.321 Y159.364 E75.50631
G0 F6000 X106.501 Y159.364
G0 X106.501 Y158.232
G0 X107.321 Y158.232
G1 F1200 X111.266 Y162.177 E75.87743
G0 F6000 X111.265 Y162.999
G0 X112.396 Y162.999
G0 X112.397 Y162.177
G1 F1200 X107.321 Y157.101 E76.35495
G0 F6000 X106.501 Y157.101
G0 X106.501 Y155.97
G0 X107.321 Y155.97
G1 F1200 X113.528 Y162.177 E76.93887
G0 F6000 X113.527 Y162.999
G0 X114.659 Y162.999
G0 X114.66 Y162.177
G1 F1200 X107.321 Y154.838 E77.62928
G0 F6000 X106.501 Y154.838
G0 X106.501 Y153.707
G0 X107.321 Y153.707
G1 F1200 X115.791 Y162.177 E78.42608
G0 F6000 X115.79 Y162.999
G0 X116.921 Y162.999
G0 X116.922 Y162.177
G1 F1200 X107.321 Y152.575 E79.32933
G0 F6000 X106.501 Y152.575
G0 X106.501 Y151.444
G0 X107.321 Y151.444
G1 F1200 X118.055 Y162.178 E80.33912
G0 F6000 X118.054 Y162.999
G0 X119.185 Y162.999
G0 X119.186 Y162.178
G1 F1200 X107.321 Y150.313 E81.45531
G0 F6000 X106.501 Y150.313
G0 X106.501 Y149.181
G0 X107.321 Y149.181
G1 F1200 X120.317 Y162.178 E82.67794
G0 F6000 X120.316 Y162.999
G0 X121.448 Y162.999
G0 X121.449 Y162.178
G1 F1200 X107.321 Y148.05 E84.00701
G0 F6000 X106.501 Y148.05
G0 X106.501 Y146.919
G0 X107.321 Y146.919
G1 F1200 X122.58 Y162.178 E85.44249
G0 F6000 X122.579 Y162.999
G0 X123.71 Y162.999
G0 X123.711 Y162.178
G1 F1200 X107.321 Y145.787 E86.98441
G0 F6000 X106.501 Y145.787
G0 X106.501 Y144.656
G0 X107.321 Y144.656
G1 F1200 X124.843 Y162.178 E88.63277
G0 F6000 X124.842 Y162.999
G0 X125.973 Y162.999
G0 X125.974 Y162.178
G1 F1200 X107.321 Y143.524 E90.38757
G0 F6000 X106.501 Y143.524
G0 X106.501 Y142.393
G0 X107.321 Y142.393
G1 F1200 X127.105 Y162.178 E92.24878
G0 F6000 X127.679 Y161.62
G1 F1200 X119.877 Y153.819 E92.9827
G0 F6000 X119.877 Y153
G0 X121.009 Y153
G0 X121.009 Y153.819
G1 F1200 X127.679 Y160.489 E93.61017
G0 F6000 X128.5 Y160.489
G0 X128.5 Y159.357
G0 X127.679 Y159.357
G1 F1200 X122.14 Y153.819 E94.1312
G0 F6000 X123.019 Y153.566
G1 F1200 X127.679 Y158.226 E94.56958
G0 F6000 X128.5 Y158.226
G0 X128.5 Y157.095
G0 X127.679 Y157.095
G1 F1200 X123.684 Y153.099 E94.94545
G0 F6000 X124.132 Y152.416
G1 F1200 X127.679 Y155.963 E95.27913
G0 F6000 X128.5 Y155.963
G0 X128.5 Y154.832
G0 X127.679 Y154.832
G1 F1200 X124.319 Y151.472 E95.59522
G0 F6000 X123.5 Y151.472
G0 X123.5 Y150.34
G0 X124.319 Y150.34
G1 F1200 X127.679 Y153.7 E95.91131
G0 F6000 X128.5 Y153.7
G0 X128.5 Y152.569
G0 X127.679 Y152.569
G1 F1200 X124.319 Y149.209 E96.2274
G0 F6000 X123.5 Y149.209
G0 X123.5 Y148.078
G0 X124.319 Y148.078
G1 F1200 X127.679 Y151.438 E96.54349
G0 F6000 X128.5 Y151.438
G0 X128.5 Y150.306
G0 X127.679 Y150.306
G1 F1200 X124.319 Y146.946 E96.85957
G0 F6000 X123.5 Y146.946
G0 X123.5 Y145.815
G0 X124.319 Y145.815
G1 F1200 X127.679 Y149.175 E97.17566
G0 F6000 X128.5 Y149.175
G0 X128.5 Y148.044
G0 X127.679 Y148.044
G1 F1200 X124.319 Y144.683 E97.4918
G0 F6000 X123.5 Y144.683
G0 X123.5 Y143.552
G0 X124.319 Y143.552
G1 F1200 X127.679 Y146.912 E97.80789
G0 F6000 X128.5 Y146.912
G0 X128.5 Y145.781
G0 X127.679 Y145.781
G1 F1200 X124.319 Y142.421 E98.12397
G0 F6000 X123.5 Y142.421
G0 X123.5 Y141.289
G0 X124.319 Y141.289
G1 F1200 X127.679 Y144.65 E98.44011
G0 F6000 X128.5 Y144.65
G0 X128.5 Y143.518
G0 X127.679 Y143.518
G1 F1200 X124.319 Y140.158 E98.7562
G0 F6000 X123.5 Y140.158
G0 X123.5 Y139.027
G0 X124.319 Y139.027
G1 F1200 X127.679 Y142.387 E99.07229
G0 F6000 X128.5 Y142.387
G0 X128.5 Y141.255
G0 X127.679 Y141.255
G1 F1200 X124.319 Y137.895 E99.38837
G0 F6000 X123.5 Y137.895
G0 X123.5 Y136.763
G0 X124.318 Y136.763
G1 F1200 X127.679 Y140.124 E99.70456
G0 F6000 X128.5 Y140.124
G0 X128.5 Y138.993
G0 X127.679 Y138.993
G1 F1200 X124.318 Y135.632 E100.02074
G0 F6000 X123.5 Y135.632
G0 X123.5 Y134.5
G0 X124.318 Y134.5
G1 F1200 X127.679 Y137.861 E100.33692
G0 F6000 X128.5 Y137.861
G0 X128.5 Y136.73
G0 X127.679 Y136.73
G1 F1200 X124.318 Y133.369 E100.6531
G0 F6000 X123.5 Y133.369
G0 X123.5 Y132.238
G0 X124.318 Y132.238
G1 F1200 X127.679 Y135.599 E100.96929
G0 F6000 X128.5 Y135.599
G0 X128.5 Y134.467
G0 X127.679 Y134.467
G1 F1200 X124.318 Y131.106 E101.28547
G0 F6000 X123.5 Y131.106
G0 X123.5 Y129.975
G0 X124.318 Y129.975
G1 F1200 X127.679 Y133.336 E101.60165
G0 F6000 X128.5 Y133.336
G0 X128.5 Y132.204
G0 X127.679 Y132.204
G1 F1200 X124.318 Y128.844 E101.91779
G0 F6000 X123.5 Y128.844
G0 X123.5 Y127.712
G0 X124.318 Y127.712
G1 F1200 X127.679 Y131.073 E102.23397
G0 F6000 X128.5 Y131.073
G0 X128.5 Y129.942
G0 X127.679 Y129.942
G1 F1200 X124.318 Y126.581 E102.55015
G0 F6000 X123.5 Y126.581
G0 X123.5 Y125.449
G0 X124.318 Y125.449
G1 F1200 X127.679 Y128.81 E102.86633
G0 F6000 X128.5 Y128.81
G0 X128.5 Y127.679
G0 X127.679 Y127.679
G1 F1200 X124.318 Y124.318 E103.18251
G0 F6000 X123.5 Y124.318
G0 X123.5 Y123.186
G0 X124.317 Y123.186
G1 F1200 X127.679 Y126.548 E103.49879
G0 F6000 X128.5 Y126.548
G0 X128.5 Y125.416
G0 X127.679 Y125.416
G1 F1200 X124.317 Y122.055 E103.81502
G0 F6000 X123.5 Y122.055
G0 X123.5 Y120.923
G0 X124.317 Y120.923
G1 F1200 X127.679 Y124.285 E104.1313
G0 F6000 X128.5 Y124.285
G0 X128.5 Y123.153
G0 X127.679 Y123.153
G1 F1200 X124.317 Y119.792 E104.44753
G0 F6000 X123.5 Y119.792
G0 X123.5 Y118.661
G0 X124.317 Y118.661
G1 F1200 X127.679 Y122.022 E104.76376
G0 F6000 X128.5 Y122.022
G0 X128.5 Y120.891
G0 X127.679 Y120.891
G1 F1200 X124.317 Y117.529 E105.08003
G0 F6000 X123.5 Y117.529
G0 X123.5 Y116.398
G0 X124.317 Y116.398
G1 F1200 X127.679 Y119.759 E105.39626
G0 F6000 X128.5 Y119.759
G0 X128.5 Y118.628
G0 X127.679 Y118.628
G1 F1200 X124.317 Y115.266 E105.71254
G0 F6000 X123.5 Y115.266
G0 X123.5 Y114.135
G0 X124.317 Y114.135
G1 F1200 X127.679 Y117.497 E106.02881
G0 F6000 X128.5 Y117.497
G0 X128.5 Y116.365
G0 X127.679 Y116.365
G1 F1200 X124.317 Y113.004 E106.34504
G0 F6000 X123.5 Y113.004
G0 X123.5 Y111.872
G0 X124.317 Y111.872
G1 F1200 X127.679 Y115.234 E106.66132
G0 F6000 X128.5 Y115.234
G0 X128.5 Y114.102
G0 X127.679 Y114.102
G1 F1200 X124.317 Y110.741 E106.97755
G0 F6000 X123.5 Y110.741
G0 X123.5 Y109.609
G0 X124.317 Y109.609
G1 F1200 X127.679 Y112.971 E107.29383
G0 F6000 X128.5 Y112.971
G0 X128.5 Y111.84
G0 X127.679 Y111.84
G1 F1200 X124.317 Y108.477 E107.61015
G0 F6000 X123.5 Y108.477
G0 X123.5 Y107.346
G0 X124.317 Y107.346
G1 F1200 X127.679 Y110.708 E107.92642
G0 F6000 X128.5 Y110.708
G0 X128.5 Y109.577
G0 X127.679 Y109.577
G1 F1200 X124.317 Y106.215 E108.2427
G0 F6000 X123.5 Y106.215
G0 X123.5 Y105.083
G0 X124.317 Y105.083
G1 F1200 X127.679 Y108.446 E108.55902
G0 F6000 X128.5 Y108.446
G0 X128.5 Y107.314
G0 X127.679 Y107.314
G1 F1200 X124.317 Y103.952 E108.8753
G0 F6000 X123.5 Y103.952
G0 X123.5 Y102.821
G0 X124.317 Y102.821
G1 F1200 X127.679 Y106.183 E109.19158
G0 F6000 X128.5 Y106.183
G0 X128.5 Y105.052
G0 X127.679 Y105.052
G1 F1200 X124.317 Y101.689 E109.5079
G0 F6000 X123.5 Y101.689
G0 X123.5 Y100.558
G0 X124.317 Y100.558
G1 F1200 X127.679 Y103.92 E109.82418
G0 F6000 X128.5 Y103.92
G0 X128.5 Y102.789
G0 X127.679 Y102.789
G1 F1200 X124.317 Y99.426 E110.1405
G0 F6000 X123.5 Y99.426
G0 X123.5 Y98.295
G0 X124.317 Y98.295
G1 F1200 X127.679 Y101.657 E110.45678
G0 F6000 X128.5 Y101.657
G0 X128.5 Y100.526
G0 X127.679 Y100.526
G1 F1200 X124.317 Y97.164 E110.77305
G0 F6000 X123.5 Y97.164
G0 X123.5 Y96.032
G0 X124.316 Y96.032
G1 F1200 X127.679 Y99.395 E111.08942
G0 F6000 X128.5 Y99.395
G0 X128.5 Y98.263
G0 X127.679 Y98.263
G1 F1200 X124.316 Y94.9 E111.40579
G0 F6000 X123.5 Y94.9
G0 X123.5 Y93.769
G0 X124.316 Y93.769
G1 F1200 X127.679 Y97.132 E111.72216
G0 F6000 X128.5 Y97.132
G0 X128.5 Y96.001
G0 X127.679 Y96.001
G1 F1200 X124.316 Y92.638 E112.03853
G0 F6000 X123.5 Y92.638
G0 X123.5 Y91.506
G0 X124.316 Y91.506
G1 F1200 X127.679 Y94.869 E112.35491
G0 F6000 X128.5 Y94.869
G0 X128.5 Y93.738
G0 X127.679 Y93.738
G1 F1200 X124.316 Y90.375 E112.67128
G0 F6000 X123.5 Y90.375
G0 X123.5 Y89.243
G0 X124.316 Y89.243
G1 F1200 X127.679 Y92.606 E112.98765
G0 F6000 X128.5 Y92.606
G0 X128.5 Y91.475
G0 X127.679 Y91.475
G1 F1200 X124.316 Y88.112 E113.30402
G0 F6000 X123.5 Y88.112
G0 X123.5 Y86.981
G0 X124.316 Y86.981
G1 F1200 X127.679 Y90.344 E113.62039
G0 F6000 X128.5 Y90.344
G0 X128.5 Y89.212
G0 X127.679 Y89.212
G1 F1200 X124.316 Y85.849 E113.93676
G0 F6000 X123.5 Y85.849
G0 X123.5 Y84.718
G0 X124.316 Y84.718
G1 F1200 X127.679 Y88.081 E114.25313
G0 F6000 X128.5 Y88.081
G0 X128.5 Y86.95
G0 X127.679 Y86.95
G1 F1200 X124.316 Y83.587 E114.5695
G1 F2700 E113.7695
G0 F6000 X123.5 Y83.587
G0 X128.4 Y83.555
G0 X127.679 Y83.555
G1 F2700 E114.5695
G1 F1200 X116.944 Y72.82 E115.57938
G0 F6000 X116.944 Y72
G0 X118.075 Y72
G0 X118.075 Y72.82
G1 F1200 X127.679 Y82.424 E116.48287
G0 F6000 X128.5 Y82.424
G0 X128.5 Y81.293
G0 X127.679 Y81.293
G1 F1200 X119.206 Y72.82 E117.27995
G0 F6000 X119.206 Y72
G0 X120.338 Y72
G0 X120.338 Y72.82
G1 F1200 X127.679 Y80.161 E117.97055
G0 F6000 X128.5 Y80.161
G0 X128.5 Y79.03
G0 X127.679 Y79.03
G1 F1200 X121.469 Y72.82 E118.55475
G0 F6000 X121.469 Y72
G0 X122.601 Y72
G0 X122.601 Y72.82
G1 F1200 X127.679 Y77.899 E119.0325
G0 F6000 X128.5 Y77.899
G0 X128.5 Y76.767
G0 X127.679 Y76.767
G1 F1200 X123.732 Y72.82 E119.40381
G0 F6000 X123.732 Y72
G0 X124.863 Y72
G0 X124.863 Y72.82
G1 F1200 X127.679 Y75.636 E119.66873
G0 F6000 X128.5 Y75.636
G0 X128.5 Y74.505
G0 X127.679 Y74.505
G1 F1200 X125.995 Y72.82 E119.82719
G0 F6000 X125.995 Y72
G0 X127.126 Y72
G0 X127.126 Y72.82
G1 F1200 X127.679 Y73.373 E119.87922
G1 F2700 E119.07922
G0 F6000 X128.5 Y73.373
G0 X128.4 Y82
G0 X123.55 Y83.184
G0 X123.028 Y82.472
G0 X121.909 Y82
G0 X121.909 Y81.18
G1 F2700 E119.87922
G1 F1200 X113.55 Y72.82 E120.66563
G0 F6000 X113.55 Y72
G0 X114.681 Y72
G0 X114.681 Y72.82
G1 F1200 X127.679 Y85.818 E121.8884
G0 F6000 X128.5 Y85.818
G0 X128.5 Y84.687
G0 X127.679 Y84.687
G1 F1200 X115.812 Y72.82 E123.00477
G0 F6000 X115.812 Y72
G0 X112.418 Y72
G0 X112.418 Y72.82
G1 F1200 X120.778 Y81.18 E123.79123
G0 F6000 X120.778 Y82
G0 X119.824 Y82.009
G0 X119.669 Y81.202
G1 F1200 X111.287 Y72.82 E124.57976
G0 F6000 X111.287 Y72
G0 X110.155 Y72
G0 X110.155 Y72.82
G1 F1200 X118.833 Y81.498 E125.39613
G0 F6000 X118.225 Y82.021
G1 F1200 X109.024 Y72.82 E126.2617
G0 F6000 X109.024 Y72
G0 X107.893 Y72
G0 X107.893 Y72.82
G1 F1200 X117.813 Y82.741 E127.19496
G0 F6000 X118.595 Y82.994
G0 X118.5 Y83.739
G0 X117.68 Y83.739
G1 F1200 X107.32 Y73.379 E128.16957
G0 F6000 X106.501 Y73.379
G0 X106.501 Y74.51
G0 X107.32 Y74.51
G1 F1200 X117.68 Y84.87 E129.14417
G0 F6000 X118.5 Y84.87
G0 X118.5 Y86.001
G0 X117.68 Y86.001
G1 F1200 X107.32 Y75.642 E130.11873
G0 F6000 X106.501 Y75.642
G0 X106.501 Y76.773
G0 X107.32 Y76.773
G1 F1200 X117.68 Y87.133 E131.09334
G0 F6000 X118.5 Y87.133
G0 X118.5 Y88.264
G0 X117.68 Y88.264
G1 F1200 X107.32 Y77.904 E132.06794
G0 F6000 X106.501 Y77.904
G0 X106.501 Y79.036
G0 X107.32 Y79.036
G1 F1200 X117.68 Y89.395 E133.0425
G0 F6000 X118.5 Y89.395
G0 X118.5 Y90.527
G0 X117.68 Y90.527
G1 F1200 X107.32 Y80.167 E134.01711
G0 F6000 X106.501 Y80.167
G0 X106.501 Y81.298
G0 X107.32 Y81.298
G1 F1200 X117.68 Y91.658 E134.99171
G0 F6000 X118.5 Y91.658
G0 X118.5 Y92.79
G0 X117.68 Y92.79
G1 F1200 X107.32 Y82.43 E135.96632
G0 F6000 X106.501 Y82.43
G0 X106.501 Y83.561
G0 X107.32 Y83.561
G1 F1200 X117.68 Y93.921 E136.94092
G0 F6000 X118.5 Y93.921
G0 X118.5 Y95.052
G0 X117.68 Y95.052
G1 F1200 X107.32 Y84.693 E137.91548
G0 F6000 X106.501 Y84.693
