;FLAVOR:Marlin
;TIME:348
;Filament used: 0.25552m
;Layer height: 0.2
;MINX:105.4
;MINY:112.9
;MINZ:0.2
;MAXX:129.6
;MAXY:122.1
;MAXZ:11
;TARGET_MACHINE.NAME:Creality Ender-3
;Generated with Cura_SteamEngine 5.6.0
M140 S60
M105
M190 S60
M104 S205
M105
M109 S205
M82 ;absolute extrusion mode
; Ender 3 Custom Start G-code
G92 E0 ; Reset Extruder
G28 ; Home all axes
G1 Z2.0 F3000 ; Move Z Axis up little to prevent scratching of Heat Bed
G1 X0.1 Y20 Z0.3 F5000.0 ; Move to start position
G1 X0.1 Y200.0 Z0.3 F1500.0 E15 ; Draw the first line
G1 X0.4 Y200.0 Z0.3 F5000.0 ; Move to side a little
G1 X0.4 Y20 Z0.3 F1500.0 E30 ; Draw the second line
G92 E0 ; Reset Extruder
G1 Z2.0 F3000 ; Move Z Axis up little to prevent scratching of Heat Bed
G1 X5 Y20 Z0.3 F5000.0 ; Move over to prevent blob squish
G92 E0
G92 E0
G1 F2700 E-0.8
;LAYER_COUNT:55
;LAYER:0
M107
;MESH:2screws.stl
G0 F6000 X128.8 Y121.3 Z0.2
;TYPE:WALL-INNER
G1 F2700 E0
G1 F1200 X128.8 Y113.7 E0.50555
G1 X106.2 Y113.7 E2.00891
G1 X106.2 Y121.3 E2.51447
G1 X128.8 Y121.3 E4.01782
G0 F6000 X129.6 Y122.1
;TYPE:WALL-OUTER
G1 F1200 X129.6 Y112.9 E4.62981
G1 X105.4 Y112.9 E6.2396
G1 X105.4 Y122.1 E6.85159
G1 X129.6 Y122.1 E8.46138
G0 F6000 X128.93 Y121.43
G0 X128.5 Y120.58
G0 X128.08 Y120.58
;TYPE:SKIN
G1 F1200 X106.92 Y120.58 E9.86895
G1 X106.92 Y114.42 E10.27871
G1 X128.08 Y114.42 E11.68628
G1 X128.08 Y120.58 E12.09605
G0 F6000 X128.5 Y120.58
G0 X128.428 Y114.072
G0 X127.265 Y114
G0 X127.265 Y114.819
G1 F1200 X127.679 Y115.234 E12.13504
G0 F6000 X128.5 Y115.234
G0 X128.5 Y116.365
G0 X127.679 Y116.365
G1 F1200 X126.133 Y114.819 E12.28048
G0 F6000 X126.133 Y114
G0 X125.002 Y114
G0 X125.002 Y114.819
G1 F1200 X127.679 Y117.497 E12.53236
G0 F6000 X128.5 Y117.497
G0 X128.5 Y118.628
G0 X127.679 Y118.628
G1 F1200 X123.87 Y114.819 E12.89069
G0 F6000 X123.87 Y114
G0 X122.739 Y114
G0 X122.739 Y114.819
G1 F1200 X127.679 Y119.759 E13.35541
G0 F6000 X126.967 Y120.179
G1 F1200 X121.608 Y114.819 E13.8596
G0 F6000 X121.608 Y114
G0 X120.476 Y114
G0 X120.476 Y114.819
G1 F1200 X125.836 Y120.179 E14.36384
G0 F6000 X125.836 Y121
G0 X124.704 Y121
G0 X124.704 Y120.179
G1 F1200 X119.345 Y114.819 E14.86803
G0 F6000 X119.345 Y114
G0 X118.214 Y114
G0 X118.214 Y114.819
G1 F1200 X123.573 Y120.179 E15.37222
G0 F6000 X123.573 Y121
G0 X122.441 Y121
G0 X122.441 Y120.179
G1 F1200 X117.082 Y114.819 E15.8764
G0 F6000 X117.082 Y114
G0 X115.951 Y114
G0 X115.951 Y114.819
G1 F1200 X121.31 Y120.179 E16.38059
G0 F6000 X121.31 Y121
G0 X120.179 Y121
G0 X120.179 Y120.179
G1 F1200 X114.819 Y114.819 E16.88483
G0 F6000 X114.819 Y114
G0 X113.688 Y114
G0 X113.688 Y114.819
G1 F1200 X119.047 Y120.179 E17.38902
G0 F6000 X119.047 Y121
G0 X117.916 Y121
G0 X117.916 Y120.179
G1 F1200 X112.557 Y114.819 E17.89321
G0 F6000 X112.557 Y114
G0 X111.425 Y114
G0 X111.425 Y114.819
G1 F1200 X116.785 Y120.179 E18.39744
G0 F6000 X116.785 Y121
G0 X115.653 Y121
G0 X115.653 Y120.179
G1 F1200 X110.294 Y114.819 E18.90163
G0 F6000 X110.294 Y114
G0 X109.163 Y114
G0 X109.163 Y114.819
G1 F1200 X114.522 Y120.179 E19.40582
G0 F6000 X114.522 Y121
G0 X113.39 Y121
G0 X113.39 Y120.179
G1 F1200 X108.031 Y114.819 E19.91001
G0 F6000 X107.319 Y115.239
G1 F1200 X112.259 Y120.179 E20.37473
G0 F6000 X112.259 Y121
G0 X111.128 Y121
G0 X111.128 Y120.179
G1 F1200 X107.319 Y116.37 E20.73306
G0 F6000 X106.5 Y116.37
G0 X106.5 Y117.502
G0 X107.319 Y117.502
G1 F1200 X109.996 Y120.179 E20.9849
G0 F6000 X109.996 Y121
G0 X108.865 Y121
G0 X108.865 Y120.179
G1 F1200 X107.319 Y118.633 E21.13034
G0 F6000 X106.5 Y118.633
G0 X106.5 Y119.764
G0 X107.319 Y119.764
G1 F1200 X107.734 Y120.179 E21.16938
;MESH:NONMESH
G0 F300 X107.734 Y120.179 Z0.4
G0 F6000 X107.734 Y121
G0 X128.8 Y121.3
;TIME_ELAPSED:25.883283
;LAYER:1
M106 S85
;TYPE:WALL-INNER
;MESH:2screws.stl
G1 F1500 X128.8 Y113.7 E21.67493
G1 X106.2 Y113.7 E23.17829
G1 X106.2 Y121.3 E23.68384
G1 X128.8 Y121.3 E25.1872
G0 F7500 X129.6 Y122.1
;TYPE:WALL-OUTER
G1 F1500 X129.6 Y112.9 E25.79919
G1 X105.4 Y112.9 E27.40898
G1 X105.4 Y122.1 E28.02096
G1 X129.6 Y122.1 E29.63075
G0 F7500 X128.93 Y121.43
G0 X128.5 Y120.58
G0 X128.08 Y120.58
;TYPE:SKIN
G1 F1500 X106.92 Y120.58 E31.03832
G1 X106.92 Y114.42 E31.44809
G1 X128.08 Y114.42 E32.85566
G1 X128.08 Y120.58 E33.26542
G0 F7500 X128.5 Y120.58
G0 X128.5 Y118.959
G0 X127.679 Y118.959
G1 F1500 X126.458 Y120.179 E33.38024
G0 F7500 X126.458 Y121
G0 X125.327 Y121
G0 X125.327 Y120.179
G1 F1500 X127.679 Y117.828 E33.60145
G0 F7500 X128.5 Y117.828
G0 X128.5 Y116.696
G0 X127.679 Y116.696
G1 F1500 X124.196 Y120.179 E33.92911
G0 F7500 X124.196 Y121
G0 X123.064 Y121
G0 X123.064 Y120.179
G1 F1500 X127.679 Y115.565 E34.36322
G0 F7500 X127.294 Y114.819
G1 F1500 X121.933 Y120.179 E34.8675
G0 F7500 X121.933 Y121
G0 X120.802 Y121
G0 X120.802 Y120.179
G1 F1500 X126.162 Y114.819 E35.37174
G0 F7500 X126.162 Y114
G0 X125.031 Y114
G0 X125.031 Y114.819
G1 F1500 X119.67 Y120.179 E35.87602
G0 F7500 X119.67 Y121
G0 X118.539 Y121
G0 X118.539 Y120.179
G1 F1500 X123.899 Y114.819 E36.38026
G0 F7500 X123.899 Y114
G0 X122.768 Y114
G0 X122.768 Y114.819
G1 F1500 X117.408 Y120.179 E36.88449
G0 F7500 X117.408 Y121
G0 X116.276 Y121
G0 X116.276 Y120.179
G1 F1500 X121.637 Y114.819 E37.38877
G0 F7500 X121.637 Y114
G0 X120.505 Y114
G0 X120.505 Y114.819
G1 F1500 X115.145 Y120.179 E37.89301
G0 F7500 X115.145 Y121
G0 X114.013 Y121
G0 X114.013 Y120.179
G1 F1500 X119.374 Y114.819 E38.39729
G0 F7500 X119.374 Y114
G0 X118.243 Y114
G0 X118.243 Y114.819
G1 F1500 X112.882 Y120.179 E38.90158
G0 F7500 X112.882 Y121
G0 X111.751 Y121
G0 X111.751 Y120.179
G1 F1500 X117.111 Y114.819 E39.40581
G0 F7500 X117.111 Y114
G0 X115.98 Y114
G0 X115.98 Y114.819
G1 F1500 X110.619 Y120.179 E39.91009
G0 F7500 X110.619 Y121
G0 X109.488 Y121
G0 X109.488 Y120.179
G1 F1500 X114.848 Y114.819 E40.41433
G0 F7500 X114.848 Y114
G0 X113.717 Y114
G0 X113.717 Y114.819
G1 F1500 X108.357 Y120.179 E40.91857
G0 F7500 X108.357 Y121
G0 X106.572 Y120.928
G0 X106.5 Y120.085
G0 X107.319 Y120.085
G1 F1500 X112.586 Y114.819 E41.41401
G0 F7500 X112.586 Y114
G0 X111.454 Y114
G0 X111.454 Y114.819
G1 F1500 X107.319 Y118.954 E41.803
G0 F7500 X106.5 Y118.954
G0 X106.5 Y117.823
G0 X107.319 Y117.823
G1 F1500 X110.323 Y114.819 E42.0856
G0 F7500 X110.323 Y114
G0 X109.192 Y114
G0 X109.192 Y114.819
G1 F1500 X107.319 Y116.691 E42.26175
G0 F7500 X106.5 Y116.691
G0 X106.5 Y115.56
G0 X107.319 Y115.56
G1 F1500 X108.06 Y114.819 E42.33146
;MESH:NONMESH
G0 F300 X108.06 Y114.819 Z0.6
G0 F7500 X108.06 Y114
G0 X128.428 Y114.072
G0 X128.8 Y121.3
;TIME_ELAPSED:44.587208
;LAYER:2
M106 S170
;TYPE:WALL-INNER
;MESH:2screws.stl
G1 F1800 X128.8 Y113.7 E42.83702
G1 X106.2 Y113.7 E44.34037
G1 X106.2 Y121.3 E44.84593
G1 X128.8 Y121.3 E46.34929
G0 F9000 X129.6 Y122.1
;TYPE:WALL-OUTER
G1 F1800 X129.6 Y112.9 E46.96127
G1 X105.4 Y112.9 E48.57106
G1 X105.4 Y122.1 E49.18305
G1 X129.6 Y122.1 E50.79284
G0 F9000 X128.93 Y121.43
G0 X128.5 Y120.58
G0 X128.08 Y120.58
;TYPE:SKIN
G1 F1800 X106.92 Y120.58 E52.20041
G1 X106.92 Y114.42 E52.61017
G1 X128.08 Y114.42 E54.01774
G1 X128.08 Y120.58 E54.42751
G0 F9000 X128.5 Y120.58
G0 X128.428 Y114.072
G0 X127.265 Y114
G0 X127.265 Y114.819
G1 F1800 X127.679 Y115.234 E54.4665
G0 F9000 X128.5 Y115.234
G0 X128.5 Y116.365
G0 X127.679 Y116.365
G1 F1800 X126.133 Y114.819 E54.61194
G0 F9000 X126.133 Y114
G0 X125.002 Y114
G0 X125.002 Y114.819
G1 F1800 X127.679 Y117.497 E54.86382
G0 F9000 X128.5 Y117.497
G0 X128.5 Y118.628
G0 X127.679 Y118.628
G1 F1800 X123.87 Y114.819 E55.22215
G0 F9000 X123.87 Y114
G0 X122.739 Y114
G0 X122.739 Y114.819
G1 F1800 X127.679 Y119.759 E55.68688
G0 F9000 X126.967 Y120.179
G1 F1800 X121.608 Y114.819 E56.19106
G0 F9000 X121.608 Y114
G0 X120.476 Y114
G0 X120.476 Y114.819
G1 F1800 X125.836 Y120.179 E56.6953
G0 F9000 X125.836 Y121
G0 X124.704 Y121
G0 X124.704 Y120.179
G1 F1800 X119.345 Y114.819 E57.19949
G0 F9000 X119.345 Y114
G0 X118.214 Y114
G0 X118.214 Y114.819
G1 F1800 X123.573 Y120.179 E57.70368
G0 F9000 X123.573 Y121
G0 X122.441 Y121
G0 X122.441 Y120.179
G1 F1800 X117.082 Y114.819 E58.20787
G0 F9000 X117.082 Y114
G0 X115.951 Y114
G0 X115.951 Y114.819
G1 F1800 X121.31 Y120.179 E58.71206
G0 F9000 X121.31 Y121
G0 X120.179 Y121
G0 X120.179 Y120.179
G1 F1800 X114.819 Y114.819 E59.21629
G0 F9000 X114.819 Y114
G0 X113.688 Y114
G0 X113.688 Y114.819
G1 F1800 X119.047 Y120.179 E59.72048
G0 F9000 X119.047 Y121
G0 X117.916 Y121
G0 X117.916 Y120.179
G1 F1800 X112.557 Y114.819 E60.22467
G0 F9000 X112.557 Y114
G0 X111.425 Y114
G0 X111.425 Y114.819
G1 F1800 X116.785 Y120.179 E60.72891
G0 F9000 X116.785 Y121
G0 X115.653 Y121
G0 X115.653 Y120.179
G1 F1800 X110.294 Y114.819 E61.23309
G0 F9000 X110.294 Y114
G0 X109.163 Y114
G0 X109.163 Y114.819
G1 F1800 X114.522 Y120.179 E61.73728
G0 F9000 X114.522 Y121
G0 X113.39 Y121
G0 X113.39 Y120.179
G1 F1800 X108.031 Y114.819 E62.24147
G0 F9000 X107.319 Y115.239
G1 F1800 X112.259 Y120.179 E62.7062
G0 F9000 X112.259 Y121
G0 X111.128 Y121
G0 X111.128 Y120.179
G1 F1800 X107.319 Y116.37 E63.06452
G0 F9000 X106.5 Y116.37
G0 X106.5 Y117.502
G0 X107.319 Y117.502
G1 F1800 X109.996 Y120.179 E63.31636
G0 F9000 X109.996 Y121
G0 X108.865 Y121
G0 X108.865 Y120.179
G1 F1800 X107.319 Y118.633 E63.4618
G0 F9000 X106.5 Y118.633
G0 X106.5 Y119.764
G0 X107.319 Y119.764
G1 F1800 X107.734 Y120.179 E63.50084
;MESH:NONMESH
G0 F300 X107.734 Y120.179 Z0.8
G0 F9000 X107.734 Y121
G0 X128.8 Y121.3
;TIME_ELAPSED:61.467177
;LAYER:3
M106 S255
;TYPE:WALL-INNER
;MESH:2screws.stl
G1 F801.9 X128.8 Y113.7 E64.00639
G1 X106.2 Y113.7 E65.50975
G1 X106.2 Y121.3 E66.0153
G1 X128.8 Y121.3 E67.51866
G0 F9000 X129.6 Y122.1
;TYPE:WALL-OUTER
G1 F801.9 X129.6 Y112.9 E68.13065
G1 X105.4 Y112.9 E69.74044
G1 X105.4 Y122.1 E70.35243
G1 X129.6 Y122.1 E71.96222
G0 F9000 X128.93 Y121.43
G0 X128.24 Y116.194
;TYPE:FILL
G1 F801.9 X127.355 Y116.194 E72.02109
G0 F9000 X115.128 Y118.827
G1 F801.9 X115.128 Y120.74 E72.14834
G0 F9000 X115.128 Y120.7
;MESH:NONMESH
G0 F300 X115.128 Y120.7 Z1
G0 F9000 X128.8 Y121.3
;TIME_ELAPSED:72.269842
;LAYER:4
;TYPE:WALL-INNER
;MESH:2screws.stl
G1 F799.8 X128.8 Y113.7 E72.65389
G1 X106.2 Y113.7 E74.15725
G1 X106.2 Y121.3 E74.66281
G1 X128.8 Y121.3 E76.16617
G0 F9000 X129.6 Y122.1
;TYPE:WALL-OUTER
G1 F799.8 X129.6 Y112.9 E76.77815
G1 X105.4 Y112.9 E78.38794
G1 X105.4 Y122.1 E78.99993
G1 X129.6 Y122.1 E80.60972
G0 F9000 X128.93 Y121.43
G0 X128.24 Y116.194
;TYPE:FILL
G1 F799.8 X127.188 Y116.194 E80.6797
G0 F9000 X115.128 Y118.66
G1 F799.8 X115.128 Y120.74 E80.81806
G0 F9000 X115.128 Y120.7
;MESH:NONMESH
G0 F300 X115.128 Y120.7 Z1.2
G0 F9000 X128.8 Y121.3
;TIME_ELAPSED:83.120252
;LAYER:5
;TYPE:WALL-INNER
;MESH:2screws.stl
G1 F803.2 X128.8 Y113.7 E81.32361
G1 X106.2 Y113.7 E82.82697
G1 X106.2 Y121.3 E83.33253
G1 X128.8 Y121.3 E84.83588
G0 F9000 X129.6 Y122.1
;TYPE:WALL-OUTER
G1 F803.2 X129.6 Y112.9 E85.44787
G1 X105.4 Y112.9 E87.05766
G1 X105.4 Y122.1 E87.66965
G1 X129.6 Y122.1 E89.27944
G0 F9000 X128.93 Y121.43
G0 X128.24 Y116.194
;TYPE:FILL
G1 F803.2 X127.021 Y116.194 E89.36053
G0 F9000 X121.524 Y120.625
G1 F803.2 X121.524 Y120.74 E89.36818
G0 F9000 X115.128 Y120.74
G1 F803.2 X115.128 Y118.493 E89.51765
;MESH:NONMESH
G0 F300 X115.128 Y118.493 Z1.4
G0 F9000 X128.8 Y121.3
;TIME_ELAPSED:94.105688
;LAYER:6
;TYPE:WALL-INNER
;MESH:2screws.stl
G1 F806.3 X128.8 Y113.7 E90.0232
G1 X106.2 Y113.7 E91.52656
G1 X106.2 Y121.3 E92.03211
G1 X128.8 Y121.3 E93.53547
G0 F9000 X129.6 Y122.1
;TYPE:WALL-OUTER
G1 F806.3 X129.6 Y112.9 E94.14746
G1 X105.4 Y112.9 E95.75725
G1 X105.4 Y122.1 E96.36924
G1 X129.6 Y122.1 E97.97903
G0 F9000 X128.93 Y121.43
G0 X128.24 Y116.194
;TYPE:FILL
G1 F806.3 X126.854 Y116.194 E98.07122
G0 F9000 X121.524 Y120.458
G1 F806.3 X121.524 Y120.74 E98.08998
G0 F9000 X115.128 Y120.74
G1 F806.3 X115.128 Y118.326 E98.25056
;MESH:NONMESH
G0 F300 X115.128 Y118.326 Z1.6
G0 F9000 X128.8 Y121.3
;TIME_ELAPSED:105.089469
;LAYER:7
;TYPE:WALL-INNER
;MESH:2screws.stl
G1 F1800 X128.8 Y113.7 E98.75612
G1 X106.2 Y113.7 E100.25947
G1 X106.2 Y121.3 E100.76503
G1 X128.8 Y121.3 E102.26839
G0 F9000 X129.6 Y122.1
;TYPE:WALL-OUTER
G1 F1800 X129.6 Y112.9 E102.88037
G1 X105.4 Y112.9 E104.49016
G1 X105.4 Y122.1 E105.10215
G1 X129.6 Y122.1 E106.71194
G0 F9000 X128.93 Y121.43
G0 X128.5 Y120.58
G0 X128.08 Y120.58
;TYPE:SKIN
G1 F1800 X106.92 Y120.58 E108.11951
G1 X106.92 Y114.42 E108.52927
G1 X128.08 Y114.42 E109.93684
G1 X128.08 Y120.58 E110.34661
G0 F9000 X128.5 Y120.58
G0 X128.5 Y118.959
G0 X127.679 Y118.959
G1 F1800 X126.458 Y120.179 E110.46143
G0 F9000 X126.458 Y121
G0 X125.327 Y121
G0 X125.327 Y120.179
G1 F1800 X127.679 Y117.828 E110.68264
G0 F9000 X128.5 Y117.828
G0 X128.5 Y116.696
G0 X127.679 Y116.696
G1 F1800 X124.196 Y120.179 E111.0103
G0 F9000 X124.196 Y121
G0 X123.064 Y121
G0 X123.064 Y120.179
G1 F1800 X127.679 Y115.565 E111.4444
G0 F9000 X127.294 Y114.819
G1 F1800 X121.933 Y120.179 E111.94869
G0 F9000 X121.933 Y121
G0 X120.802 Y121
G0 X120.802 Y120.179
G1 F1800 X126.162 Y114.819 E112.45292
G0 F9000 X126.162 Y114
G0 X125.031 Y114
G0 X125.031 Y114.819
G1 F1800 X119.67 Y120.179 E112.9572
G0 F9000 X119.67 Y121
G0 X118.539 Y121
G0 X118.539 Y120.179
G1 F1800 X123.899 Y114.819 E113.46144
G0 F9000 X123.899 Y114
G0 X122.768 Y114
G0 X122.768 Y114.819
G1 F1800 X117.408 Y120.179 E113.96568
G0 F9000 X117.408 Y121
G0 X116.276 Y121
G0 X116.276 Y120.179
G1 F1800 X121.637 Y114.819 E114.46996
G0 F9000 X121.637 Y114
G0 X120.505 Y114
G0 X120.505 Y114.819
G1 F1800 X115.145 Y120.179 E114.9742
G0 F9000 X115.145 Y121
G0 X114.013 Y121
G0 X114.013 Y120.179
G1 F1800 X119.374 Y114.819 E115.47848
G0 F9000 X119.374 Y114
G0 X118.243 Y114
G0 X118.243 Y114.819
G1 F1800 X112.882 Y120.179 E115.98276
G0 F9000 X112.882 Y121
G0 X111.751 Y121
G0 X111.751 Y120.179
G1 F1800 X117.111 Y114.819 E116.487
G0 F9000 X117.111 Y114
G0 X115.98 Y114
G0 X115.98 Y114.819
G1 F1800 X110.619 Y120.179 E116.99128
G0 F9000 X110.619 Y121
G0 X109.488 Y121
G0 X109.488 Y120.179
G1 F1800 X114.848 Y114.819 E117.49552
G0 F9000 X114.848 Y114
G0 X113.717 Y114
G0 X113.717 Y114.819
G1 F1800 X108.357 Y120.179 E117.99975
G0 F9000 X108.357 Y121
G0 X106.572 Y120.928
G0 X106.5 Y120.085
G0 X107.319 Y120.085
G1 F1800 X112.586 Y114.819 E118.49519
G0 F9000 X112.586 Y114
G0 X111.454 Y114
G0 X111.454 Y114.819
G1 F1800 X107.319 Y118.954 E118.88419
G0 F9000 X106.5 Y118.954
G0 X106.5 Y117.823
G0 X107.319 Y117.823
G1 F1800 X110.323 Y114.819 E119.16679
G0 F9000 X110.323 Y114
G0 X109.192 Y114
G0 X109.192 Y114.819
G1 F1800 X107.319 Y116.691 E119.34294
G0 F9000 X106.5 Y116.691
G0 X106.5 Y115.56
G0 X107.319 Y115.56
G1 F1800 X108.06 Y114.819 E119.41265
;MESH:NONMESH
G0 F300 X108.06 Y114.819 Z1.8
G0 F9000 X108.06 Y114
G0 X128.428 Y114.072
G0 X128.8 Y121.3
;TIME_ELAPSED:121.982197
;LAYER:8
;TYPE:WALL-INNER
;MESH:2screws.stl
G1 F1800 X128.8 Y113.7 E119.9182
G1 X106.2 Y113.7 E121.42156
G1 X106.2 Y121.3 E121.92711
G1 X128.8 Y121.3 E123.43047
G0 F9000 X129.6 Y122.1
;TYPE:WALL-OUTER
G1 F1800 X129.6 Y112.9 E124.04246
G1 X105.4 Y112.9 E125.65225
G1 X105.4 Y122.1 E126.26424
G1 X129.6 Y122.1 E127.87403
G0 F9000 X128.93 Y121.43
G0 X128.5 Y120.58
G0 X128.08 Y120.58
;TYPE:SKIN
G1 F1800 X106.92 Y120.58 E129.2816
G1 X106.92 Y114.42 E129.69136
G1 X128.08 Y114.42 E131.09893
G1 X128.08 Y120.58 E131.50869
G0 F9000 X128.5 Y120.58
G0 X128.428 Y114.072
G0 X127.265 Y114
G0 X127.265 Y114.819
G1 F1800 X127.679 Y115.234 E131.54769
G0 F9000 X128.5 Y115.234
G0 X128.5 Y116.365
G0 X127.679 Y116.365
G1 F1800 X126.133 Y114.819 E131.69313
G0 F9000 X126.133 Y114
G0 X125.002 Y114
