;FLAVOR:Marlin
;TIME:1691
;Filament used: 2.57765m
;Layer height: 0.2
;MINX:86.9
;MINY:70.9
;MINZ:0.2
;MAXX:148.1
;MAXY:164.1
;MAXZ:10.4
;TARGET_MACHINE.NAME:Creality Ender-3
;Generated with Cura_SteamEngine 5.6.0
M140 S60
M105
M190 S60
M104 S205
M105
M109 S205
M82 ;absolute extrusion mode
; Ender 3 Custom Start G-code
G92 E0 ; Reset Extruder
G28 ; Home all axes
G1 Z2.0 F3000 ; Move Z Axis up little to prevent scratching of Heat Bed
G1 X0.1 Y20 Z0.3 F5000.0 ; Move to start position
G1 X0.1 Y200.0 Z0.3 F1500.0 E15 ; Draw the first line
G1 X0.4 Y200.0 Z0.3 F5000.0 ; Move to side a little
G1 X0.4 Y20 Z0.3 F1500.0 E30 ; Draw the second line
G92 E0 ; Reset Extruder
G1 Z2.0 F3000 ; Move Z Axis up little to prevent scratching of Heat Bed
G1 X5 Y20 Z0.3 F5000.0 ; Move over to prevent blob squish
G92 E0
G92 E0
G1 F2700 E-0.8
;LAYER_COUNT:52
;LAYER:0
M107
;MESH:full_plate_1.stl
G0 F6000 X118.935 Y152.619 Z0.2
;TYPE:WALL-INNER
G1 F2700 E0
G1 F1200 X118.601 Y152.7 E0.02286
G1 X116.399 Y152.7 E0.16934
G1 X116.065 Y152.619 E0.1922
G1 X115.816 Y152.487 E0.21095
G1 X115.618 Y152.315 E0.22839
G1 X115.474 Y152.124 E0.24431
G1 X115.347 Y151.837 E0.26518
G1 X115.302 Y151.578 E0.28267
G1 X115.302 Y83.422 E4.81643
G1 X115.347 Y83.163 E4.83391
G1 X115.474 Y82.876 E4.85479
G1 X115.618 Y82.685 E4.8707
G1 X115.816 Y82.513 E4.88815
G1 X116.065 Y82.381 E4.9069
G1 X116.399 Y82.3 E4.92976
G1 X118.601 Y82.3 E5.07623
G1 X118.935 Y82.381 E5.0991
G1 X119.184 Y82.513 E5.11784
G1 X119.382 Y82.685 E5.13529
G1 X119.526 Y82.876 E5.1512
G1 X119.653 Y83.163 E5.17208
G1 X119.698 Y83.422 E5.18957
G1 X119.698 Y151.578 E9.72332
G1 X119.653 Y151.837 E9.74081
G1 X119.526 Y152.124 E9.76168
G1 X119.382 Y152.315 E9.7776
G1 X119.184 Y152.487 E9.79504
G1 X118.935 Y152.619 E9.81379
G1 F2700 E9.01379
G0 F6000 X119.469 Y152.537
G0 X119.976 Y152.067
G0 X119.976 Y162.9
G0 X147.3 Y163.3
G1 F2700 E9.81379
G1 F1200 X147.3 Y71.7 E15.90705
G1 X87.7 Y71.7 E19.87165
G1 X87.7 Y163.3 E25.96491
G1 X147.3 Y163.3 E29.92952
G0 F6000 X148.1 Y164.1
;TYPE:WALL-OUTER
G1 F1200 X148.1 Y70.9 E36.12921
G1 X86.9 Y70.9 E40.20025
G1 X86.9 Y164.1 E46.39994
G1 X148.1 Y164.1 E50.47098
G1 F2700 E49.67098
G0 F6000 X147.43 Y163.43
G0 X118.689 Y162.9
G0 X118.636 Y153.081
G0 X118.689 Y152.6
G0 X118.689 Y151.853
G1 F2700 E50.47098
G1 F1200 X118.57 Y151.895 E50.47937
G1 X116.43 Y151.895 E50.62173
G1 X116.272 Y151.829 E50.63312
G1 X116.158 Y151.708 E50.64418
G1 X116.1 Y151.526 E50.65688
G1 X116.1 Y83.416 E55.18758
G1 X116.18 Y83.26 E55.19924
G1 X116.311 Y83.147 E55.21075
G1 X116.43 Y83.105 E55.21914
G1 X118.57 Y83.105 E55.3615
G1 X118.728 Y83.171 E55.37289
G1 X118.842 Y83.292 E55.38395
G1 X118.9 Y83.474 E55.39665
G1 X118.9 Y151.584 E59.92735
G1 X118.82 Y151.74 E59.93901
G1 X118.689 Y151.853 E59.95052
G1 F2700 E59.15052
G0 F6000 X118.689 Y152.6
G0 X119.528 Y152.528
G0 X119.976 Y152.067
G0 X119.976 Y162.9
G0 X146.928 Y162.928
G0 X147 Y162.58
G0 X146.58 Y162.58
;TYPE:SKIN
G1 F2700 E59.95052
G1 F1200 X88.42 Y162.58 E63.81934
G1 X88.42 Y72.42 E69.8168
G1 X146.58 Y72.421 E73.68562
G1 X146.58 Y162.58 E79.68302
G1 F2700 E78.88302
G0 F6000 X147 Y162.58
G0 X118.629 Y162.9
G0 X118.629 Y153.08
G0 X118.698 Y153.415
G1 F2700 E79.68302
G1 F1200 X119.117 Y153.33 E79.71146
G1 X119.597 Y153.077 E79.74756
G1 X119.91 Y152.805 E79.77514
G1 X120.141 Y152.499 E79.80065
G1 X120.278 Y152.223 E79.82114
G1 X120.417 Y151.773 E79.85247
G1 X120.416 Y83.37 E84.40266
G1 X120.345 Y82.968 E84.42981
G1 X120.183 Y82.556 E84.45926
G1 X119.912 Y82.198 E84.48913
G1 X119.595 Y81.921 E84.51713
G1 X119.116 Y81.67 E84.55311
G1 X118.669 Y81.58 E84.58344
G1 X116.302 Y81.585 E84.74089
G1 X115.884 Y81.671 E84.76928
G1 X115.404 Y81.923 E84.80534
G1 X115.09 Y82.195 E84.83298
G1 X114.859 Y82.501 E84.85848
G1 X114.722 Y82.777 E84.87898
G1 X114.583 Y83.227 E84.91031
G1 X114.584 Y151.63 E89.46049
G1 X114.655 Y152.032 E89.48765
G1 X114.817 Y152.444 E89.5171
G1 X115.088 Y152.802 E89.54696
G1 X115.405 Y153.079 E89.57497
G1 X115.884 Y153.33 E89.61094
G1 X116.331 Y153.42 E89.64127
G1 X118.698 Y153.415 E89.79873
G1 F2700 E88.99873
G0 F6000 X118.629 Y153
G0 X115.9 Y152.1
G0 X115.9 Y162.9
G0 X89.771 Y163
G0 X89.771 Y162.179
G1 F2700 E89.79873
G1 F1200 X88.818 Y161.226 E89.88838
G0 F6000 X88 Y161.226
G0 X88 Y160.095
G0 X88.818 Y160.095
G1 F1200 X90.902 Y162.179 E90.08443
G0 F6000 X90.902 Y163
G0 X92.034 Y163
G0 X92.034 Y162.179
G1 F1200 X88.818 Y158.963 E90.38697
G0 F6000 X88 Y158.963
G0 X88 Y157.832
G0 X88.818 Y157.832
G1 F1200 X93.165 Y162.179 E90.79591
G0 F6000 X93.165 Y163
G0 X94.296 Y163
G0 X94.296 Y162.179
G1 F1200 X88.818 Y156.701 E91.31125
G0 F6000 X88 Y156.701
G0 X88 Y155.569
G0 X88.818 Y155.569
G1 F1200 X95.428 Y162.179 E91.93307
G0 F6000 X95.428 Y163
G0 X96.559 Y163
G0 X96.559 Y162.179
G1 F1200 X88.818 Y154.438 E92.6613
G0 F6000 X88 Y154.438
G0 X88 Y153.307
G0 X88.818 Y153.307
G1 F1200 X97.691 Y162.179 E93.49597
G0 F6000 X97.691 Y163
G0 X98.822 Y163
G0 X98.822 Y162.179
G1 F1200 X88.818 Y152.175 E94.43708
G0 F6000 X88 Y152.175
G0 X88 Y151.044
G0 X88.818 Y151.044
G1 F1200 X99.953 Y162.179 E95.4846
G0 F6000 X99.953 Y163
G0 X101.085 Y163
G0 X101.085 Y162.179
G1 F1200 X88.818 Y149.913 E96.63855
G0 F6000 X88 Y149.913
G0 X88 Y148.781
G0 X88.818 Y148.781
G1 F1200 X102.216 Y162.179 E97.89896
G0 F6000 X102.216 Y163
G0 X103.347 Y163
G0 X103.347 Y162.179
G1 F1200 X88.818 Y147.65 E99.26576
G0 F6000 X88 Y147.65
G0 X88 Y146.518
G0 X88.818 Y146.518
G1 F1200 X104.479 Y162.179 E100.73905
G0 F6000 X104.479 Y163
G0 X105.61 Y163
G0 X105.61 Y162.179
G1 F1200 X88.818 Y145.387 E102.31873
G0 F6000 X88 Y145.387
G0 X88 Y144.256
G0 X88.818 Y144.256
G1 F1200 X106.742 Y162.179 E104.00487
G0 F6000 X106.742 Y163
G0 X107.873 Y163
G0 X107.873 Y162.179
G1 F1200 X88.818 Y143.124 E105.79744
G0 F6000 X88 Y143.124
G0 X88 Y141.993
G0 X88.818 Y141.993
G1 F1200 X109.004 Y162.179 E107.69642
G0 F6000 X109.004 Y163
G0 X110.136 Y163
G0 X110.136 Y162.179
G1 F1200 X88.818 Y140.862 E109.70184
G0 F6000 X88 Y140.862
G0 X88 Y139.73
G0 X88.818 Y139.73
G1 F1200 X111.267 Y162.179 E111.8137
G0 F6000 X111.267 Y163
G0 X112.398 Y163
G0 X112.398 Y162.179
G1 F1200 X88.818 Y138.599 E114.03197
G0 F6000 X88 Y138.599
G0 X88 Y137.467
G0 X88.818 Y137.467
G1 F1200 X113.53 Y162.179 E116.35672
G0 F6000 X113.53 Y163
G0 X114.661 Y163
G0 X114.661 Y162.179
G1 F1200 X88.818 Y136.336 E118.78787
G0 F6000 X88 Y136.336
G0 X88 Y135.205
G0 X88.818 Y135.205
G1 F1200 X115.792 Y162.179 E121.32542
G0 F6000 X115.792 Y163
G0 X116.924 Y163
G0 X116.924 Y162.179
G1 F1200 X88.818 Y134.073 E123.96946
G0 F6000 X88 Y134.073
G0 X88 Y132.942
G0 X88.818 Y132.942
G1 F1200 X118.055 Y162.179 E126.7199
G0 F6000 X118.055 Y163
G0 X119.187 Y163
G0 X119.187 Y162.179
G1 F1200 X88.818 Y131.811 E129.57678
G0 F6000 X88 Y131.811
G0 X88 Y130.679
G0 X88.818 Y130.679
G1 F1200 X120.318 Y162.179 E132.54011
G0 F6000 X120.318 Y163
G0 X121.449 Y163
G0 X121.449 Y162.179
G1 F1200 X88.818 Y129.548 E135.60983
G0 F6000 X88 Y129.548
G0 X88 Y128.416
G0 X88.818 Y128.416
G1 F1200 X122.581 Y162.179 E138.78605
G0 F6000 X122.581 Y163
G0 X123.712 Y163
G0 X123.712 Y162.179
G1 F1200 X88.818 Y127.285 E142.06866
G0 F6000 X88 Y127.285
G0 X88 Y126.154
G0 X88.818 Y126.154
G1 F1200 X114.185 Y151.52 E144.45498
G0 F6000 X115.003 Y151.52
G0 X115.003 Y150.388
G0 X114.185 Y150.388
G1 F1200 X88.818 Y125.022 E146.84131
G0 F6000 X88 Y125.022
G0 X88 Y123.891
G0 X88.818 Y123.891
G1 F1200 X114.185 Y149.257 E149.22763
G0 F6000 X115.003 Y149.257
G0 X115.003 Y148.126
G0 X114.185 Y148.126
G1 F1200 X88.818 Y122.76 E151.61396
G0 F6000 X88 Y122.76
G0 X88 Y121.628
G0 X88.818 Y121.628
G1 F1200 X114.185 Y146.994 E154.00028
G0 F6000 X115.003 Y146.994
G0 X115.003 Y145.863
G0 X114.185 Y145.863
G1 F1200 X88.818 Y120.497 E156.38661
G0 F6000 X88 Y120.497
G0 X88 Y119.365
G0 X88.818 Y119.365
G1 F1200 X114.185 Y144.732 E158.77298
G0 F6000 X115.003 Y144.732
G0 X115.003 Y143.6
G0 X114.185 Y143.6
G1 F1200 X88.818 Y118.234 E161.1593
G0 F6000 X88 Y118.234
G0 X88 Y117.103
G0 X88.818 Y117.103
G1 F1200 X114.185 Y142.469 E163.54563
G0 F6000 X115.003 Y142.469
G0 X115.003 Y141.337
G0 X114.185 Y141.337
G1 F1200 X88.818 Y115.971 E165.93195
G0 F6000 X88 Y115.971
G0 X88 Y114.84
G0 X88.818 Y114.84
G1 F1200 X114.185 Y140.206 E168.31828
G0 F6000 X115.003 Y140.206
G0 X115.003 Y139.075
G0 X114.185 Y139.075
G1 F1200 X88.818 Y113.709 E170.7046
G0 F6000 X88 Y113.709
G0 X88 Y112.577
G0 X88.818 Y112.577
G1 F1200 X114.185 Y137.943 E173.09093
G0 F6000 X115.003 Y137.943
G0 X115.003 Y136.812
G0 X114.185 Y136.812
G1 F1200 X88.818 Y111.446 E175.47725
G0 F6000 X88 Y111.446
G0 X88 Y110.315
G0 X88.818 Y110.315
G1 F1200 X114.185 Y135.681 E177.86358
G0 F6000 X115.003 Y135.681
G0 X115.003 Y134.549
G0 X114.185 Y134.549
G1 F1200 X88.818 Y109.183 E180.2499
G0 F6000 X88 Y109.183
G0 X88 Y108.052
G0 X88.818 Y108.052
G1 F1200 X114.185 Y133.418 E182.63623
G0 F6000 X115.003 Y133.418
G0 X115.003 Y132.286
G0 X114.185 Y132.286
G1 F1200 X88.818 Y106.92 E185.02255
G0 F6000 X88 Y106.92
G0 X88 Y105.789
G0 X88.818 Y105.789
G1 F1200 X114.185 Y131.155 E187.40888
G0 F6000 X115.003 Y131.155
G0 X115.003 Y130.024
G0 X114.185 Y130.024
G1 F1200 X88.818 Y104.658 E189.7952
G0 F6000 X88 Y104.658
G0 X88 Y103.526
G0 X88.818 Y103.526
G1 F1200 X114.185 Y128.892 E192.18153
G0 F6000 X115.003 Y128.892
G0 X115.003 Y127.761
G0 X114.185 Y127.761
G1 F1200 X88.818 Y102.395 E194.56785
G0 F6000 X88 Y102.395
G0 X88 Y101.264
G0 X88.818 Y101.264
G1 F1200 X114.185 Y126.63 E196.95418
G0 F6000 X115.003 Y126.63
G0 X115.003 Y125.498
G0 X114.185 Y125.498
G1 F1200 X88.818 Y100.132 E199.3405
G0 F6000 X88 Y100.132
G0 X88 Y99.001
G0 X88.818 Y99.001
G1 F1200 X114.185 Y124.367 E201.72683
G0 F6000 X115.003 Y124.367
G0 X115.003 Y123.235
G0 X114.185 Y123.235
G1 F1200 X88.818 Y97.869 E204.11315
G0 F6000 X88 Y97.869
G0 X88 Y96.738
G0 X88.818 Y96.738
G1 F1200 X114.185 Y122.104 E206.49948
G0 F6000 X115.003 Y122.104
G0 X115.003 Y120.973
G0 X114.185 Y120.973
G1 F1200 X88.818 Y95.607 E208.8858
G0 F6000 X88 Y95.607
G0 X88 Y94.475
G0 X88.818 Y94.475
G1 F1200 X114.185 Y119.841 E211.27213
G0 F6000 X115.003 Y119.841
G0 X115.003 Y118.71
G0 X114.185 Y118.71
G1 F1200 X88.818 Y93.344 E213.65845
G0 F6000 X88 Y93.344
G0 X88 Y92.213
G0 X88.818 Y92.213
G1 F1200 X114.185 Y117.579 E216.04477
G0 F6000 X115.003 Y117.579
G0 X115.003 Y116.447
G0 X114.184 Y116.447
G1 F1200 X88.818 Y91.081 E218.43105
G0 F6000 X88 Y91.081
G0 X88 Y89.95
G0 X88.818 Y89.95
G1 F1200 X114.184 Y115.315 E220.81728
G0 F6000 X115.003 Y115.315
G0 X115.003 Y114.184
G0 X114.184 Y114.184
G1 F1200 X88.818 Y88.818 E223.20356
G0 F6000 X88 Y88.818
G0 X88 Y87.687
G0 X88.818 Y87.687
G1 F1200 X114.184 Y113.052 E225.58979
G0 F6000 X115.003 Y113.052
G0 X115.003 Y111.921
G0 X114.184 Y111.921
G1 F1200 X88.818 Y86.556 E227.97602
G0 F6000 X88 Y86.556
G0 X88 Y85.424
G0 X88.818 Y85.424
G1 F1200 X114.184 Y110.79 E230.3623
G0 F6000 X115.003 Y110.79
G0 X115.003 Y109.658
G0 X114.184 Y109.658
G1 F1200 X88.818 Y84.293 E232.74853
G0 F6000 X88 Y84.293
G0 X88 Y83.162
G0 X88.818 Y83.162
G1 F1200 X114.184 Y108.527 E235.13476
G0 F6000 X115.003 Y108.527
G0 X115.003 Y107.396
G0 X114.184 Y107.396
G1 F1200 X88.818 Y82.03 E237.52104
G0 F6000 X88 Y82.03
G0 X88 Y80.899
G0 X88.818 Y80.899
G1 F1200 X114.184 Y106.264 E239.90727
G0 F6000 X115.003 Y106.264
G0 X115.003 Y105.133
G0 X114.184 Y105.133
G1 F1200 X88.818 Y79.768 E242.2935
G0 F6000 X88 Y79.768
G0 X88 Y78.636
G0 X88.818 Y78.636
G1 F1200 X114.184 Y104.001 E244.67973
G0 F6000 X115.003 Y104.001
G0 X115.003 Y102.87
G0 X114.184 Y102.87
G1 F1200 X88.818 Y77.505 E247.06596
G0 F6000 X88 Y77.505
G0 X88 Y76.373
G0 X88.818 Y76.373
G1 F1200 X114.184 Y101.739 E249.45224
G0 F6000 X115.003 Y101.739
G0 X115.003 Y100.607
G0 X114.184 Y100.607
G1 F1200 X88.818 Y75.242 E251.83847
G0 F6000 X88 Y75.242
G0 X88 Y74.111
G0 X88.818 Y74.111
G1 F1200 X114.184 Y99.476 E254.2247
G0 F6000 X115.003 Y99.476
G0 X115.003 Y98.345
G0 X114.184 Y98.345
G1 F1200 X88.818 Y72.979 E256.61098
G0 F6000 X89.791 Y72.82
G1 F1200 X114.184 Y97.213 E258.90572
G0 F6000 X115.003 Y97.213
G0 X115.003 Y96.082
G0 X114.184 Y96.082
G1 F1200 X90.922 Y72.82 E261.09407
G0 F6000 X90.922 Y72
G0 X92.053 Y72
G0 X92.053 Y72.82
G1 F1200 X114.184 Y94.951 E263.17602
G0 F6000 X115.003 Y94.951
G0 X115.003 Y93.819
G0 X114.184 Y93.819
G1 F1200 X93.185 Y72.82 E265.15147
G0 F6000 X93.185 Y72
G0 X94.316 Y72
G0 X94.316 Y72.82
G1 F1200 X114.184 Y92.688 E267.02053
G0 F6000 X115.003 Y92.688
G0 X115.003 Y91.556
G0 X114.184 Y91.556
G1 F1200 X95.448 Y72.82 E268.7831
G0 F6000 X95.448 Y72
G0 X96.579 Y72
G0 X96.579 Y72.82
G1 F1200 X114.184 Y90.425 E270.43927
G0 F6000 X115.003 Y90.425
G0 X115.003 Y89.294
G0 X114.184 Y89.294
G1 F1200 X97.71 Y72.82 E271.98905
G0 F6000 X97.71 Y72
G0 X98.842 Y72
G0 X98.842 Y72.82
G1 F1200 X114.184 Y88.162 E273.43233
G0 F6000 X115.003 Y88.162
G0 X115.003 Y87.031
G0 X114.184 Y87.031
G1 F1200 X99.973 Y72.82 E274.76921
G0 F6000 X99.973 Y72
G0 X101.104 Y72
G0 X101.104 Y72.82
G1 F1200 X114.184 Y85.9 E275.9997
G0 F6000 X115.003 Y85.9
G0 X115.003 Y84.768
G0 X114.184 Y84.768
G1 F1200 X102.236 Y72.82 E277.12369
G0 F6000 X102.236 Y72
G0 X103.367 Y72
G0 X103.367 Y72.82
G1 F1200 X114.184 Y83.637 E278.14129
G0 F6000 X114.337 Y82.659
G1 F1200 X104.499 Y72.82 E279.06683
G0 F6000 X104.499 Y72
G0 X105.63 Y72
G0 X105.63 Y72.82
G1 F1200 X114.769 Y81.96 E279.92662
G0 F6000 X115.408 Y81.467
G1 F1200 X106.761 Y72.82 E280.74008
G0 F6000 X106.761 Y72
G0 X107.893 Y72
G0 X107.893 Y72.82
G1 F1200 X116.258 Y81.185 E281.52701
G0 F6000 X116.372 Y81.999
G0 X117.383 Y82
G0 X117.383 Y81.18
G1 F1200 X109.024 Y72.82 E282.31342
G0 F6000 X109.024 Y72
G0 X110.155 Y72
G0 X110.155 Y72.82
G1 F1200 X118.515 Y81.18 E283.09988
G0 F6000 X118.515 Y82
G0 X119.528 Y82.472
G0 X119.997 Y83.478
G0 X120.814 Y83.478
G1 F1200 X146.18 Y108.844 E285.48615
G0 F6000 X147 Y108.844
G0 X147 Y107.713
G0 X146.18 Y107.713
G1 F1200 X111.287 Y72.82 E288.76867
G0 F6000 X111.287 Y72
G0 X112.418 Y72
G0 X112.418 Y72.82
G1 F1200 X146.18 Y106.582 E291.94479
G0 F6000 X147 Y106.582
G0 X147 Y105.45
G0 X146.18 Y105.45
G1 F1200 X113.55 Y72.82 E295.01442
G0 F6000 X113.55 Y72
G0 X114.681 Y72
G0 X114.681 Y72.82
G1 F1200 X146.18 Y104.319 E297.97766
G0 F6000 X147 Y104.319
G0 X147 Y103.188
G0 X146.18 Y103.188
G1 F1200 X115.812 Y72.82 E300.83449
G0 F6000 X115.812 Y72
G0 X116.944 Y72
G0 X116.944 Y72.82
G1 F1200 X146.18 Y102.056 E303.58484
G0 F6000 X147 Y102.056
G0 X147 Y100.925
G0 X146.18 Y100.925
G1 F1200 X118.076 Y72.821 E306.22869
G0 F6000 X118.076 Y72
G0 X119.207 Y72
G0 X119.207 Y72.821
G1 F1200 X146.18 Y99.793 E308.7661
G0 F6000 X147 Y99.793
G0 X147 Y98.662
G0 X146.18 Y98.662
G1 F1200 X120.338 Y72.821 E311.19711
G0 F6000 X120.338 Y72
G0 X121.47 Y72
G0 X121.47 Y72.821
G1 F1200 X146.18 Y97.531 E313.52167
G0 F6000 X147 Y97.531
G0 X147 Y96.399
G0 X146.18 Y96.399
G1 F1200 X122.601 Y72.821 E315.73979
G0 F6000 X122.601 Y72
G0 X123.733 Y72
G0 X123.733 Y72.821
G1 F1200 X146.18 Y95.268 E317.85147
G0 F6000 X147 Y95.268
G0 X147 Y94.137
G0 X146.18 Y94.137
G1 F1200 X124.864 Y72.821 E319.85675
G0 F6000 X124.864 Y72
G0 X125.995 Y72
G0 X125.995 Y72.821
G1 F1200 X146.18 Y93.005 E321.75558
G0 F6000 X147 Y93.005
G0 X147 Y91.874
G0 X146.18 Y91.874
G1 F1200 X127.127 Y72.821 E323.54797
G0 F6000 X127.127 Y72
G0 X128.258 Y72
G0 X128.258 Y72.821
G1 F1200 X146.18 Y90.743 E325.23396
G0 F6000 X147 Y90.743
G0 X147 Y89.611
G0 X146.18 Y89.611
G1 F1200 X129.389 Y72.821 E326.81351
G0 F6000 X129.389 Y72
G0 X130.521 Y72
G0 X130.521 Y72.821
G1 F1200 X146.18 Y88.48 E328.28661
