;FLAVOR:Marlin
;TIME:172
;Filament used: 0.109175m
;Layer height: 0.2
;MINX:112.9
;MINY:112.9
;MINZ:0.2
;MAXX:122.1
;MAXY:122.1
;MAXZ:6.4
;TARGET_MACHINE.NAME:Creality Ender-3
;Generated with Cura_SteamEngine 5.6.0
M140 S60
M105
M190 S60
M104 S205
M105
M109 S205
M82 ;absolute extrusion mode
; Ender 3 Custom Start G-code
G92 E0 ; Reset Extruder
G28 ; Home all axes
G1 Z2.0 F3000 ; Move Z Axis up little to prevent scratching of Heat Bed
G1 X0.1 Y20 Z0.3 F5000.0 ; Move to start position
G1 X0.1 Y200.0 Z0.3 F1500.0 E15 ; Draw the first line
G1 X0.4 Y200.0 Z0.3 F5000.0 ; Move to side a little
G1 X0.4 Y20 Z0.3 F1500.0 E30 ; Draw the second line
G92 E0 ; Reset Extruder
G1 Z2.0 F3000 ; Move Z Axis up little to prevent scratching of Heat Bed
G1 X5 Y20 Z0.3 F5000.0 ; Move over to prevent blob squish
G92 E0
G92 E0
G1 F2700 E-0.8
;LAYER_COUNT:32
;LAYER:0
M107
;MESH:screw.stl
G0 F6000 X121.3 Y121.3 Z0.2
;TYPE:WALL-INNER
G1 F2700 E0
G1 F964.5 X121.3 Y113.7 E0.50555
G1 X113.7 Y113.7 E1.01111
G1 X113.7 Y121.3 E1.51666
G1 X121.3 Y121.3 E2.02222
G0 F6000 X122.1 Y122.1
;TYPE:WALL-OUTER
G1 F964.5 X122.1 Y112.9 E2.6342
G1 X112.9 Y112.9 E3.24619
G1 X112.9 Y122.1 E3.85818
G1 X122.1 Y122.1 E4.47016
G0 F6000 X121.43 Y121.43
G0 X121 Y120.58
G0 X120.58 Y120.58
;TYPE:SKIN
G1 F964.5 X114.42 Y120.58 E4.87993
G1 X114.42 Y114.42 E5.28969
G1 X120.58 Y114.42 E5.69946
G1 X120.58 Y120.58 E6.10922
G0 F6000 X121 Y120.58
G0 X121 Y115.654
G0 X120.179 Y115.654
G1 F964.5 X119.345 Y114.819 E6.18773
G0 F6000 X119.345 Y114
G0 X118.214 Y114
G0 X118.214 Y114.819
G1 F964.5 X120.179 Y116.785 E6.37263
G0 F6000 X121 Y116.785
G0 X121 Y117.917
G0 X120.179 Y117.917
G1 F964.5 X117.082 Y114.819 E6.66402
G0 F6000 X117.082 Y114
G0 X115.951 Y114
G0 X115.951 Y114.819
G1 F964.5 X120.179 Y119.048 E7.06181
G0 F6000 X121 Y119.048
G0 X121 Y120.179
G0 X120.179 Y120.179
G1 F964.5 X114.819 Y114.819 E7.56605
G0 F6000 X114 Y114.819
G0 X114 Y115.951
G0 X114.819 Y115.951
G1 F964.5 X119.048 Y120.179 E7.96384
G0 F6000 X119.048 Y121
G0 X117.917 Y121
G0 X117.917 Y120.179
G1 F964.5 X114.819 Y117.082 E8.25523
G0 F6000 X114 Y117.082
G0 X114 Y118.214
G0 X114.819 Y118.214
G1 F964.5 X116.785 Y120.179 E8.44014
G0 F6000 X116.785 Y121
G0 X115.654 Y121
G0 X115.654 Y120.179
G1 F964.5 X114.819 Y119.345 E8.51864
;MESH:NONMESH
G0 F300 X114.819 Y119.345 Z0.4
G0 F6000 X114 Y119.345
G0 X114.072 Y120.928
G0 X121.3 Y121.3
;TIME_ELAPSED:14.978637
;LAYER:1
M106 S255
;TYPE:WALL-INNER
;MESH:screw.stl
G1 F785.4 X121.3 Y113.7 E9.0242
G1 X113.7 Y113.7 E9.52975
G1 X113.7 Y121.3 E10.0353
G1 X121.3 Y121.3 E10.54086
G0 F7500 X122.1 Y122.1
;TYPE:WALL-OUTER
G1 F785.4 X122.1 Y112.9 E11.15284
G1 X112.9 Y112.9 E11.76483
G1 X112.9 Y122.1 E12.37682
G1 X122.1 Y122.1 E12.9888
G0 F7500 X121.43 Y121.43
G0 X121 Y120.58
G0 X120.58 Y120.58
;TYPE:SKIN
G1 F785.4 X114.42 Y120.58 E13.39857
G1 X114.42 Y114.42 E13.80833
G1 X120.58 Y114.42 E14.2181
G1 X120.58 Y120.58 E14.62786
G0 F7500 X119.67 Y120.179
G1 F785.4 X120.179 Y119.67 E14.67575
G0 F7500 X121 Y119.67
G0 X121 Y118.539
G0 X120.179 Y118.539
G1 F785.4 X118.539 Y120.179 E14.83003
G0 F7500 X118.539 Y121
G0 X117.408 Y121
G0 X117.408 Y120.179
G1 F785.4 X120.179 Y117.408 E15.09071
G0 F7500 X121 Y117.408
G0 X121 Y116.276
G0 X120.179 Y116.276
G1 F785.4 X116.276 Y120.179 E15.45788
G0 F7500 X116.276 Y121
G0 X115.145 Y121
G0 X115.145 Y120.179
G1 F785.4 X120.179 Y115.145 E15.93144
G0 F7500 X119.373 Y114.819
G1 F785.4 X114.819 Y119.373 E16.35986
G0 F7500 X114 Y119.373
G0 X114 Y118.242
G0 X114.819 Y118.242
G1 F785.4 X118.242 Y114.819 E16.68187
G0 F7500 X118.242 Y114
G0 X117.111 Y114
G0 X117.111 Y114.819
G1 F785.4 X114.819 Y117.111 E16.89749
G0 F7500 X114 Y117.111
G0 X114 Y115.979
G0 X114.819 Y115.979
G1 F785.4 X115.979 Y114.819 E17.00662
;MESH:NONMESH
G0 F300 X115.979 Y114.819 Z0.6
G0 F7500 X115.979 Y114
G0 X120.928 Y114.072
G0 X121.3 Y121.3
;TIME_ELAPSED:27.129037
;LAYER:2
M106 S170
;TYPE:WALL-INNER
;MESH:screw.stl
G1 F789.5 X121.3 Y113.7 E17.51217
G1 X113.7 Y113.7 E18.01772
G1 X113.7 Y121.3 E18.52328
G1 X121.3 Y121.3 E19.02883
G0 F9000 X122.1 Y122.1
;TYPE:WALL-OUTER
G1 F789.5 X122.1 Y112.9 E19.64082
G1 X112.9 Y112.9 E20.2528
G1 X112.9 Y122.1 E20.86479
G1 X122.1 Y122.1 E21.47678
G0 F9000 X121.43 Y121.43
G0 X121 Y120.58
G0 X120.58 Y120.58
;TYPE:SKIN
G1 F789.5 X114.42 Y120.58 E21.88654
G1 X114.42 Y114.42 E22.29631
G1 X120.58 Y114.42 E22.70607
G1 X120.58 Y120.58 E23.11584
G0 F9000 X121 Y120.58
G0 X121 Y115.654
G0 X120.179 Y115.654
G1 F789.5 X119.345 Y114.819 E23.19434
G0 F9000 X119.345 Y114
G0 X118.214 Y114
G0 X118.214 Y114.819
G1 F789.5 X120.179 Y116.785 E23.37924
G0 F9000 X121 Y116.785
G0 X121 Y117.917
G0 X120.179 Y117.917
G1 F789.5 X117.082 Y114.819 E23.67064
G0 F9000 X117.082 Y114
G0 X115.951 Y114
G0 X115.951 Y114.819
G1 F789.5 X120.179 Y119.048 E24.06843
G0 F9000 X121 Y119.048
G0 X121 Y120.179
G0 X120.179 Y120.179
G1 F789.5 X114.819 Y114.819 E24.57266
G0 F9000 X114 Y114.819
G0 X114 Y115.951
G0 X114.819 Y115.951
G1 F789.5 X119.048 Y120.179 E24.97046
G0 F9000 X119.048 Y121
G0 X117.917 Y121
G0 X117.917 Y120.179
G1 F789.5 X114.819 Y117.082 E25.26185
G0 F9000 X114 Y117.082
G0 X114 Y118.214
G0 X114.819 Y118.214
G1 F789.5 X116.785 Y120.179 E25.44675
G0 F9000 X116.785 Y121
G0 X115.654 Y121
G0 X115.654 Y120.179
G1 F789.5 X114.819 Y119.345 E25.52526
;MESH:NONMESH
G0 F300 X114.819 Y119.345 Z0.8
G0 F9000 X114 Y119.345
G0 X114.072 Y120.928
G0 X121.3 Y121.3
;TIME_ELAPSED:39.514159
;LAYER:3
M106 S255
;TYPE:WALL-INNER
;MESH:screw.stl
G1 F600 X121.3 Y113.7 E26.03081
G1 X113.7 Y113.7 E26.53636
G1 X113.7 Y121.3 E27.04192
G1 X121.3 Y121.3 E27.54747
G0 F9000 X122.1 Y122.1
;TYPE:WALL-OUTER
G1 F600 X122.1 Y112.9 E28.15946
G1 X112.9 Y112.9 E28.77145
G1 X112.9 Y122.1 E29.38343
G1 X122.1 Y122.1 E29.99542
G0 F9000 X120.7 Y120.935
;MESH:NONMESH
G0 F300 X120.7 Y120.935 Z1
G0 F9000 X121.3 Y121.3
;TIME_ELAPSED:46.565693
;LAYER:4
;TYPE:WALL-INNER
;MESH:screw.stl
G1 F600 X121.3 Y113.7 E30.50097
G1 X113.7 Y113.7 E31.00653
G1 X113.7 Y121.3 E31.51208
G1 X121.3 Y121.3 E32.01763
G0 F9000 X122.1 Y122.1
;TYPE:WALL-OUTER
G1 F600 X122.1 Y112.9 E32.62962
G1 X112.9 Y112.9 E33.24161
G1 X112.9 Y122.1 E33.85359
G1 X122.1 Y122.1 E34.46558
G0 F9000 X120.7 Y120.935
;MESH:NONMESH
G0 F300 X120.7 Y120.935 Z1.2
G0 F9000 X121.3 Y121.3
;TIME_ELAPSED:53.617226
;LAYER:5
;TYPE:WALL-INNER
;MESH:screw.stl
G1 F600 X121.3 Y113.7 E34.97113
G1 X113.7 Y113.7 E35.47669
G1 X113.7 Y121.3 E35.98224
G1 X121.3 Y121.3 E36.4878
G0 F9000 X122.1 Y122.1
;TYPE:WALL-OUTER
G1 F600 X122.1 Y112.9 E37.09978
G1 X112.9 Y112.9 E37.71177
G1 X112.9 Y122.1 E38.32376
G1 X122.1 Y122.1 E38.93574
G0 F9000 X120.7 Y120.935
;MESH:NONMESH
G0 F300 X120.7 Y120.935 Z1.4
G0 F9000 X121.3 Y121.3
;TIME_ELAPSED:60.668760
;LAYER:6
;TYPE:WALL-INNER
;MESH:screw.stl
G1 F600 X121.3 Y113.7 E39.4413
G1 X113.7 Y113.7 E39.94685
G1 X113.7 Y121.3 E40.45241
G1 X121.3 Y121.3 E40.95796
G0 F9000 X122.1 Y122.1
;TYPE:WALL-OUTER
G1 F600 X122.1 Y112.9 E41.56995
G1 X112.9 Y112.9 E42.18193
G1 X112.9 Y122.1 E42.79392
G1 X122.1 Y122.1 E43.40591
G0 F9000 X121.43 Y121.43
G0 X114.293 Y118.326
;TYPE:FILL
G1 F600 X114.26 Y118.326 E43.4081
G0 F9000 X114.3 Y118.326
;MESH:NONMESH
G0 F300 X114.3 Y118.326 Z1.6
G0 F9000 X121.3 Y121.3
;TIME_ELAPSED:68.060896
;LAYER:7
;TYPE:WALL-INNER
;MESH:screw.stl
G1 F600 X121.3 Y113.7 E43.91365
G1 X113.7 Y113.7 E44.41921
G1 X113.7 Y121.3 E44.92476
G1 X121.3 Y121.3 E45.43032
G0 F9000 X122.1 Y122.1
;TYPE:WALL-OUTER
G1 F600 X122.1 Y112.9 E46.0423
G1 X112.9 Y112.9 E46.65429
G1 X112.9 Y122.1 E47.26628
G1 X122.1 Y122.1 E47.87826
G0 F9000 X121.43 Y121.43
G0 X114.46 Y118.326
;TYPE:FILL
G1 F600 X114.26 Y118.326 E47.89157
G0 F9000 X114.3 Y118.326
;MESH:NONMESH
G0 F300 X114.3 Y118.326 Z1.8
G0 F9000 X121.3 Y121.3
;TIME_ELAPSED:75.469626
;LAYER:8
;TYPE:WALL-INNER
;MESH:screw.stl
G1 F600 X121.3 Y113.7 E48.39712
G1 X113.7 Y113.7 E48.90267
G1 X113.7 Y121.3 E49.40823
G1 X121.3 Y121.3 E49.91378
G0 F9000 X122.1 Y122.1
;TYPE:WALL-OUTER
G1 F600 X122.1 Y112.9 E50.52577
G1 X112.9 Y112.9 E51.13776
G1 X112.9 Y122.1 E51.74974
G1 X122.1 Y122.1 E52.36173
G0 F9000 X121.43 Y121.43
G0 X114.627 Y118.326
;TYPE:FILL
G1 F600 X114.26 Y118.326 E52.38614
G0 F9000 X114.3 Y118.326
;MESH:NONMESH
G0 F300 X114.3 Y118.326 Z2
G0 F9000 X121.3 Y121.3
;TIME_ELAPSED:82.891807
;LAYER:9
;TYPE:WALL-INNER
;MESH:screw.stl
G1 F600 X121.3 Y113.7 E52.8917
G1 X113.7 Y113.7 E53.39725
G1 X113.7 Y121.3 E53.9028
G1 X121.3 Y121.3 E54.40836
G0 F9000 X122.1 Y122.1
;TYPE:WALL-OUTER
G1 F600 X122.1 Y112.9 E55.02034
G1 X112.9 Y112.9 E55.63233
G1 X112.9 Y122.1 E56.24432
G1 X122.1 Y122.1 E56.8563
G0 F9000 X121.43 Y121.43
G0 X114.794 Y118.326
;TYPE:FILL
G1 F600 X114.26 Y118.326 E56.89183
G0 F9000 X114.3 Y118.326
;MESH:NONMESH
G0 F300 X114.3 Y118.326 Z2.2
G0 F9000 X121.3 Y121.3
;TIME_ELAPSED:90.327386
;LAYER:10
;TYPE:WALL-INNER
;MESH:screw.stl
G1 F600 X121.3 Y113.7 E57.39738
G1 X113.7 Y113.7 E57.90293
G1 X113.7 Y121.3 E58.40849
G1 X121.3 Y121.3 E58.91404
G0 F9000 X122.1 Y122.1
;TYPE:WALL-OUTER
G1 F600 X122.1 Y112.9 E59.52603
G1 X112.9 Y112.9 E60.13801
G1 X112.9 Y122.1 E60.75
G1 X122.1 Y122.1 E61.36199
G0 F9000 X121.43 Y121.43
G0 X114.961 Y118.326
;TYPE:FILL
G1 F600 X114.26 Y118.326 E61.40862
G0 F9000 X114.3 Y118.326
;MESH:NONMESH
G0 F300 X114.3 Y118.326 Z2.4
G0 F9000 X121.3 Y121.3
;TIME_ELAPSED:97.776315
;LAYER:11
;TYPE:WALL-INNER
;MESH:screw.stl
G1 F600 X121.3 Y113.7 E61.91417
G1 X113.7 Y113.7 E62.41973
G1 X113.7 Y121.3 E62.92528
G1 X121.3 Y121.3 E63.43083
G0 F9000 X122.1 Y122.1
;TYPE:WALL-OUTER
G1 F600 X122.1 Y112.9 E64.04282
G1 X112.9 Y112.9 E64.65481
G1 X112.9 Y122.1 E65.26679
G1 X122.1 Y122.1 E65.87878
G0 F9000 X121.43 Y121.43
G0 X115.128 Y118.326
;TYPE:FILL
G1 F600 X114.26 Y118.326 E65.93652
G0 F9000 X114.3 Y118.326
;MESH:NONMESH
G0 F300 X114.3 Y118.326 Z2.6
G0 F9000 X121.3 Y121.3
;TIME_ELAPSED:105.238543
;LAYER:12
;TYPE:WALL-INNER
;MESH:screw.stl
G1 F789.1 X121.3 Y113.7 E66.44207
G1 X113.7 Y113.7 E66.94763
G1 X113.7 Y121.3 E67.45318
G1 X121.3 Y121.3 E67.95874
G0 F9000 X122.1 Y122.1
;TYPE:WALL-OUTER
G1 F789.1 X122.1 Y112.9 E68.57072
G1 X112.9 Y112.9 E69.18271
G1 X112.9 Y122.1 E69.7947
G1 X122.1 Y122.1 E70.40668
G0 F9000 X121.43 Y121.43
G0 X121 Y120.58
G0 X120.58 Y120.58
;TYPE:SKIN
G1 F789.1 X114.42 Y120.58 E70.81645
G1 X114.42 Y114.42 E71.22621
G1 X120.58 Y114.42 E71.63598
G1 X120.58 Y120.58 E72.04574
G0 F9000 X121 Y120.58
G0 X121 Y115.654
G0 X120.179 Y115.654
G1 F789.1 X119.345 Y114.819 E72.12425
G0 F9000 X119.345 Y114
G0 X118.214 Y114
G0 X118.214 Y114.819
G1 F789.1 X120.179 Y116.785 E72.30915
G0 F9000 X121 Y116.785
G0 X121 Y117.917
G0 X120.179 Y117.917
G1 F789.1 X117.082 Y114.819 E72.60054
G0 F9000 X117.082 Y114
G0 X115.951 Y114
G0 X115.951 Y114.819
G1 F789.1 X120.179 Y119.048 E72.99833
G0 F9000 X121 Y119.048
G0 X121 Y120.179
G0 X120.179 Y120.179
G1 F789.1 X114.819 Y114.819 E73.50257
G0 F9000 X114 Y114.819
G0 X114 Y115.951
G0 X114.819 Y115.951
G1 F789.1 X119.048 Y120.179 E73.90036
G0 F9000 X119.048 Y121
G0 X117.917 Y121
G0 X117.917 Y120.179
G1 F789.1 X114.819 Y117.082 E74.19175
G0 F9000 X114 Y117.082
G0 X114 Y118.214
G0 X114.819 Y118.214
G1 F789.1 X116.785 Y120.179 E74.37666
G0 F9000 X116.785 Y121
G0 X115.654 Y121
G0 X115.654 Y120.179
G1 F789.1 X114.819 Y119.345 E74.45516
;MESH:NONMESH
G0 F300 X114.819 Y119.345 Z2.8
G0 F9000 X114 Y119.345
G0 X114.072 Y120.928
G0 X121.3 Y121.3
;TIME_ELAPSED:117.628682
;LAYER:13
;TYPE:WALL-INNER
;MESH:screw.stl
G1 F782 X121.3 Y113.7 E74.96072
G1 X113.7 Y113.7 E75.46627
G1 X113.7 Y121.3 E75.97182
G1 X121.3 Y121.3 E76.47738
G0 F9000 X122.1 Y122.1
;TYPE:WALL-OUTER
G1 F782 X122.1 Y112.9 E77.08936
G1 X112.9 Y112.9 E77.70135
G1 X112.9 Y122.1 E78.31334
G1 X122.1 Y122.1 E78.92532
G0 F9000 X121.43 Y121.43
G0 X121 Y120.58
G0 X120.58 Y120.58
;TYPE:SKIN
G1 F782 X114.42 Y120.58 E79.33509
G1 X114.42 Y114.42 E79.74485
G1 X120.58 Y114.42 E80.15462
G1 X120.58 Y120.58 E80.56438
G0 F9000 X119.67 Y120.179
G1 F782 X120.179 Y119.67 E80.61227
G0 F9000 X121 Y119.67
G0 X121 Y118.539
G0 X120.179 Y118.539
G1 F782 X118.539 Y120.179 E80.76655
G0 F9000 X118.539 Y121
G0 X117.408 Y121
G0 X117.408 Y120.179
G1 F782 X120.179 Y117.408 E81.02723
G0 F9000 X121 Y117.408
G0 X121 Y116.276
G0 X120.179 Y116.276
G1 F782 X116.276 Y120.179 E81.3944
G0 F9000 X116.276 Y121
G0 X115.145 Y121
G0 X115.145 Y120.179
G1 F782 X120.179 Y115.145 E81.86796
G0 F9000 X119.373 Y114.819
G1 F782 X114.819 Y119.373 E82.29638
G0 F9000 X114 Y119.373
G0 X114 Y118.242
G0 X114.819 Y118.242
G1 F782 X118.242 Y114.819 E82.61839
G0 F9000 X118.242 Y114
G0 X117.111 Y114
G0 X117.111 Y114.819
G1 F782 X114.819 Y117.111 E82.83401
G0 F9000 X114 Y117.111
G0 X114 Y115.979
G0 X114.819 Y115.979
G1 F782 X115.979 Y114.819 E82.94314
;MESH:NONMESH
G0 F300 X115.979 Y114.819 Z3
G0 F9000 X115.979 Y114
G0 X120.928 Y114.072
G0 X121.3 Y121.3
;TIME_ELAPSED:129.828486
;LAYER:14
;TYPE:WALL-INNER
;MESH:screw.stl
G1 F789.5 X121.3 Y113.7 E83.44869
G1 X113.7 Y113.7 E83.95424
G1 X113.7 Y121.3 E84.4598
G1 X121.3 Y121.3 E84.96535
G0 F9000 X122.1 Y122.1
;TYPE:WALL-OUTER
G1 F789.5 X122.1 Y112.9 E85.57734
G1 X112.9 Y112.9 E86.18932
G1 X112.9 Y122.1 E86.80131
G1 X122.1 Y122.1 E87.4133
G0 F9000 X121.43 Y121.43
G0 X121 Y120.58
G0 X120.58 Y120.58
;TYPE:SKIN
G1 F789.5 X114.42 Y120.58 E87.82306
G1 X114.42 Y114.42 E88.23283
G1 X120.58 Y114.42 E88.64259
G1 X120.58 Y120.58 E89.05236
G0 F9000 X121 Y120.58
G0 X121 Y115.654
G0 X120.179 Y115.654
G1 F789.5 X119.345 Y114.819 E89.13086
G0 F9000 X119.345 Y114
G0 X118.214 Y114
G0 X118.214 Y114.819
G1 F789.5 X120.179 Y116.785 E89.31576
G0 F9000 X121 Y116.785
G0 X121 Y117.917
G0 X120.179 Y117.917
G1 F789.5 X117.082 Y114.819 E89.60716
G0 F9000 X117.082 Y114
G0 X115.951 Y114
G0 X115.951 Y114.819
G1 F789.5 X120.179 Y119.048 E90.00495
G0 F9000 X121 Y119.048
G0 X121 Y120.179
G0 X120.179 Y120.179
G1 F789.5 X114.819 Y114.819 E90.50918
G0 F9000 X114 Y114.819
G0 X114 Y115.951
G0 X114.819 Y115.951
G1 F789.5 X119.048 Y120.179 E90.90698
G0 F9000 X119.048 Y121
G0 X117.917 Y121
G0 X117.917 Y120.179
G1 F789.5 X114.819 Y117.082 E91.19837
G0 F9000 X114 Y117.082
G0 X114 Y118.214
G0 X114.819 Y118.214
G1 F789.5 X116.785 Y120.179 E91.38327
G0 F9000 X116.785 Y121
G0 X115.654 Y121
G0 X115.654 Y120.179
G1 F789.5 X114.819 Y119.345 E91.46178
;MESH:NONMESH
G0 F300 X114.819 Y119.345 Z3.2
G0 F9000 X114 Y119.345
G0 X114.072 Y120.928
G0 X117.36 Y121
G0 X117.36 Y119.749
;TIME_ELAPSED:142.211189
;LAYER:15
;TYPE:WALL-OUTER
;MESH:screw.stl
G1 F967.7 X117.073 Y119.706 E91.47375
G1 F956.2 X116.798 Y119.636 E91.48559
G1 X116.544 Y119.534 E91.49702
G1 X116.29 Y119.395 E91.5091
G1 F965.8 X116.065 Y119.236 E91.52049
G1 F963.9 X115.807 Y118.986 E91.53536
G1 F954.3 X115.606 Y118.71 E91.54964
G1 F961.9 X115.458 Y118.445 E91.56224
G1 F963.9 X115.361 Y118.202 E91.57307
G1 F960 X115.296 Y117.939 E91.58434
G1 F956.2 X115.257 Y117.636 E91.59709
G1 F954.3 X115.257 Y117.364 E91.60846
G1 F956.2 X115.293 Y117.076 E91.62058
G1 X115.363 Y116.799 E91.63251
G1 X115.46 Y116.556 E91.64343
G1 X115.609 Y116.284 E91.65637
G1 X115.765 Y116.07 E91.66743
G1 X116.011 Y115.81 E91.68237
G1 X116.302 Y115.599 E91.69737
G1 F954.3 X116.554 Y115.462 E91.70937
G1 X116.804 Y115.362 E91.72063
G1 F956.2 X117.079 Y115.293 E91.73246
G1 X117.368 Y115.256 E91.74463
G1 F967.7 X117.64 Y115.251 E91.75585
G1 X117.927 Y115.294 E91.76781
G1 F956.2 X118.202 Y115.364 E91.77966
G1 X118.456 Y115.466 E91.79108
G1 X118.71 Y115.605 E91.80317
G1 F965.8 X118.935 Y115.764 E91.81456
G1 F961.9 X119.193 Y116.014 E91.82946
G1 F954.3 X119.394 Y116.29 E91.84374
